; generated by SuperSlicer 2.4 on 2023-03-11 at 02:29:11 UTC


;
;

;
;
; 

; external perimeters extrusion width = 0.45mm
; perimeters extrusion width = 0.45mm
; infill extrusion width = 0.45mm
; solid infill extrusion width = 0.45mm
; top infill extrusion width = 0.40mm
; first layer extrusion width = 0.42mm

; object:{"name":"delta_rod_dampener_v2","id":"delta_rod_dampener_v2.stl id:0 copy 0","object_center":[0.267065,-18.352461,0.000000],"boundingbox_center":[0.267065,-18.352461,0.990000],"boundingbox_size":[63.750000,13.554000,1.980000]}
; object:{"name":"delta_rod_dampener_v2","id":"delta_rod_dampener_v2.stl id:0 copy 1","object_center":[0.267065,1.201539,0.000000],"boundingbox_center":[0.267065,1.201539,0.990000],"boundingbox_size":[63.750000,13.554000,1.980000]}
; object:{"name":"delta_rod_dampener_v2","id":"delta_rod_dampener_v2.stl id:0 copy 2","object_center":[0.267066,20.755539,0.000000],"boundingbox_center":[0.267066,20.755539,0.990000],"boundingbox_size":[63.750000,13.554000,1.980000]}
; plater:{"center":[0.267065,1.201539,0.000000],"boundingbox_center":[0.267065,1.201539,0.990000],"boundingbox_size":[63.750001,52.662000,1.980000]}

;TYPE:Custom
START_PRINT
M107
G21 ; set units to millimeters
G90 ; use absolute coordinates
M83 ; use relative distances for extrusion
; Filament gcode
;_TOOLCHANGE 0
M104 S200 ; set temperature
M109 S200 ; set temperature and wait for it to be reached
M190 S60 ; set bed temperature and wait for it to be reached
M107
;LAYER_CHANGE
;Z:0.2
;HEIGHT:0.2
;BEFORE_LAYER_CHANGE
G92 E0
;0.2
G1 E-5 F3600
G1 Z0.2 F10800
;AFTER_LAYER_CHANGE
;0.2
M204 S1000
G1 X0.003 Y-30.841
G1 E5 F2400
;TYPE:Skirt
;WIDTH:0.52
G1 F1200
G1 X-27.188 Y-30.844 E1.07865
G1 X-28.945 Y-30.666 E0.07003
G1 X-30.671 Y-30.178 E0.07118
G1 X-32.44 Y-29.305 E0.07824
G1 X-33.936 Y-28.188 E0.07406
G1 X-34.727 Y-27.385 E0.04469
G1 X-35.584 Y-26.273 E0.05572
G1 X-36.531 Y-24.511 E0.07937
G1 X-37.113 Y-22.599 E0.07929
G1 X-37.319 Y-20.771 E0.07296
G1 X-37.315 Y18.879 E1.57288
G1 X-37.072 Y20.805 E0.07701
G1 X-36.711 Y22.037 E0.05091
G1 X-36.101 Y23.396 E0.0591
G1 X-35.647 Y24.164 E0.03538
G1 X-34.783 Y25.314 E0.05707
G1 X-33.807 Y26.291 E0.0548
G1 X-32.137 Y27.48 E0.08132
G1 X-23.793 Y32.053 E0.37745
G1 X-22.667 Y32.54 E0.04863
G1 X-21.49 Y32.905 E0.0489
G1 X-20.369 Y33.123 E0.0453
G1 X-19.073 Y33.237 E0.0516
G1 X19.055 Y33.245 E1.51252
G1 X20.499 Y33.172 E0.05737
G1 X22.467 Y32.78 E0.07961
G1 X23.673 Y32.354 E0.05073
G1 X24.52 Y31.956 E0.0371
G1 X32.648 Y27.494 E0.36782
G1 X33.496 Y26.952 E0.03993
G1 X34.371 Y26.262 E0.0442
G1 X35.168 Y25.478 E0.04435
G1 X35.89 Y24.593 E0.04532
G1 X36.885 Y22.911 E0.07752
G1 X37.572 Y20.934 E0.08301
G1 X37.827 Y19.296 E0.0658
G1 X37.852 Y-20.347 E1.5726
G1 X37.781 Y-21.789 E0.05727
G1 X37.386 Y-23.612 E0.07399
G1 X36.645 Y-25.392 E0.07648
G1 X35.611 Y-26.966 E0.07472
G1 X34.368 Y-28.275 E0.07162
G1 X32.892 Y-29.355 E0.07253
G1 X31.09 Y-30.22 E0.07929
G1 X29.39 Y-30.677 E0.06985
G1 X27.897 Y-30.839 E0.05954
G1 X0.063 Y-30.841 E1.10418
G1 X0.063 Y-30.364 F10800
G1 F1200
G1 X-27.188 Y-30.367 E1.08103
G1 X-28.862 Y-30.196 E0.06674
G1 X-30.492 Y-29.736 E0.06718
G1 X-32.203 Y-28.89 E0.07572
G1 X-33.621 Y-27.83 E0.07025
G1 X-34.379 Y-27.059 E0.04289
G1 X-35.196 Y-25.996 E0.05317
G1 X-36.086 Y-24.338 E0.07465
G1 X-36.649 Y-22.488 E0.07672
G1 X-36.842 Y-20.771 E0.06854
G1 X-36.838 Y18.876 E1.57275
G1 X-36.608 Y20.694 E0.07272
G1 X-36.259 Y21.886 E0.04925
G1 X-35.673 Y23.186 E0.05657
G1 X-35.257 Y23.89 E0.03243
G1 X-34.431 Y24.992 E0.05466
G1 X-33.485 Y25.939 E0.05307
G1 X-31.907 Y27.062 E0.07685
G1 X-23.917 Y31.456 E0.3617
G1 X-23.016 Y31.887 E0.03963
G1 X-21.631 Y32.375 E0.05827
G1 X-20.312 Y32.649 E0.05341
G1 X-19.073 Y32.76 E0.04937
G1 X19.055 Y32.768 E1.51251
G1 X20.432 Y32.7 E0.05471
G1 X22.346 Y32.318 E0.0774
G1 X24.29 Y31.538 E0.08311
G1 X32.418 Y27.076 E0.36782
G1 X34.046 Y25.912 E0.07939
G1 X34.808 Y25.165 E0.04232
G1 X35.497 Y24.322 E0.04319
G1 X36.45 Y22.714 E0.07415
G1 X37.105 Y20.837 E0.07888
G1 X37.352 Y19.251 E0.06367
G1 X37.375 Y-20.347 E1.57083
G1 X37.309 Y-21.722 E0.0546
G1 X36.926 Y-23.486 E0.07163
G1 X36.23 Y-25.156 E0.07175
G1 X35.23 Y-26.679 E0.0723
G1 X34.043 Y-27.925 E0.06825
G1 X32.658 Y-28.939 E0.0681
G1 X30.914 Y-29.777 E0.07674
G1 X29.32 Y-30.205 E0.06547
G1 X27.875 Y-30.362 E0.05767
G1 X0.123 Y-30.364 E1.10093
G1 E-3.5 F3600
;WIPE_START
G1 F8640
G1 X-3.477 Y-30.365 E-1.425
;WIPE_END
G1 E-0.075 F3600
; printing object delta_rod_dampener_v2.stl id:0 copy 0
; acceleration to travel
M204 S1500
G1 X-5.75 Y-22.83 F10800
; decel to extrusion
M204 S800
G1 X-6.192 Y-21.365
; end travel
G1 E5 F2400
;TYPE:Internal perimeter
;WIDTH:0.42
G1 F1200
G1 X-6.137 Y-21.326 E0.00212
G1 X-5.637 Y-20.899 E0.02063
G1 X-5.473 Y-20.733 E0.00729
G1 X-5.05 Y-20.219 E0.02088
G1 X-4.793 Y-19.827 E0.01469
G1 X-4.531 Y-19.321 E0.01786
G1 X-4.437 Y-19.101 E0.00752
G1 X-4.282 Y-18.647 E0.01503
G1 X-4.183 Y-18.247 E0.01292
G1 X-4.129 Y-17.93 E0.01008
G1 X-4.093 Y-17.609 E0.01011
G1 X-4.067 Y-17.025 E0.01833
G1 X-4.012 Y-16.561 E0.01466
G1 X-3.854 Y-15.938 E0.02015
G1 X-3.668 Y-15.467 E0.01588
G1 X-3.44 Y-15.044 E0.01508
G1 X-3.278 Y-14.798 E0.00923
G1 X-2.946 Y-14.385 E0.01661
G1 X-2.557 Y-14.007 E0.01699
G1 X-2.185 Y-13.722 E0.01469
G1 X-1.821 Y-13.499 E0.01339
G1 X-1.397 Y-13.296 E0.01476
G1 X-0.938 Y-13.135 E0.01525
G1 X-0.352 Y-13.008 E0.01878
G1 X0.068 Y-12.97 E0.01324
G1 X0.663 Y-12.983 E0.01865
G1 X1.03 Y-13.032 E0.01163
G1 X1.66 Y-13.194 E0.02037
G1 X1.948 Y-13.303 E0.00968
G1 X2.535 Y-13.603 E0.02064
G1 X3.078 Y-13.997 E0.02107
G1 X3.298 Y-14.197 E0.00931
G1 X3.569 Y-14.49 E0.01249
G1 X3.822 Y-14.815 E0.01294
G1 X3.973 Y-15.044 E0.0086
G1 X4.2 Y-15.466 E0.01504
G1 X4.35 Y-15.83 E0.01232
G1 X4.475 Y-16.23 E0.01316
G1 X4.595 Y-16.94 E0.02257
G1 X4.62 Y-17.538 E0.01875
G1 X4.702 Y-18.175 E0.02014
G1 X4.784 Y-18.527 E0.01133
G1 X4.974 Y-19.108 E0.01918
G1 X5.21 Y-19.616 E0.01756
G1 X5.497 Y-20.096 E0.01754
G1 X5.895 Y-20.61 E0.02039
G1 X6.269 Y-20.99 E0.01671
G1 X6.667 Y-21.324 E0.01629
G1 X7.21 Y-21.679 E0.02032
G1 X7.639 Y-21.896 E0.01509
G1 X8.25 Y-22.127 E0.02048
G1 X8.798 Y-22.264 E0.01773
G1 X9.438 Y-22.345 E0.0202
G1 X9.839 Y-22.352 E0.01259
G1 X10.555 Y-22.291 E0.02254
G1 X11.106 Y-22.173 E0.01766
G1 X11.726 Y-21.961 E0.02054
G1 X12.09 Y-21.794 E0.01258
G1 X12.582 Y-21.508 E0.01782
G1 X12.84 Y-21.326 E0.00992
G1 X13.337 Y-20.902 E0.02048
G1 X13.616 Y-20.61 E0.01266
G1 X13.912 Y-20.24 E0.01485
G1 X14.303 Y-19.613 E0.02319
G1 X14.538 Y-19.105 E0.01753
G1 X14.695 Y-18.647 E0.01519
G1 X14.794 Y-18.247 E0.01291
G1 X14.848 Y-17.93 E0.01008
G1 X14.884 Y-17.607 E0.01019
G1 X14.924 Y-16.849 E0.0238
G1 X14.966 Y-16.554 E0.00932
G1 X15.123 Y-15.938 E0.01994
G1 X15.309 Y-15.467 E0.01588
G1 X15.536 Y-15.045 E0.01502
G1 X15.696 Y-14.803 E0.00909
G1 X16.031 Y-14.385 E0.01681
G1 X16.42 Y-14.007 E0.01699
G1 X16.792 Y-13.722 E0.01469
G1 X17.156 Y-13.499 E0.01339
G1 X17.582 Y-13.295 E0.01482
G1 X18.098 Y-13.117 E0.01712
G1 X18.689 Y-12.999 E0.01888
G1 X19.062 Y-12.97 E0.01175
G1 X19.64 Y-12.983 E0.01811
G1 X20.007 Y-13.032 E0.01162
G1 X20.649 Y-13.197 E0.02077
G1 X21.24 Y-13.451 E0.02017
G1 X21.69 Y-13.719 E0.01643
G1 X22.073 Y-14.012 E0.01511
G1 X22.546 Y-14.488 E0.02105
G1 X22.944 Y-15.033 E0.02117
G1 X23.199 Y-15.516 E0.01711
G1 X23.308 Y-15.779 E0.00895
G1 X23.456 Y-16.246 E0.01535
G1 X23.573 Y-16.954 E0.02252
G1 X23.589 Y-17.365 E0.01289
G1 X23.58 Y-20.693 E0.10435
G1 X23.659 Y-21.309 E0.01946
G1 X23.808 Y-21.86 E0.01789
G1 X23.999 Y-22.321 E0.01567
G1 X24.178 Y-22.647 E0.01164
G1 X24.306 Y-22.84 E0.00726
G1 X24.711 Y-23.331 E0.01998
G1 X25.032 Y-23.629 E0.01371
G1 X25.384 Y-23.888 E0.0137
G1 X25.769 Y-24.111 E0.01396
G1 X26.339 Y-24.348 E0.01936
G1 X26.829 Y-24.473 E0.01585
G1 X27.264 Y-24.53 E0.01375
G1 X27.628 Y-24.542 E0.01143
G1 X27.862 Y-24.531 E0.00734
G1 X28.441 Y-24.446 E0.01836
G1 X28.797 Y-24.35 E0.01157
G1 X29.26 Y-24.166 E0.01562
G1 X29.769 Y-23.879 E0.01831
G1 X30.109 Y-23.629 E0.01324
G1 X30.433 Y-23.328 E0.01386
G1 X30.591 Y-23.155 E0.00734
G1 X30.899 Y-22.746 E0.01607
G1 X31.15 Y-22.305 E0.01589
G1 X31.316 Y-21.915 E0.01329
G1 X31.486 Y-21.294 E0.02019
G1 X31.536 Y-20.938 E0.01127
G1 X31.549 Y-20.368 E0.01787
G1 X31.514 Y-19.995 E0.01175
G1 X31.41 Y-19.499 E0.01588
G1 X31.249 Y-19.032 E0.01551
G1 X30.963 Y-18.472 E0.0197
G1 X30.718 Y-18.118 E0.0135
G1 X30.433 Y-17.79 E0.01362
G1 X30.11 Y-17.49 E0.01382
G1 X29.455 Y-17.031 E0.02508
G1 X29.455 Y-18.003 E0.03048
G1 X29.566 Y-18.079 E0.00421
G1 X29.991 Y-18.49 E0.01853
G1 X30.288 Y-18.901 E0.01592
G1 X30.547 Y-19.431 E0.01848
G1 X30.689 Y-19.92 E0.01596
G1 X30.753 Y-20.504 E0.01844
G1 X30.727 Y-20.969 E0.01458
G1 X30.684 Y-21.217 E0.00791
G1 X30.547 Y-21.689 E0.0154
G1 X30.296 Y-22.204 E0.01797
G1 X30.113 Y-22.473 E0.01021
G1 X29.85 Y-22.782 E0.01271
G1 X29.411 Y-23.155 E0.01807
G1 X29.141 Y-23.327 E0.01006
G1 X28.712 Y-23.529 E0.01486
G1 X28.495 Y-23.605 E0.0072
G1 X28.021 Y-23.71 E0.01523
G1 X27.589 Y-23.741 E0.01358
G1 X27.342 Y-23.732 E0.00774
G1 X26.933 Y-23.677 E0.01294
G1 X26.628 Y-23.599 E0.00988
G1 X26.183 Y-23.423 E0.015
G1 X25.983 Y-23.316 E0.00712
G1 X25.577 Y-23.041 E0.01536
G1 X25.158 Y-22.636 E0.01827
G1 X24.98 Y-22.405 E0.00915
G1 X24.759 Y-22.051 E0.01309
G1 X24.596 Y-21.688 E0.01247
G1 X24.498 Y-21.389 E0.00986
G1 X24.405 Y-20.882 E0.01618
G1 X24.405 Y-17.398 E0.10922
G1 X24.348 Y-16.659 E0.02325
G1 X24.297 Y-16.345 E0.00997
G1 X24.132 Y-15.708 E0.02063
G1 X23.931 Y-15.19 E0.01743
G1 X23.629 Y-14.619 E0.02027
G1 X23.402 Y-14.278 E0.01282
G1 X23.098 Y-13.9 E0.0152
G1 X22.738 Y-13.533 E0.01612
G1 X22.536 Y-13.354 E0.00847
G1 X22.059 Y-13.003 E0.01856
G1 X21.504 Y-12.687 E0.02003
G1 X21.132 Y-12.521 E0.01277
G1 X20.837 Y-12.416 E0.00981
G1 X20.285 Y-12.271 E0.01789
G1 X19.649 Y-12.181 E0.02015
G1 X19.075 Y-12.167 E0.018
G1 X18.446 Y-12.225 E0.01982
G1 X17.883 Y-12.347 E0.01804
G1 X17.572 Y-12.442 E0.0102
G1 X17.282 Y-12.552 E0.00974
G1 X16.908 Y-12.724 E0.01289
G1 X16.418 Y-13.01 E0.01779
G1 X16.159 Y-13.192 E0.00993
G1 X15.655 Y-13.622 E0.02075
G1 X15.282 Y-14.025 E0.01724
G1 X14.946 Y-14.482 E0.01779
G1 X14.696 Y-14.903 E0.01533
G1 X14.456 Y-15.424 E0.01801
G1 X14.302 Y-15.876 E0.01496
G1 X14.191 Y-16.34 E0.01496
G1 X14.115 Y-16.918 E0.01827
G1 X14.071 Y-17.696 E0.02445
G1 X13.965 Y-18.281 E0.01863
G1 X13.766 Y-18.875 E0.01965
G1 X13.461 Y-19.475 E0.02109
G1 X13.15 Y-19.918 E0.017
G1 X12.96 Y-20.139 E0.00914
G1 X12.578 Y-20.51 E0.01667
G1 X12.207 Y-20.794 E0.01468
G1 X11.844 Y-21.018 E0.01338
G1 X11.416 Y-21.222 E0.01486
G1 X10.909 Y-21.396 E0.0168
G1 X10.599 Y-21.469 E0.01
G1 X10.158 Y-21.534 E0.01396
G1 X9.754 Y-21.553 E0.0127
G1 X9.449 Y-21.54 E0.00956
G1 X8.877 Y-21.464 E0.01811
G1 X8.53 Y-21.376 E0.01121
G1 X8.096 Y-21.223 E0.01444
G1 X7.657 Y-21.013 E0.01526
G1 X7.297 Y-20.791 E0.01326
G1 X6.748 Y-20.343 E0.02221
G1 X6.448 Y-20.021 E0.01379
G1 X6.057 Y-19.487 E0.02076
G1 X5.83 Y-19.068 E0.01495
G1 X5.672 Y-18.688 E0.01289
G1 X5.545 Y-18.279 E0.01345
G1 X5.463 Y-17.858 E0.01344
G1 X5.426 Y-17.555 E0.00955
G1 X5.379 Y-16.735 E0.02575
G1 X5.322 Y-16.357 E0.01201
G1 X5.135 Y-15.648 E0.02299
G1 X4.952 Y-15.183 E0.01567
G1 X4.816 Y-14.907 E0.00965
G1 X4.522 Y-14.417 E0.01792
G1 X4.281 Y-14.091 E0.0127
G1 X4.125 Y-13.904 E0.00762
G1 X3.761 Y-13.533 E0.0163
G1 X3.558 Y-13.354 E0.00848
G1 X3.093 Y-13.01 E0.01814
G1 X2.527 Y-12.687 E0.02044
G1 X2.161 Y-12.524 E0.01255
G1 X1.623 Y-12.346 E0.01777
G1 X0.984 Y-12.215 E0.02044
G1 X0.432 Y-12.166 E0.01738
G1 X-0.142 Y-12.181 E0.01802
G1 X-0.538 Y-12.226 E0.0125
G1 X-1.088 Y-12.346 E0.01764
G1 X-1.705 Y-12.557 E0.02043
G1 X-2.069 Y-12.724 E0.01257
G1 X-2.559 Y-13.01 E0.0178
G1 X-3.079 Y-13.401 E0.02039
G1 X-3.479 Y-13.782 E0.01733
G1 X-3.896 Y-14.285 E0.02046
G1 X-4.163 Y-14.692 E0.01527
G1 X-4.421 Y-15.189 E0.01759
G1 X-4.599 Y-15.638 E0.01512
G1 X-4.736 Y-16.111 E0.01544
G1 X-4.827 Y-16.591 E0.01534
G1 X-4.862 Y-16.911 E0.01008
G1 X-4.906 Y-17.696 E0.02467
G1 X-5.012 Y-18.281 E0.01863
G1 X-5.211 Y-18.875 E0.01965
G1 X-5.516 Y-19.476 E0.02113
G1 X-5.823 Y-19.913 E0.01675
G1 X-6.011 Y-20.132 E0.00903
G1 X-6.206 Y-20.335 E0.00884
G1 X-6.606 Y-20.675 E0.01646
G1 X-6.798 Y-20.813 E0.00741
G1 X-7.302 Y-21.106 E0.01828
G1 X-7.806 Y-21.316 E0.0171
G1 X-8.087 Y-21.401 E0.00922
G1 X-8.676 Y-21.519 E0.01883
G1 X-9.323 Y-21.552 E0.02032
G1 X-9.953 Y-21.49 E0.01983
G1 X-10.341 Y-21.405 E0.01245
G1 X-10.893 Y-21.219 E0.01828
G1 X-11.49 Y-20.914 E0.02102
G1 X-12.029 Y-20.523 E0.0209
G1 X-12.249 Y-20.324 E0.00929
G1 X-12.606 Y-19.932 E0.0166
G1 X-12.782 Y-19.697 E0.00921
G1 X-13.062 Y-19.24 E0.01681
G1 X-13.284 Y-18.747 E0.01696
G1 X-13.427 Y-18.297 E0.01479
G1 X-13.514 Y-17.859 E0.01403
G1 X-13.551 Y-17.559 E0.00947
G1 X-13.598 Y-16.74 E0.02571
G1 X-13.69 Y-16.181 E0.01776
G1 X-13.791 Y-15.802 E0.01231
G1 X-13.957 Y-15.341 E0.01536
G1 X-14.127 Y-14.973 E0.01272
G1 X-14.414 Y-14.48 E0.01788
G1 X-14.639 Y-14.163 E0.01219
G1 X-15.073 Y-13.67 E0.0206
G1 X-15.429 Y-13.346 E0.01508
G1 X-15.885 Y-13.01 E0.01776
G1 X-16.448 Y-12.688 E0.02034
G1 X-16.895 Y-12.495 E0.01529
G1 X-17.361 Y-12.344 E0.01535
G1 X-17.824 Y-12.241 E0.01486
G1 X-18.395 Y-12.173 E0.01802
G1 X-19.035 Y-12.174 E0.02007
G1 X-19.597 Y-12.241 E0.01776
G1 X-19.915 Y-12.306 E0.01019
G1 X-20.141 Y-12.365 E0.0073
G1 X-20.598 Y-12.521 E0.01515
G1 X-21.116 Y-12.761 E0.01789
G1 X-21.665 Y-13.097 E0.0202
G1 X-22.172 Y-13.503 E0.02036
G1 X-22.63 Y-13.978 E0.02069
G1 X-22.924 Y-14.357 E0.01504
G1 X-23.09 Y-14.609 E0.00947
G1 X-23.253 Y-14.893 E0.01026
G1 X-23.525 Y-15.494 E0.02067
G1 X-23.673 Y-15.953 E0.01512
G1 X-23.792 Y-16.504 E0.01768
G1 X-23.871 Y-17.401 E0.02825
G1 X-23.871 Y-20.867 E0.10867
G1 X-23.924 Y-21.218 E0.01112
G1 X-24.097 Y-21.779 E0.01841
G1 X-24.4 Y-22.343 E0.02008
G1 X-24.748 Y-22.771 E0.01731
G1 X-25.064 Y-23.055 E0.01331
G1 X-25.293 Y-23.221 E0.00885
G1 X-25.637 Y-23.417 E0.01243
G1 X-26.008 Y-23.57 E0.01259
G1 X-26.427 Y-23.683 E0.01358
G1 X-26.738 Y-23.727 E0.00987
G1 X-27.179 Y-23.738 E0.01381
G1 X-27.497 Y-23.708 E0.01004
G1 X-28.046 Y-23.579 E0.01766
G1 X-28.606 Y-23.329 E0.01922
G1 X-28.948 Y-23.104 E0.01285
G1 X-29.248 Y-22.849 E0.01235
G1 X-29.461 Y-22.623 E0.00974
G1 X-29.705 Y-22.297 E0.01276
G1 X-29.975 Y-21.785 E0.01814
G1 X-30.107 Y-21.399 E0.01279
G1 X-30.19 Y-21.001 E0.01277
G1 X-30.219 Y-20.481 E0.01632
G1 X-30.155 Y-19.913 E0.01793
G1 X-29.982 Y-19.349 E0.01848
G1 X-29.801 Y-18.982 E0.01285
G1 X-29.588 Y-18.657 E0.01217
G1 X-29.449 Y-18.482 E0.00701
G1 X-29.103 Y-18.136 E0.01535
G1 X-28.922 Y-18.008 E0.00693
G1 X-28.922 Y-17.03 E0.03066
G1 X-29.585 Y-17.498 E0.02544
G1 X-29.854 Y-17.743 E0.01142
G1 X-30.101 Y-18.013 E0.01148
G1 X-30.463 Y-18.529 E0.01976
G1 X-30.745 Y-19.103 E0.02004
G1 X-30.88 Y-19.508 E0.01338
G1 X-30.934 Y-19.737 E0.00739
G1 X-31.013 Y-20.311 E0.01816
G1 X-31.016 Y-20.744 E0.01358
G1 X-30.973 Y-21.173 E0.01353
G1 X-30.825 Y-21.793 E0.01997
G1 X-30.668 Y-22.199 E0.01365
G1 X-30.431 Y-22.644 E0.01581
G1 X-30.107 Y-23.097 E0.01747
G1 X-29.762 Y-23.465 E0.01582
G1 X-29.277 Y-23.853 E0.01947
G1 X-28.737 Y-24.161 E0.0195
G1 X-28.333 Y-24.325 E0.01365
G1 X-27.826 Y-24.463 E0.01648
G1 X-27.602 Y-24.502 E0.00714
G1 X-27.176 Y-24.54 E0.01341
G1 X-26.535 Y-24.511 E0.0201
G1 X-25.99 Y-24.402 E0.01743
G1 X-25.457 Y-24.216 E0.01771
G1 X-25.185 Y-24.085 E0.00946
G1 X-24.691 Y-23.779 E0.01822
G1 X-24.45 Y-23.587 E0.00966
G1 X-24.312 Y-23.465 E0.00578
G1 X-23.969 Y-23.1 E0.01569
G1 X-23.71 Y-22.747 E0.01375
G1 X-23.521 Y-22.429 E0.01159
G1 X-23.268 Y-21.841 E0.02006
G1 X-23.148 Y-21.422 E0.01368
G1 X-23.104 Y-21.187 E0.00749
G1 X-23.046 Y-20.618 E0.01792
G1 X-23.054 Y-17.36 E0.10216
G1 X-23.022 Y-16.776 E0.01834
G1 X-22.935 Y-16.295 E0.01532
G1 X-22.819 Y-15.896 E0.01303
G1 X-22.612 Y-15.399 E0.01687
G1 X-22.412 Y-15.035 E0.01303
G1 X-22.096 Y-14.587 E0.01719
G1 X-21.64 Y-14.1 E0.02091
G1 X-21.205 Y-13.751 E0.01749
G1 X-20.629 Y-13.411 E0.02097
G1 X-20.17 Y-13.217 E0.01562
G1 X-19.596 Y-13.056 E0.01869
G1 X-19.113 Y-12.984 E0.01532
G1 X-18.702 Y-12.965 E0.0129
