; generated by SuperSlicer 2.4 on 2024-01-09 at 03:33:48 UTC


;
;

;
;
; 

; external perimeters extrusion width = 0.42mm
; perimeters extrusion width = 0.46mm
; infill extrusion width = 0.45mm
; solid infill extrusion width = 0.45mm
; top infill extrusion width = 0.40mm
; support material extrusion width = 0.38mm
; first layer extrusion width = 0.42mm

; object:{"name":"Kossel_Parts_Cooling_Duct","id":"Kossel_Parts_Cooling_Duct.stl id:0 copy 0","object_center":[0.000000,0.000000,0.000000],"boundingbox_center":[0.000000,0.000000,11.250000],"boundingbox_size":[50.000000,32.700001,22.500000]}
; plater:{"center":[0.000000,0.000000,0.000000],"boundingbox_center":[0.000000,0.000000,11.250000],"boundingbox_size":[50.000000,32.700001,22.500000]}

;TYPE:Custom
START_PRINT
M107
G21 ; set units to millimeters
G90 ; use absolute coordinates
M83 ; use relative distances for extrusion
; Filament gcode
;_TOOLCHANGE 0
M104 S240 ; set temperature
M109 S240 ; set temperature and wait for it to be reached
M190 S70 ; set bed temperature and wait for it to be reached
M107
;LAYER_CHANGE
;Z:0.2
;HEIGHT:0.2
;BEFORE_LAYER_CHANGE
G92 E0
;0.2
G1 E-5 F3600
G1 Z0.2 F10800
;AFTER_LAYER_CHANGE
;0.2
M204 S1000
G1 X-0.001 Y-24.716
G1 E5 F2400
;TYPE:Skirt
;WIDTH:0.52
G1 F1200
G1 X-11.55 Y-24.715 E0.45815
G1 X-13.699 Y-24.604 E0.08536
G1 X-15.732 Y-24.195 E0.08228
G1 X-17.649 Y-23.371 E0.08275
G1 X-19.511 Y-22.102 E0.08938
G1 X-27.566 Y-14.967 E0.42689
G1 X-28.317 Y-14.216 E0.04214
G1 X-29.243 Y-12.894 E0.06401
G1 X-29.705 Y-11.888 E0.04393
G1 X-30.069 Y-10.63 E0.05193
G1 X-30.195 Y-9.681 E0.038
G1 X-30.216 Y13.85 E0.93346
G1 X-30.069 Y15.33 E0.05902
G1 X-29.836 Y16.215 E0.03628
G1 X-29.346 Y17.402 E0.05094
G1 X-28.899 Y18.155 E0.03475
G1 X-28.317 Y18.916 E0.03799
G1 X-27.49 Y19.723 E0.04587
G1 X-26.371 Y20.521 E0.05449
G1 X-24.929 Y21.173 E0.06277
G1 X-14.585 Y24.575 E0.43197
G1 X-12.862 Y24.86 E0.0693
G1 X13.581 Y25.147 E1.04903
G1 X15.713 Y24.76 E0.08598
G1 X25.417 Y20.989 E0.41296
G1 X26.244 Y20.593 E0.0364
G1 X27.018 Y20.101 E0.03637
G1 X28.317 Y18.916 E0.06975
G1 X29.243 Y17.594 E0.06401
G1 X29.705 Y16.588 E0.04393
G1 X30.069 Y15.33 E0.05193
G1 X30.207 Y14.163 E0.04664
G1 X30.216 Y-9.15 E0.92481
G1 X30.134 Y-10.209 E0.04212
G1 X29.721 Y-11.842 E0.06681
G1 X29.202 Y-12.967 E0.04915
G1 X28.646 Y-13.799 E0.0397
G1 X27.705 Y-14.842 E0.05573
G1 X18.902 Y-22.588 E0.46515
G1 X17.735 Y-23.328 E0.05481
G1 X15.773 Y-24.177 E0.0848
G1 X13.881 Y-24.582 E0.07676
G1 X11.532 Y-24.716 E0.09336
G1 X0.059 Y-24.716 E0.4551
G1 X0.059 Y-24.239 F10800
G1 F1200
G1 X-11.533 Y-24.239 E0.45987
G1 X-13.629 Y-24.133 E0.08323
G1 X-15.573 Y-23.745 E0.07864
G1 X-17.434 Y-22.945 E0.08038
G1 X-19.194 Y-21.745 E0.0845
G1 X-27.247 Y-14.611 E0.42678
G1 X-27.961 Y-13.897 E0.04006
G1 X-28.823 Y-12.669 E0.05952
G1 X-29.255 Y-11.73 E0.04098
G1 X-29.599 Y-10.546 E0.0489
G1 X-29.719 Y-9.655 E0.03568
G1 X-29.739 Y13.85 E0.93243
G1 X-29.599 Y15.246 E0.05567
G1 X-29.386 Y16.057 E0.03325
G1 X-28.926 Y17.176 E0.04799
G1 X-27.961 Y18.597 E0.06814
G1 X-27.191 Y19.351 E0.04276
G1 X-26.138 Y20.105 E0.05138
G1 X-24.78 Y20.72 E0.05911
G1 X-14.436 Y24.121 E0.43197
G1 X-12.856 Y24.383 E0.06352
G1 X13.586 Y24.67 E1.04903
G1 X15.541 Y24.315 E0.0788
G1 X25.244 Y20.544 E0.41296
G1 X26.745 Y19.709 E0.06815
G1 X27.961 Y18.597 E0.06537
G1 X28.823 Y17.369 E0.05953
G1 X29.255 Y16.43 E0.04098
G1 X29.599 Y15.246 E0.0489
G1 X29.731 Y14.137 E0.04433
G1 X29.739 Y-9.15 E0.92377
G1 X29.659 Y-10.156 E0.04005
G1 X29.27 Y-11.688 E0.06268
G1 X28.783 Y-12.738 E0.0459
G1 X28.274 Y-13.501 E0.03639
G1 X27.388 Y-14.485 E0.05252
G1 X18.63 Y-22.196 E0.4629
G1 X17.521 Y-22.902 E0.05216
G1 X15.617 Y-23.726 E0.08232
G1 X13.799 Y-24.112 E0.07371
G1 X11.516 Y-24.239 E0.09074
G1 X0.119 Y-24.239 E0.45208
G1 E-3.5 F3600
;WIPE_START
G1 F8640
G1 X-3.481 Y-24.239 E-1.425
;WIPE_END
G1 E-0.075 F3600
; printing object Kossel_Parts_Cooling_Duct.stl id:0 copy 0
; acceleration to travel
M204 S1500
G1 X-0.585 Y-6.588 F10800
; decel to extrusion
M204 S1000
G1 X0.119 Y-2.299
; end travel
G1 E5 F2400
;TYPE:Support material
;WIDTH:0.42
G1 F1200
G1 X13.466 Y-2.299 E0.41846
G1 X13.649 Y-2.279 E0.0058
G1 X13.741 Y-2.269 E0.0029
G1 X13.816 Y-2.249 E0.00242
G1 X13.89 Y-2.229 E0.00242
G1 X13.991 Y-2.186 E0.00344
G1 X14.209 Y-2.05 E0.00806
G1 X14.313 Y-1.957 E0.00437
G1 X14.473 Y-1.756 E0.00805
G1 X14.527 Y-1.66 E0.00346
G1 X14.585 Y-1.517 E0.00483
G1 X14.641 Y-1.265 E0.0081
G1 X14.649 Y-1.132 E0.00416
G1 X14.637 Y2.979 E0.12891
G1 X14.578 Y3.234 E0.00819
G1 X14.455 Y3.484 E0.00875
G1 X14.398 Y3.563 E0.00306
G1 X14.226 Y3.734 E0.00761
G1 X13.993 Y3.884 E0.0087
G1 X13.867 Y3.935 E0.00424
G1 X13.631 Y3.987 E0.00758
G1 X11.643 Y4 E0.06234
G1 X11.264 Y4.381 E0.01684
G1 X11.264 Y15.063 E0.33492
G1 X10.959 Y15.19 E0.01038
G1 X10.643 Y15.662 E0.0178
G1 X10.643 Y16.086 E0.0133
G1 X10.958 Y16.193 E0.01042
G1 X11.414 Y16.649 E0.02021
G1 X12.552 Y16.649 E0.0357
G1 X12.405 Y16.501 E0.00654
G1 X14.828 Y16.501 E0.07597
G1 X15.063 Y16.736 E0.01042
G1 X13.643 Y17.325 E0.04818
G1 X13.643 Y19.432 E0.06608
G1 X10.028 Y18.203 E0.11971
G1 X9.342 Y18.293 E0.0217
G1 X8.159 Y17.741 E0.04094
G1 X6.963 Y16.615 E0.0515
G1 X6.956 Y4.651 E0.37512
G1 X-6.963 Y4.651 E0.43643
G1 X-6.956 Y16.591 E0.37436
G1 X-8.157 Y17.74 E0.05212
G1 X-8.534 Y17.916 E0.01305
G1 X-9.341 Y18.293 E0.02793
G1 X-10.028 Y18.203 E0.02172
G1 X-12.8 Y19.145 E0.09177
G1 X-13.698 Y16.499 E0.08761
G1 X-12.405 Y16.501 E0.04055
G1 X-12.474 Y16.57 E0.00305
G1 X-12.543 Y16.638 E0.00305
G1 X-11.416 Y16.651 E0.03534
G1 X-10.957 Y16.193 E0.02031
G1 X-10.643 Y16.086 E0.0104
G1 X-10.643 Y15.662 E0.0133
G1 X-10.769 Y15.473 E0.00713
G1 X-10.958 Y15.19 E0.01067
G1 X-11.048 Y15.153 E0.00304
G1 X-11.264 Y15.063 E0.00734
G1 X-11.264 Y4.381 E0.33492
G1 X-11.643 Y4 E0.01684
G1 X-13.631 Y3.987 E0.06234
G1 X-13.867 Y3.935 E0.00758
G1 X-13.993 Y3.884 E0.00424
G1 X-14.226 Y3.734 E0.0087
G1 X-14.398 Y3.563 E0.00761
G1 X-14.455 Y3.484 E0.00306
G1 X-14.578 Y3.234 E0.00875
G1 X-14.637 Y2.979 E0.00819
G1 X-14.648 Y-1.116 E0.12842
G1 X-14.619 Y-1.391 E0.00867
G1 X-14.579 Y-1.54 E0.00484
G1 X-14.536 Y-1.641 E0.00344
G1 X-14.407 Y-1.847 E0.00761
G1 X-14.222 Y-2.037 E0.00831
G1 X-14.004 Y-2.177 E0.00816
G1 X-13.758 Y-2.265 E0.00816
G1 X-13.463 Y-2.299 E0.00933
G1 X0.059 Y-2.299 E0.42397
G1 E-3.5 F3600
;WIPE_START
G1 F8640
G1 X3.659 Y-2.299 E-1.425
;WIPE_END
G1 E-0.075 F3600
; acceleration to travel
M204 S1500
G1 X12.176 Y13.206 F10800
; decel to extrusion
M204 S1000
G1 X14.245 Y16.973
; end travel
G1 E5 F2400
G1 F1200
G1 X14.245 Y16.758 E0.00675
G1 X13.826 Y16.758 E0.01314
G1 X13.826 Y16.971 E0.00669
G1 X13.407 Y17.145 E0.01422
G1 X13.407 Y16.758 E0.01214
G1 X13.024 Y16.758 E0.01203
G1 X13.171 Y16.905 E0.00654
G1 X12.988 Y16.905 E0.00573
G1 X12.988 Y18.939 E0.06376
G1 X12.569 Y18.796 E0.01387
G1 X12.569 Y16.905 E0.05929
G1 X12.15 Y16.905 E0.01314
G1 X12.15 Y18.654 E0.05483
G1 X11.731 Y18.511 E0.01387
G1 X11.731 Y16.905 E0.05036
G1 X11.312 Y16.905 E0.01314
G1 X11.312 Y18.369 E0.0459
G1 X10.893 Y18.227 E0.01387
G1 X10.893 Y16.271 E0.06133
G1 E-3.5 F3600
;WIPE_START
G1 F8640
G1 X10.893 Y18.227 E-0.77429
G1 X11.312 Y18.369 E-0.17516
G1 X11.312 Y17.168 E-0.47555
;WIPE_END
G1 E-0.075 F3600
; acceleration to travel
M204 S1500
G1 X13.672 Y6.238 F10800
; decel to extrusion
M204 S1000
G1 X14.245 Y3.582
; end travel
G1 E5 F2400
G1 F1200
G1 X14.245 Y-1.631 E0.16345
G1 X14.126 Y-1.78 E0.00599
G1 X14.055 Y-1.844 E0.003
G1 X13.873 Y-1.958 E0.00674
G1 X13.826 Y-1.977 E0.00158
G1 X13.826 Y3.675 E0.17722
G1 X13.791 Y3.689 E0.0012
G1 X13.602 Y3.731 E0.00607
G1 X13.407 Y3.732 E0.00611
G1 X13.407 Y-2.042 E0.18106
G1 X12.988 Y-2.042 E0.01314
G1 X12.988 Y3.735 E0.18114
G1 X12.569 Y3.738 E0.01314
G1 X12.569 Y-2.042 E0.18123
G1 X12.15 Y-2.042 E0.01314
G1 X12.15 Y3.741 E0.18131
G1 X11.731 Y3.743 E0.01314
G1 X11.731 Y-2.042 E0.1814
G1 X11.312 Y-2.042 E0.01314
G1 X11.312 Y3.969 E0.18848
G1 X11.008 Y4.276 E0.01354
G1 X11.008 Y14.892 E0.33286
G1 X10.893 Y14.939 E0.00389
G1 X10.893 Y-2.042 E0.53244
G1 X10.474 Y-2.042 E0.01314
G1 X10.474 Y18.084 E0.63105
G1 X10.055 Y17.942 E0.01387
G1 X10.055 Y-2.042 E0.62658
G1 X9.636 Y-2.042 E0.01314
G1 X9.636 Y17.996 E0.62829
G1 X9.383 Y18.029 E0.00802
G1 X9.217 Y17.952 E0.00573
G1 X9.217 Y-2.042 E0.6269
G1 X8.799 Y-2.042 E0.01314
G1 X8.799 Y17.756 E0.62077
G1 X8.38 Y17.561 E0.0145
G1 X8.38 Y-2.042 E0.61464
G1 X7.961 Y-2.042 E0.01314
G1 X7.961 Y17.202 E0.60339
G1 X7.542 Y16.808 E0.01804
G1 X7.542 Y-2.042 E0.59102
G1 X7.123 Y-2.042 E0.01314
G1 X7.123 Y4.395 E0.20183
G1 X6.704 Y4.395 E0.01314
G1 X6.704 Y-2.042 E0.20183
G1 X6.285 Y-2.042 E0.01314
G1 X6.285 Y4.395 E0.20183
G1 X5.866 Y4.395 E0.01314
G1 X5.866 Y-2.042 E0.20183
G1 X5.447 Y-2.042 E0.01314
G1 X5.447 Y4.395 E0.20183
G1 X5.028 Y4.395 E0.01314
G1 X5.028 Y-2.042 E0.20183
G1 X4.609 Y-2.042 E0.01314
G1 X4.609 Y4.395 E0.20183
G1 X4.19 Y4.395 E0.01314
G1 X4.19 Y-2.042 E0.20183
G1 X3.771 Y-2.042 E0.01314
G1 X3.771 Y4.395 E0.20183
G1 X3.352 Y4.395 E0.01314
G1 X3.352 Y-2.042 E0.20183
G1 X2.933 Y-2.042 E0.01314
G1 X2.933 Y4.395 E0.20183
G1 X2.514 Y4.395 E0.01314
G1 X2.514 Y-2.042 E0.20183
G1 X2.095 Y-2.042 E0.01314
G1 X2.095 Y4.395 E0.20183
G1 X1.676 Y4.395 E0.01314
G1 X1.676 Y-2.042 E0.20183
G1 X1.257 Y-2.042 E0.01314
G1 X1.257 Y4.395 E0.20183
G1 X0.838 Y4.395 E0.01314
G1 X0.838 Y-2.042 E0.20183
G1 X0.419 Y-2.042 E0.01314
G1 X0.419 Y4.395 E0.20183
G1 X0 Y4.395 E0.01314
G1 X0 Y-2.042 E0.20183
G1 X-0.419 Y-2.042 E0.01314
G1 X-0.419 Y4.395 E0.20183
G1 X-0.838 Y4.395 E0.01314
G1 X-0.838 Y-2.042 E0.20183
G1 X-1.257 Y-2.042 E0.01314
G1 X-1.257 Y4.395 E0.20183
G1 X-1.676 Y4.395 E0.01314
G1 X-1.676 Y-2.042 E0.20183
G1 X-2.095 Y-2.042 E0.01314
G1 X-2.095 Y4.395 E0.20183
G1 X-2.514 Y4.395 E0.01314
G1 X-2.514 Y-2.042 E0.20183
G1 X-2.933 Y-2.042 E0.01314
G1 X-2.933 Y4.395 E0.20183
G1 X-3.352 Y4.395 E0.01314
G1 X-3.352 Y-2.042 E0.20183
G1 X-3.771 Y-2.042 E0.01314
G1 X-3.771 Y4.395 E0.20183
G1 X-4.19 Y4.395 E0.01314
G1 X-4.19 Y-2.042 E0.20183
G1 X-4.609 Y-2.042 E0.01314
G1 X-4.609 Y4.395 E0.20183
G1 X-5.028 Y4.395 E0.01314
G1 X-5.028 Y-2.042 E0.20183
G1 X-5.447 Y-2.042 E0.01314
G1 X-5.447 Y4.395 E0.20183
G1 X-5.866 Y4.395 E0.01314
G1 X-5.866 Y-2.042 E0.20183
G1 X-6.285 Y-2.042 E0.01314
G1 X-6.285 Y4.395 E0.20183
G1 X-6.704 Y4.395 E0.01314
G1 X-6.704 Y-2.042 E0.20183
G1 X-7.123 Y-2.042 E0.01314
G1 X-7.123 Y4.395 E0.20183
G1 X-7.22 Y4.395 E0.00305
G1 X-7.212 Y16.482 E0.37897
G1 X-7.542 Y16.797 E0.01429
G1 X-7.542 Y-2.042 E0.59067
G1 X-7.961 Y-2.042 E0.01314
G1 X-7.961 Y17.197 E0.60323
G1 X-8.304 Y17.525 E0.0149
G1 X-8.38 Y17.561 E0.00262
G1 X-8.38 Y-2.042 E0.61463
G1 X-8.799 Y-2.042 E0.01314
G1 X-8.799 Y17.756 E0.62077
G1 X-9.217 Y17.952 E0.0145
G1 X-9.217 Y-2.042 E0.62691
G1 X-9.636 Y-2.042 E0.01314
G1 X-9.636 Y17.996 E0.62828
G1 X-10.055 Y17.942 E0.01325
G1 X-10.055 Y-2.042 E0.62658
G1 X-10.474 Y-2.042 E0.01314
G1 X-10.474 Y18.084 E0.63105
G1 X-10.893 Y18.227 E0.01387
G1 X-10.893 Y16.491 E0.05441
G1 X-11.312 Y16.908 E0.01853
G1 X-11.312 Y18.369 E0.0458
G1 X-11.731 Y18.511 E0.01387
G1 X-11.731 Y16.904 E0.05041
G1 X-12.15 Y16.899 E0.01314
G1 X-12.15 Y18.654 E0.05501
G1 X-12.569 Y18.796 E0.01387
G1 X-12.569 Y16.895 E0.05962
G1 X-12.988 Y16.89 E0.01314
G1 X-12.988 Y18.297 E0.0441
G1 E-3.5 F3600
;WIPE_START
G1 F8640
G1 X-12.988 Y16.89 E-0.55674
G1 X-12.569 Y16.895 E-0.16585
G1 X-12.569 Y18.669 E-0.70241
;WIPE_END
G1 E-0.075 F3600
; acceleration to travel
M204 S1500
G1 X-11.221 Y15.812 F10800
; decel to extrusion
M204 S1000
G1 X-10.893 Y15.118
; end travel
G1 E5 F2400
G1 F1200
G1 X-10.893 Y-2.042 E0.53803
G1 X-11.312 Y-2.042 E0.01314
G1 X-11.312 Y3.969 E0.18848
G1 X-11.536 Y3.745 E0.00993
G1 X-11.731 Y3.743 E0.00614
G1 X-11.731 Y-2.042 E0.1814
G1 X-12.15 Y-2.042 E0.01314
G1 X-12.15 Y3.741 E0.18131
G1 X-12.569 Y3.738 E0.01314
G1 X-12.569 Y-2.042 E0.18123
G1 X-12.988 Y-2.042 E0.01314
G1 X-12.988 Y3.735 E0.18114
G1 X-13.407 Y3.732 E0.01314
G1 X-13.407 Y-2.042 E0.18106
G1 X-13.448 Y-2.042 E0.00128
G1 X-13.7 Y-2.013 E0.00795
G1 X-13.826 Y-1.968 E0.0042
G1 X-13.826 Y3.675 E0.17694
G1 X-13.875 Y3.655 E0.00163
G1 X-14.064 Y3.534 E0.00707
G1 X-14.202 Y3.396 E0.0061
G1 X-14.235 Y3.351 E0.00174
G1 X-14.245 Y3.33 E0.00075
G1 X-14.245 Y-1.878 E0.16329
G1 E-3.5 F3600
;WIPE_START
G1 F8640
G1 X-14.245 Y1.722 E-1.425
;WIPE_END
G1 E-0.075 F3600
; acceleration to travel
M204 S1500
G1 X-16.29 Y-9.158 F10800
; decel to extrusion
M204 S1000
G1 X-16.787 Y-11.801
; end travel
G1 E5 F2400
G1 F1200
G1 X-18.076 Y-11.801 E0.04041
G1 X-19.599 Y-11.801 E0.04775
G1 X-17.601 Y-13.798 E0.08856
G1 X-17.594 Y-14.081 E0.00886
G1 X-17.566 Y-14.447 E0.01152
G1 X-17.447 Y-15.22 E0.02452
G1 X-17.248 Y-15.714 E0.01669
G1 X-17.228 Y-15.758 E0.00154
G1 X-17.202 Y-15.819 E0.00207
G1 X-17.176 Y-15.88 E0.00206
G1 X-17.146 Y-15.97 E0.00299
G1 X-17.123 Y-16.019 E0.00169
G1 X-16.997 Y-16.296 E0.00954
G1 X-16.936 Y-16.387 E0.00344
G1 X-16.895 Y-16.448 E0.0023
G1 X-16.863 Y-16.504 E0.00203
G1 X-16.761 Y-16.681 E0.00641
G1 X-16.73 Y-16.734 E0.00192
G1 X-16.526 Y-17 E0.01051
G1 X-16.415 Y-17.139 E0.00558
G1 X-16.276 Y-17.291 E0.00646
G1 X-16.229 Y-17.338 E0.00207
G1 X-16.162 Y-17.419 E0.00331
G1 X-15.967 Y-17.599 E0.00831
G1 X-15.906 Y-17.649 E0.00248
G1 X-15.88 Y-17.671 E0.00106
G1 X-15.802 Y-17.746 E0.0034
G1 X-15.721 Y-17.824 E0.00353
G1 X-15.079 Y-18.266 E0.02443
G1 X-14.881 Y-18.349 E0.00673
G1 X-14.429 Y-18.593 E0.0161
G1 X-14.164 Y-18.66 E0.00859
G1 X-13.892 Y-18.778 E0.00928
G1 X-13.823 Y-18.808 E0.00237
G1 X-12.86 Y-18.951 E0.03053
G1 X-12.531 Y-18.951 E0.01031
G1 X-11.351 Y-19.003 E0.03703
G1 X-11.042 Y-18.951 E0.00982
G1 X2.188 Y-18.951 E0.41483
G1 X11.03 Y-18.951 E0.27723
G1 X11.34 Y-19.004 E0.00986
G1 X12.06 Y-18.972 E0.02261
G1 X12.527 Y-18.951 E0.01464
G1 X12.9 Y-18.951 E0.01171
G1 X13.897 Y-18.778 E0.03173
G1 X14.085 Y-18.694 E0.00643
G1 X14.158 Y-18.662 E0.00251
G1 X14.429 Y-18.593 E0.00877
G1 X14.8 Y-18.393 E0.01322
G1 X14.905 Y-18.337 E0.00373
G1 X15.061 Y-18.268 E0.00536
G1 X15.169 Y-18.221 E0.00369
G1 X15.454 Y-18.002 E0.01125
G1 X15.647 Y-17.89 E0.007
G1 X15.797 Y-17.75 E0.00645
G1 X15.886 Y-17.666 E0.00383
G1 X16.033 Y-17.542 E0.00603
G1 X16.098 Y-17.486 E0.00268
G1 X16.288 Y-17.264 E0.00916
G1 X16.34 Y-17.204 E0.00251
G1 X16.408 Y-17.129 E0.00316
G1 X16.739 Y-16.72 E0.01648
G1 X16.857 Y-16.504 E0.00774
G1 X16.984 Y-16.274 E0.00824
G1 X17.124 Y-16.019 E0.00913
G1 X17.164 Y-15.916 E0.00344
G1 X17.236 Y-15.727 E0.00634
G1 X17.271 Y-15.654 E0.00254
G1 X17.359 Y-15.434 E0.00744
G1 X17.448 Y-15.214 E0.00744
G1 X17.567 Y-14.437 E0.02464
G1 X17.586 Y-14.165 E0.00854
G1 X17.592 Y-14.081 E0.00266
G1 X17.612 Y-13.78 E0.00946
G1 X19.592 Y-11.8 E0.08779
G1 X16.477 Y-11.8 E0.09767
G1 X15.8 Y-12.477 E0.03004
G1 X-0 Y-12.481 E0.49539
G1 X-15.8 Y-12.484 E0.49539
G1 X-16.269 Y-12.016 E0.02078
G1 X-16.731 Y-11.824 E0.0157
G1 E-3.5 F3600
;WIPE_START
G1 F8640
G1 X-18.076 Y-11.801 E-0.53223
G1 X-19.599 Y-11.801 E-0.60279
G1 X-19.08 Y-12.319 E-0.28998
;WIPE_END
G1 E-0.075 F3600
; acceleration to travel
M204 S1500
G1 X11.438 Y-11.977 F10800
; decel to extrusion
M204 S1000
G1 X18.854 Y-11.894
; end travel
G1 E5 F2400
G1 F1200
G1 X18.854 Y-12.175 E0.00881
G1 X18.435 Y-12.594 E0.01858
G1 X18.435 Y-12.056 E0.01687
G1 X18.016 Y-12.056 E0.01314
G1 X18.016 Y-13.013 E0.03001
G1 X17.597 Y-13.432 E0.01858
G1 X17.597 Y-12.056 E0.04315
G1 X17.178 Y-12.056 E0.01314
G1 X17.178 Y-15.198 E0.09853
G1 X17.122 Y-15.338 E0.00472
G1 X17.035 Y-15.552 E0.00722
G1 X17 Y-15.627 E0.0026
G1 X16.924 Y-15.824 E0.00662
G1 X16.891 Y-15.91 E0.0029
G1 X16.759 Y-16.15 E0.00858
G1 X16.759 Y-12.056 E0.12836
G1 X16.583 Y-12.056 E0.00552
G1 X16.34 Y-12.299 E0.01078
G1 X16.34 Y-16.805 E0.14127
G1 X16.213 Y-16.962 E0.00634
G1 X16.148 Y-17.034 E0.00304
G1 X16.094 Y-17.097 E0.00262
G1 X15.921 Y-17.299 E0.00831
G1 X15.921 Y-12.718 E0.14361
G1 X15.906 Y-12.734 E0.00068
G1 X15.502 Y-12.734 E0.01266
G1 X15.502 Y-17.674 E0.15491
G1 X15.311 Y-17.789 E0.007
G1 X15.083 Y-17.964 E0.00899
G1 X15.083 Y-12.734 E0.16398
G1 X14.664 Y-12.734 E0.01314
G1 X14.664 Y-18.175 E0.1706
