; generated by SuperSlicer 2.4 on 2023-03-06 at 04:23:50 UTC


;
;

;
;
; 

; external perimeters extrusion width = 0.42mm
; perimeters extrusion width = 0.46mm
; infill extrusion width = 0.44mm
; solid infill extrusion width = 0.46mm
; top infill extrusion width = 0.44mm
; support material extrusion width = 0.38mm
; first layer extrusion width = 0.56mm

; object:{"name":"smpegboardplierspliers52_32","id":"smpegboardplierspliers52_32.stl id:0 copy 0","object_center":[115.500000,115.500000,0.000000],"boundingbox_center":[115.500000,115.500000,24.500000],"boundingbox_size":[52.000000,58.000000,49.000000]}
; plater:{"center":[115.500000,115.500000,0.000000],"boundingbox_center":[115.500000,115.500000,24.500000],"boundingbox_size":[52.000000,58.000000,49.000000]}

;TYPE:Custom
START_PRINT
M107
G21 ; set units to millimeters
G90 ; use absolute coordinates
M82 ; use absolute distances for extrusion
G92 E0
; Filament gcode
;_TOOLCHANGE 0
M104 S210 ; set temperature
M109 S210 ; set temperature and wait for it to be reached
M190 S60 ; set bed temperature and wait for it to be reached
M107
;LAYER_CHANGE
;Z:0.2
;HEIGHT:0.2
;BEFORE_LAYER_CHANGE
;0.2


G1 E-5 F3600
G1 Z0.2 F9000
;AFTER_LAYER_CHANGE
;0.2
G92 E0
M204 S500
G1 X93.69 Y80.949
G1 E5 F2400
;TYPE:Skirt
;WIDTH:0.48
G1 F1200
G1 X93.296 Y82.492 E5.05786
G1 X93.299 Y97.494 E5.6031
G1 X95.217 Y144.631 E7.31761
G1 X95.725 Y146.24 E7.37893
G1 X96.89 Y147.325 E7.43679
G1 X98.432 Y147.719 E7.49465
G1 X132.567 Y147.719 E8.73523
G1 X134.196 Y147.276 E8.79655
G1 X135.327 Y146.156 E8.85442
G1 X135.783 Y144.631 E8.91228
G1 X137.704 Y97.364 E10.63154
G1 X137.704 Y82.492 E11.17203
G1 X137.193 Y80.752 E11.23792
G1 X136.028 Y79.667 E11.29579
G1 X134.485 Y79.274 E11.35365
G1 X96.515 Y79.274 E12.73364
G1 X94.775 Y79.784 E12.79953
G1 X93.731 Y80.906 E12.85522
G92 E0
G1 E-3.5 F3600
;WIPE_START
G1 F7200
G1 X93.296 Y82.492 E-4.28139
G1 X93.296 Y83.847 E-4.925
;WIPE_END
G1 E-5 F3600
; printing object smpegboardplierspliers52_32.stl id:0 copy 0
; acceleration to travel
M204 S1500
G1 X119.073 Y86.805 F9000
; decel to extrusion
M204 S500
G1 X122.222 Y87.166
; end travel
G1 E0 F2400
;TYPE:Support material
;WIDTH:0.564
G1 F1200
G1 X124.559 Y87.166 E0.10126
G1 X124.559 Y82.492 E0.30378
G1 X134.485 Y82.492 E0.73385
G1 X134.485 Y97.364 E1.37821
G1 X133.317 Y97.298 E1.42891
G1 X133.317 Y96.48 E1.46435
G1 X133.3 Y95.959 E1.48696
G1 X133.255 Y95.195 E1.52012
G1 X132.826 Y94.767 E1.54637
G1 X132.07 Y94.724 E1.5792
G1 X131.543 Y94.705 E1.60204
G1 X122.222 Y94.705 E2.00588
G1 X122.222 Y87.226 E2.32994
G92 E0
G1 E-3.5 F3600
;WIPE_START
G1 F7200
G1 X124.559 Y87.166 E-4.61048
G1 X124.559 Y86.504 E-4.925
;WIPE_END
G1 E-5 F3600
; acceleration to travel
M204 S1500
G1 X132.996 Y96.042 F9000
; decel to extrusion
M204 S500
G1 X134.027 Y97.208
; end travel
G1 E0 F2400
G1 F1200
G1 X134.027 Y82.846 E0.62224
G1 X133.448 Y82.846 E0.64732
G1 X133.448 Y94.887 E1.16902
G1 X132.981 Y94.421 E1.19762
G1 X132.869 Y94.414 E1.20247
G1 X132.869 Y82.846 E1.70368
G1 X132.29 Y82.846 E1.72877
G1 X132.29 Y94.382 E2.22858
G1 X132.076 Y94.37 E2.23786
G1 X131.711 Y94.357 E2.25369
G1 X131.711 Y82.846 E2.75241
G1 X131.132 Y82.846 E2.7775
G1 X131.132 Y94.351 E3.27597
G1 X130.553 Y94.351 E3.30106
G1 X130.553 Y82.846 E3.79953
G1 X129.974 Y82.846 E3.82462
G1 X129.974 Y94.351 E4.3231
G1 X129.395 Y94.351 E4.34818
G1 X129.395 Y82.846 E4.84666
G1 X128.816 Y82.846 E4.87174
G1 X128.816 Y94.351 E5.37022
G1 X128.237 Y94.351 E5.39531
G1 X128.237 Y82.846 E5.89378
G1 X127.659 Y82.846 E5.91887
G1 X127.659 Y94.351 E6.41734
G1 X127.08 Y94.351 E6.44243
G1 X127.08 Y82.846 E6.94091
G1 X126.501 Y82.846 E6.96599
G1 X126.501 Y94.351 E7.46447
G1 X125.922 Y94.351 E7.48955
G1 X125.922 Y82.846 E7.98803
G1 X125.343 Y82.846 E8.01312
G1 X125.343 Y94.351 E8.51159
G1 X124.764 Y94.351 E8.53668
G1 X124.764 Y87.521 E8.83263
G1 X124.185 Y87.521 E8.85772
G1 X124.185 Y94.351 E9.15367
G1 X123.606 Y94.351 E9.17876
G1 X123.606 Y87.521 E9.47471
G1 X123.027 Y87.521 E9.4998
G1 X123.027 Y94.575 E9.80546
G92 E0
G1 E-3.5 F3600
;WIPE_START
G1 F7200
G1 X123.027 Y91.575 E-4.925
;WIPE_END
G1 E-5 F3600
; acceleration to travel
M204 S1500
G1 X110.329 Y94.249 F9000
; decel to extrusion
M204 S500
G1 X108.778 Y94.575
; end travel
G1 E0 F2400
G1 F1200
G1 X108.778 Y94.705 E0.00564
G1 X99.457 Y94.705 E0.40948
G1 X99.019 Y94.721 E0.42848
G1 X98.93 Y94.724 E0.43232
G1 X98.174 Y94.767 E0.46515
G1 X97.745 Y95.195 E0.49139
G1 X97.7 Y95.959 E0.52456
G1 X97.683 Y96.48 E0.54717
G1 X97.683 Y97.298 E0.5826
G1 X96.515 Y97.364 E0.63331
G1 X96.515 Y82.492 E1.27766
G1 X106.441 Y82.492 E1.70773
G1 X106.441 Y84.829 E1.80899
G1 X108.778 Y84.829 E1.91025
G1 X108.778 Y94.515 E2.32993
G1 X107.973 Y94.575 F9000
G1 F1200
G1 X107.973 Y85.183 E2.73685
G1 X107.394 Y85.183 E2.76194
G1 X107.394 Y94.351 E3.15915
G1 X106.815 Y94.351 E3.18424
G1 X106.815 Y85.183 E3.58146
G1 X106.236 Y85.183 E3.60654
G1 X106.236 Y94.351 E4.00376
G1 X105.657 Y94.351 E4.02884
G1 X105.657 Y82.846 E4.52732
G1 X105.078 Y82.846 E4.5524
G1 X105.078 Y94.351 E5.05088
G1 X104.499 Y94.351 E5.07597
G1 X104.499 Y82.846 E5.57444
G1 X103.92 Y82.846 E5.59953
G1 X103.92 Y94.351 E6.098
G1 X103.341 Y94.351 E6.12309
G1 X103.341 Y82.846 E6.62157
G1 X102.763 Y82.846 E6.64665
G1 X102.763 Y94.351 E7.14513
G1 X102.184 Y94.351 E7.17021
G1 X102.184 Y82.846 E7.66869
G1 X101.605 Y82.846 E7.69378
G1 X101.605 Y94.351 E8.19225
G1 X101.026 Y94.351 E8.21734
G1 X101.026 Y82.846 E8.71581
G1 X100.447 Y82.846 E8.7409
G1 X100.447 Y94.351 E9.23938
G1 X99.868 Y94.351 E9.26446
G1 X99.868 Y82.846 E9.76294
G1 X99.289 Y82.846 E9.78802
G1 X99.289 Y94.357 E10.28674
G1 X99.006 Y94.367 E10.299
G1 X98.924 Y94.37 E10.30257
G1 X98.71 Y94.382 E10.31185
G1 X98.71 Y82.846 E10.81166
G1 X98.131 Y82.846 E10.83675
G1 X98.131 Y94.414 E11.33797
G1 X98.019 Y94.421 E11.34281
G1 X97.552 Y94.887 E11.37142
G1 X97.552 Y82.846 E11.89311
G1 X96.973 Y82.846 E11.9182
G1 X96.973 Y97.207 E12.54043
G92 E0
G1 E-3.5 F3600
;WIPE_START
G1 F7200
G1 X96.973 Y94.207 E-4.925
;WIPE_END
G1 E-5 F3600
; acceleration to travel
M204 S1500
G1 X98.954 Y110.257 F9000
; decel to extrusion
M204 S500
G1 X99.195 Y112.218
; end travel
G1 E0 F2400
;TYPE:External perimeter
G1 F1200
G1 X99.195 Y127.782 E0.67436
G1 X131.804 Y127.782 E2.08724
G1 X131.804 Y112.218 E2.76159
G1 X99.255 Y112.218 E4.17187
;WIPE_START
G1 X98.796 Y112.218 F9000
;WIPE_END
G92 E0
G1 E-3.5 F3600
;WIPE_START
G1 F7200
G1 X98.834 Y115.218 E-4.925
;WIPE_END
G1 E-5 F3600
; acceleration to travel
M204 S1500
G1 X99.156 Y126.803 F9000
; decel to extrusion
M204 S500
G1 X99.195 Y128.218
; end travel
G1 E0 F2400
G1 F1200
G1 X99.195 Y143.782 E0.67436
G1 X131.804 Y143.782 E2.08724
G1 X131.804 Y128.218 E2.76159
G1 X99.255 Y128.218 E4.17187
;WIPE_START
G1 X98.796 Y128.218 F9000
;WIPE_END
G92 E0
G1 E-3.5 F3600
;WIPE_START
G1 F7200
G1 X98.834 Y131.218 E-4.925
;WIPE_END
G1 E-5 F3600
; acceleration to travel
M204 S1500
G1 X99.156 Y113.898 F9000
; decel to extrusion
M204 S500
G1 X99.195 Y111.782
; end travel
G1 E0 F2400
G1 F1200
G1 X131.804 Y111.782 E1.41288
G1 X131.804 Y96.218 E2.08724
G1 X99.195 Y96.218 E3.50012
G1 X99.195 Y111.722 E4.17187
;WIPE_START
G1 X99.195 Y112.182 F9000
;WIPE_END
G92 E0
G1 E-3.5 F3600
;WIPE_START
G1 F7200
G1 X102.195 Y112.164 E-4.925
;WIPE_END
G1 E-5 F3600
; acceleration to travel
M204 S1500
G1 X99.161 Y97.593 F9000
; decel to extrusion
M204 S500
G1 X98.791 Y95.813
; end travel
G1 E0 F2400
G1 F1200
G1 X99.471 Y95.782 E0.0295
G1 X131.531 Y95.782 E1.41858
G1 X132.016 Y95.8 E1.43963
G1 X132.209 Y95.81 E1.44801
G1 X132.24 Y96.506 E1.47819
G1 X132.24 Y143.494 E3.51405
G1 X132.209 Y144.187 E3.54412
G1 X131.529 Y144.218 E3.57362
G1 X99.471 Y144.218 E4.96264
G1 X98.791 Y144.187 E4.99214
G1 X98.76 Y143.494 E5.02221
G1 X98.76 Y96.506 E7.05807
G1 X98.788 Y95.873 E7.08554
;WIPE_START
G1 X99.14 Y96.008 F9000
;WIPE_END
M106 S84.15
;LAYER_CHANGE
;Z:0.4
;HEIGHT:0.2
;BEFORE_LAYER_CHANGE
;0.4


G92 E0
G1 E-3.5 F3600
;WIPE_START
G1 F7200
G1 X99.475 Y95.982 E-3.65967
G1 X102.139 Y95.982 E-4.925
;WIPE_END
G1 E-5 F3600
; stop printing object smpegboardplierspliers52_32.stl id:0 copy 0
G1 Z0.4 F9000
;AFTER_LAYER_CHANGE
;0.4
M104 S205 ; set temperature
G92 E0
; acceleration to travel
M204 S1500
G1 X94.261 Y95.983
; decel to extrusion
M204 S500
G1 X93.298 Y95.984
; end travel
G1 E5 F2400
;TYPE:Skirt
;WIDTH:0.48
G1 F1200
G1 X93.299 Y97.494 E5.05491
G1 X95.217 Y144.631 E6.76942
G1 X95.725 Y146.24 E6.83074
G1 X96.89 Y147.325 E6.8886
G1 X98.432 Y147.719 E6.94647
G1 X132.567 Y147.719 E8.18705
G1 X134.196 Y147.276 E8.24836
G1 X135.327 Y146.156 E8.30623
G1 X135.783 Y144.631 E8.36409
G1 X137.704 Y97.364 E10.08335
G1 X137.704 Y82.492 E10.62384
G1 X137.193 Y80.752 E10.68973
G1 X136.028 Y79.667 E10.7476
G1 X134.485 Y79.274 E10.80546
G1 X96.515 Y79.274 E12.18545
G1 X94.775 Y79.784 E12.25134
G1 X93.69 Y80.949 E12.30921
G1 X93.296 Y82.492 E12.36707
G1 X93.298 Y95.924 E12.85522
G92 E0
G1 E-3.5 F3600
;WIPE_START
G1 F7200
G1 X93.299 Y97.494 E-4.24616
G1 X93.357 Y98.922 E-4.925
;WIPE_END
G1 E-5 F3600
; printing object smpegboardplierspliers52_32.stl id:0 copy 0
; acceleration to travel
M204 S1500
G1 X98.578 Y110.821 F9000
; decel to extrusion
M204 S500
G1 X99.222 Y112.29
; end travel
G1 E0 F2400
;TYPE:External perimeter
;WIDTH:0.42
G1 F1500
G1 X99.222 Y127.71 E0.48348
G1 X131.778 Y127.71 E1.50422
G1 X131.778 Y112.29 E1.98771
G1 X99.282 Y112.29 E3.00656
;WIPE_START
G1 X98.823 Y112.29 F9000
;WIPE_END
G92 E0
G1 E-3.5 F3600
;WIPE_START
G1 F7200
G1 X98.861 Y115.29 E-4.925
;WIPE_END
G1 E-5 F3600
; acceleration to travel
M204 S1500
G1 X99.183 Y126.862 F9000
; decel to extrusion
M204 S500
G1 X99.222 Y128.29
; end travel
G1 E0 F2400
G1 F1500
G1 X99.222 Y143.71 E0.48348
G1 X131.778 Y143.71 E1.50422
G1 X131.778 Y128.29 E1.98771
G1 X99.282 Y128.29 E3.00656
;WIPE_START
G1 X98.823 Y128.29 F9000
;WIPE_END
G92 E0
G1 E-3.5 F3600
;WIPE_START
G1 F7200
G1 X98.861 Y131.29 E-4.925
;WIPE_END
G1 E-5 F3600
; acceleration to travel
M204 S1500
G1 X99.183 Y113.861 F9000
; decel to extrusion
M204 S500
G1 X99.222 Y111.71
; end travel
G1 E0 F2400
G1 F1500
G1 X131.778 Y111.71 E1.02074
G1 X131.778 Y96.29 E1.50422
G1 X99.222 Y96.29 E2.52496
G1 X99.222 Y111.65 E3.00656
;WIPE_START
G1 X99.222 Y112.11 F9000
;WIPE_END
G92 E0
G1 E-3.5 F3600
;WIPE_START
G1 F7200
G1 X102.222 Y112.092 E-4.925
;WIPE_END
G1 E-5 F3600
; acceleration to travel
M204 S1500
G1 X99.036 Y97.51 F9000
; decel to extrusion
M204 S500
G1 X98.642 Y95.71
; end travel
G1 E0 F2400
G1 F1500
G1 X132.357 Y95.71 E1.05711
G1 X132.357 Y144.29 E2.5803
G1 X98.642 Y144.29 E3.63741
G1 X98.642 Y95.77 E5.15872
;WIPE_START
G1 X98.989 Y95.91 F9000
;WIPE_END
G92 E0
G1 E-3.5 F3600
;WIPE_START
G1 F7200
G1 X101.989 Y95.91 E-4.925
;WIPE_END
G1 E-5 F3600
; acceleration to travel
M204 S1500
G1 X99.298 Y110.212 F9000
; decel to extrusion
M204 S500
G1 X98.962 Y112
; end travel
G1 E0 F2400
;TYPE:Gap fill
;WIDTH:0.338332
G1 F1800
G1 X98.947 Y111.941 E0.0015
;WIDTH:0.27925
G1 X98.933 Y111.882 E0.00269
G1 X98.933 Y96.118 E0.31246
G1 X98.953 Y96.02 E0.31443
G1 X99.051 Y96 E0.31639
G1 X131.949 Y96 E0.96288
G1 X132.047 Y96.02 E0.96485
G1 X132.067 Y96.118 E0.96681
G1 X132.067 Y111.882 E1.27658
G1 X132.038 Y112 E1.27897
G1 X132.067 Y112.118 E1.28137
G1 X132.067 Y127.882 E1.59114
G1 X132.038 Y128 E1.59353
G1 X132.067 Y128.118 E1.59593
G1 X132.067 Y143.882 E1.9057
G1 X132.047 Y143.98 E1.90766
G1 X131.949 Y144 E1.90963
G1 X99.051 Y144 E2.55611
G1 X98.953 Y143.98 E2.55808
G1 X98.933 Y143.882 E2.56004
G1 X98.933 Y128.118 E2.86981
G1 X98.962 Y128 E2.87221
G1 X98.933 Y127.882 E2.8746
G1 X98.933 Y112.118 E3.18437
G1 X98.947 Y112.059 E3.18557
G1 X98.962 Y112 E3.18676
G1 X131.949 Y112 E3.835
;WIDTH:0.308789
G1 X132.038 Y112 E3.83695
G92 E0
G1 E-3.5 F3600
;WIPE_START
G1 F7200
G1 X131.949 Y112 E-3.5421
;WIPE_END
G1 E-5 F3600
; acceleration to travel
M204 S1500
G1 X132.028 Y126.222 F9000
; decel to extrusion
M204 S500
G1 X132.038 Y128
; end travel
G1 E0 F2400
;WIDTH:0.308791
G1 F1800
G1 X131.949 Y128 E0.00196
;WIDTH:0.27925
G1 X99.051 Y128 E0.64845
;WIDTH:0.30879
G1 X98.962 Y128 E0.65041
M106 S170.85
;LAYER_CHANGE
;Z:0.515004
;HEIGHT:0.115004
;BEFORE_LAYER_CHANGE
;0.515004


G92 E0
G1 E-3.5 F3600
;WIPE_START
G1 F7200
G1 X99.051 Y128 E-3.5421
;WIPE_END
G1 E-5 F3600
; stop printing object smpegboardplierspliers52_32.stl id:0 copy 0
G1 Z0.515004 F9000
;AFTER_LAYER_CHANGE
;0.515004
G92 E0
; printing object smpegboardplierspliers52_32.stl id:0 copy 0
; acceleration to travel
M204 S1500
G1 X103.101 Y91.944
; decel to extrusion
M204 S500
G1 X103.625 Y87.287
; end travel
G1 E5 F2400
;TYPE:Support material
;WIDTH:0.38
;HEIGHT:0.315004
G1 X103.625 Y85.308 E5.08095
G1 X99.33 Y85.308 E5.25664
G1 X99.33 Y87.455 E5.34448
G1 X103.625 Y87.455 E5.52017
G1 X103.625 Y87.645 E5.52794
G1 X105.962 Y87.645 E5.62356
G1 X105.962 Y89.792 E5.7114
G1 X99.33 Y89.792 E5.9827
G1 X99.33 Y92.129 E6.07832
G1 X105.962 Y92.129 E6.34962
G1 X105.962 Y94.466 E6.44524
G1 X99.33 Y94.466 E6.71654
G1 X99.33 Y94.889 E6.73386
G1 X105.962 Y94.889 E7.00516
G1 X105.962 Y94.635 E7.01558
G92 E0
G1 E-3.5 F3600
;WIPE_START
G1 F7200
G1 X105.962 Y94.889 E-3.62095
G1 X103.216 Y94.889 E-4.925
;WIPE_END
G1 E-5 F3600
; acceleration to travel
M204 S1500
G1 X128.414 Y88.156 F9000
; decel to extrusion
M204 S500
G1 X131.67 Y87.287
; end travel
G1 E0 F2400
G1 X131.67 Y85.308 E0.08095
G1 X127.375 Y85.308 E0.25664
G1 X127.375 Y87.455 E0.34448
G1 X131.67 Y87.455 E0.52017
G1 X131.67 Y89.792 E0.61578
G1 X127.375 Y89.792 E0.79147
G1 X127.375 Y89.982 E0.79924
G1 X125.038 Y89.982 E0.89486
G1 X125.038 Y92.129 E0.9827
G1 X131.67 Y92.129 E1.25401
G1 X131.67 Y94.466 E1.34962
G1 X125.038 Y94.466 E1.62093
G1 X125.038 Y94.889 E1.63824
G1 X131.67 Y94.889 E1.90954
G1 X131.67 Y94.635 E1.91996
;LAYER_CHANGE
;Z:0.6
;HEIGHT:0.084996
;BEFORE_LAYER_CHANGE
;0.6


G92 E0
G1 E-3.5 F3600
;WIPE_START
G1 F7200
G1 X131.67 Y94.889 E-3.62095
G1 X128.924 Y94.889 E-4.925
;WIPE_END
G1 E-5 F3600
; stop printing object smpegboardplierspliers52_32.stl id:0 copy 0
G1 Z0.6 F9000
;AFTER_LAYER_CHANGE
;0.6
G92 E0
; printing object smpegboardplierspliers52_32.stl id:0 copy 0
; acceleration to travel
M204 S1500
G1 X131.504 Y110.378
; decel to extrusion
M204 S500
G1 X131.822 Y112.29
; end travel
G1 E5 F2400
;TYPE:External perimeter
;WIDTH:0.42
;HEIGHT:0.2
G1 F1500
G1 X99.178 Y112.29 E6.02356
G1 X99.178 Y127.71 E6.50704
G1 X131.822 Y127.71 E7.53061
G1 X131.822 Y112.35 E8.01221
;WIPE_START
G1 X131.822 Y111.89 F9000
;WIPE_END
G92 E0
G1 E-3.5 F3600
;WIPE_START
G1 F7200
G1 X128.823 Y111.908 E-4.925
;WIPE_END
G1 E-5 F3600
; acceleration to travel
M204 S1500
G1 X131.493 Y126.49 F9000
; decel to extrusion
M204 S500
G1 X131.822 Y128.29
; end travel
G1 E0 F2400
G1 F1500
G1 X99.178 Y128.29 E1.02356
G1 X99.178 Y143.71 E1.50704
G1 X131.822 Y143.71 E2.53061
G1 X131.822 Y128.35 E3.01221
;WIPE_START
G1 X131.822 Y127.89 F9000
;WIPE_END
G92 E0
G1 E-3.5 F3600
;WIPE_START
G1 F7200
G1 X128.823 Y127.908 E-4.925
;WIPE_END
G1 E-5 F3600
; acceleration to travel
M204 S1500
G1 X131.493 Y113.49 F9000
; decel to extrusion
M204 S500
G1 X131.822 Y111.71
; end travel
G1 E0 F2400
G1 F1500
G1 X131.822 Y96.29 E0.48348
G1 X99.178 Y96.29 E1.50704
G1 X99.178 Y111.71 E1.99053
G1 X131.762 Y111.71 E3.01221
;WIPE_START
G1 X132.222 Y111.71 F9000
;WIPE_END
G92 E0
G1 E-3.5 F3600
;WIPE_START
G1 F7200
G1 X132.184 Y108.71 E-4.925
;WIPE_END
G1 E-5 F3600
; acceleration to travel
M204 S1500
G1 X132.379 Y97.138 F9000
; decel to extrusion
M204 S500
G1 X132.403 Y95.71
; end travel
G1 E0 F2400
G1 F1500
G1 X132.403 Y144.29 E1.52319
G1 X98.597 Y144.29 E2.58312
G1 X98.597 Y95.71 E4.10632
G1 X132.343 Y95.71 E5.16437
;WIPE_START
G1 X132.202 Y96.056 F9000
;WIPE_END
G92 E0
G1 E-3.5 F3600
;WIPE_START
G1 F7200
G1 X132.202 Y99.056 E-4.925
;WIPE_END
G1 E-5 F3600
; acceleration to travel
M204 S1500
G1 X132.096 Y110.562 F9000
; decel to extrusion
M204 S500
G1 X132.083 Y112
; end travel
G1 E0 F2400
;TYPE:Gap fill
;WIDTH:0.308789
G1 F1800
G1 X131.994 Y112 E0.00196
;WIDTH:0.27925
G1 X98.917 Y112 E0.65196
G1 X98.902 Y112.059 E0.65316
G1 X98.888 Y112.118 E0.65435
