; generated by SuperSlicer 2.4 on 2023-03-17 at 02:50:16 UTC


;
;

;
;
; 

; external perimeters extrusion width = 0.42mm
; perimeters extrusion width = 0.46mm
; infill extrusion width = 0.44mm
; solid infill extrusion width = 0.46mm
; top infill extrusion width = 0.44mm
; first layer extrusion width = 0.56mm

; object:{"name":"Pegboard_Pin","id":"Pegboard_Pin.STL id:0 copy 0","object_center":[105.800000,97.208616,0.000000],"boundingbox_center":[105.800000,97.208616,6.750000],"boundingbox_size":[3.700000,30.582767,13.499999]}
; object:{"name":"Pegboard_Pin","id":"Pegboard_Pin.STL id:0 copy 1","object_center":[115.500000,97.208616,0.000000],"boundingbox_center":[115.500000,97.208616,6.750000],"boundingbox_size":[3.700000,30.582767,13.499999]}
; object:{"name":"Pegboard_Pin","id":"Pegboard_Pin.STL id:0 copy 2","object_center":[105.800000,133.791384,0.000000],"boundingbox_center":[105.800000,133.791384,6.750000],"boundingbox_size":[3.700000,30.582767,13.499999]}
; object:{"name":"Pegboard_Pin","id":"Pegboard_Pin.STL id:0 copy 3","object_center":[125.200000,115.500001,0.000000],"boundingbox_center":[125.200000,115.500001,6.750000],"boundingbox_size":[3.700000,30.582767,13.499999]}
; plater:{"center":[115.500000,115.500000,0.000000],"boundingbox_center":[115.500000,115.500000,6.750000],"boundingbox_size":[23.100000,67.165535,13.499999]}

;TYPE:Custom
START_PRINT
M107
G21 ; set units to millimeters
G90 ; use absolute coordinates
M82 ; use absolute distances for extrusion
G92 E0
; Filament gcode
;_TOOLCHANGE 0
M104 S210 ; set temperature
M109 S210 ; set temperature and wait for it to be reached
M190 S60 ; set bed temperature and wait for it to be reached
M107
;LAYER_CHANGE
;Z:0.2
;HEIGHT:0.2
;BEFORE_LAYER_CHANGE
;0.2


G1 E-5 F3600
G1 Z0.2 F9000
;AFTER_LAYER_CHANGE
;0.2
G92 E0
M204 S500
G1 X101.125 Y80.866
G1 E5 F2400
;TYPE:Skirt
;WIDTH:0.48
G1 F1200
G1 X100.731 Y82.409 E5.05786
G1 X100.731 Y148.591 E7.46316
G1 X101.242 Y150.331 E7.52906
G1 X102.407 Y151.416 E7.58692
G1 X103.95 Y151.81 E7.64479
G1 X107.65 Y151.81 E7.77926
G1 X108.465 Y151.705 E7.80914
G1 X109.858 Y150.933 E7.867
G1 X129.258 Y132.642 E8.83603
G1 X129.875 Y131.843 E8.87272
G1 X130.269 Y130.3 E8.93058
G1 X130.269 Y100.7 E10.00635
G1 X129.893 Y99.192 E10.06282
G1 X120.193 Y80.901 E10.81528
G1 X118.893 Y79.584 E10.88255
G1 X117.35 Y79.19 E10.94041
G1 X103.95 Y79.19 E11.42741
G1 X102.21 Y79.701 E11.49331
G1 X101.166 Y80.822 E11.54899
G92 E0
G1 E-3.5 F3600
;WIPE_START
G1 F7200
G1 X100.731 Y82.409 E-4.28139
G1 X100.731 Y83.764 E-4.925
;WIPE_END
G1 E-5 F3600
; printing object Pegboard_Pin.STL id:0 copy 0
; acceleration to travel
M204 S1500
G1 X104.404 Y83.361 F9000
; decel to extrusion
M204 S500
G1 X104.853 Y83.312
; end travel
G1 E0 F2400
;TYPE:Internal perimeter
;WIDTH:0.564
G1 F1200
G1 X106.747 Y83.312 E0.08206
G1 X106.747 Y111.106 E1.28631
G1 X104.853 Y111.106 E1.36836
G1 X104.853 Y83.372 E2.57001
G1 X104.332 Y82.791 F9000
;TYPE:External perimeter
G1 F1200
G1 X107.268 Y82.791 E2.69722
G1 X107.268 Y111.627 E3.94663
G1 X104.332 Y111.627 E4.07384
G1 X104.332 Y82.851 E5.32064
;WIPE_START
G1 X104.678 Y82.991 F9000
;WIPE_END
G1 X105.537 Y83.468
;TYPE:Solid infill
;WIDTH:0.544022
G1 F1200
G1 X106.367 Y84.297 E5.36966
G1 X106.367 Y85.034 E5.40046
G1 X105.233 Y83.901 E5.46743
G1 X105.233 Y84.638 E5.49823
G1 X106.367 Y85.771 E5.5652
G1 X106.367 Y86.508 E5.596
G1 X105.233 Y85.375 E5.66297
G1 X105.233 Y86.112 E5.69377
G1 X106.367 Y87.245 E5.76074
G1 X106.367 Y87.982 E5.79154
G1 X105.233 Y86.849 E5.85851
G1 X105.233 Y87.586 E5.88931
G1 X106.367 Y88.719 E5.95628
G1 X106.367 Y89.456 E5.98708
G1 X105.233 Y88.323 E6.05405
G1 X105.233 Y89.059 E6.08485
G1 X106.367 Y90.193 E6.15182
G1 X106.367 Y90.93 E6.18261
G1 X105.233 Y89.796 E6.24959
G1 X105.233 Y90.533 E6.28038
G1 X106.367 Y91.666 E6.34736
G1 X106.367 Y92.403 E6.37815
G1 X105.233 Y91.27 E6.44513
G1 X105.233 Y92.007 E6.47592
G1 X106.367 Y93.14 E6.5429
G1 X106.367 Y93.877 E6.57369
G1 X105.233 Y92.744 E6.64067
G1 X105.233 Y93.481 E6.67146
G1 X106.367 Y94.614 E6.73844
G1 X106.367 Y95.351 E6.76923
G1 X105.233 Y94.218 E6.83621
G1 X105.233 Y94.955 E6.867
G1 X106.367 Y96.088 E6.93398
G1 X106.367 Y96.825 E6.96477
G1 X105.233 Y95.692 E7.03175
G1 X105.233 Y96.429 E7.06254
G1 X106.367 Y97.562 E7.12951
G1 X106.367 Y98.299 E7.16031
G1 X105.233 Y97.166 E7.22728
G1 X105.233 Y97.903 E7.25808
G1 X106.367 Y99.036 E7.32505
G1 X106.367 Y99.773 E7.35585
G1 X105.233 Y98.639 E7.42282
G1 X105.233 Y99.376 E7.45362
G1 X106.367 Y100.509 E7.52059
G1 X106.367 Y101.246 E7.55139
G1 X105.233 Y100.113 E7.61836
G1 X105.233 Y100.85 E7.64916
G1 X106.367 Y101.983 E7.71613
G1 X106.367 Y102.72 E7.74693
G1 X105.233 Y101.587 E7.8139
G1 X105.233 Y102.324 E7.8447
G1 X106.367 Y103.457 E7.91167
G1 X106.367 Y104.194 E7.94247
G1 X105.233 Y103.061 E8.00944
G1 X105.233 Y103.798 E8.04024
G1 X106.367 Y104.931 E8.10721
G1 X106.367 Y105.668 E8.13801
G1 X105.233 Y104.535 E8.20498
G1 X105.233 Y105.272 E8.23578
G1 X106.367 Y106.405 E8.30275
G1 X106.367 Y107.142 E8.33355
G1 X105.233 Y106.009 E8.40052
G1 X105.233 Y106.746 E8.43132
G1 X106.367 Y107.879 E8.49829
G1 X106.367 Y108.616 E8.52909
G1 X105.233 Y107.482 E8.59606
G1 X105.233 Y108.219 E8.62686
G1 X106.367 Y109.352 E8.69383
G1 X106.367 Y110.089 E8.72463
G1 X105.233 Y108.956 E8.7916
G1 X105.233 Y109.693 E8.8224
G1 X106.265 Y110.725 E8.8834
G1 X105.529 Y110.725 E8.91419
G1 X105.009 Y110.206 E8.94488
G92 E0
G1 E-3.5 F3600
;WIPE_START
G1 F7200
G1 X105.529 Y110.725 E-3.84873
G1 X106.265 Y110.725 E-4.19877
G1 X105.233 Y109.693 E-4.89201
G1 X105.233 Y109.624 E-4.925
;WIPE_END
G1 E-5 F3600
; stop printing object Pegboard_Pin.STL id:0 copy 0
; printing object Pegboard_Pin.STL id:0 copy 1
; acceleration to travel
M204 S1500
G1 X113.538 Y110.944 F9000
; decel to extrusion
M204 S500
G1 X114.553 Y111.106
; end travel
G1 E0 F2400
;TYPE:Internal perimeter
;WIDTH:0.564
G1 F1200
G1 X114.553 Y83.312 E1.20425
G1 X116.447 Y83.312 E1.28631
G1 X116.447 Y111.106 E2.49056
G1 X114.613 Y111.106 E2.57001
G1 X114.032 Y111.627 F9000
;TYPE:External perimeter
G1 F1200
G1 X114.032 Y82.791 E3.81942
G1 X116.968 Y82.791 E3.94663
G1 X116.968 Y111.627 E5.19603
G1 X114.092 Y111.627 E5.32064
;WIPE_START
G1 X114.232 Y111.28 F9000
;WIPE_END
G92 E0
G1 E-3.5 F3600
;WIPE_START
G1 F7200
G1 X114.232 Y108.28 E-4.925
;WIPE_END
G1 E-5 F3600
; acceleration to travel
M204 S1500
G1 X115.128 Y86.169 F9000
; decel to extrusion
M204 S500
G1 X115.237 Y83.468
; end travel
G1 E0 F2400
;TYPE:Solid infill
;WIDTH:0.544022
G1 F1200
G1 X116.067 Y84.297 E0.04901
G1 X116.067 Y85.034 E0.07981
G1 X114.933 Y83.901 E0.14678
G1 X114.933 Y84.638 E0.17758
G1 X116.067 Y85.771 E0.24455
G1 X116.067 Y86.508 E0.27535
G1 X114.933 Y85.375 E0.34232
G1 X114.933 Y86.112 E0.37312
G1 X116.067 Y87.245 E0.44009
G1 X116.067 Y87.982 E0.47089
G1 X114.933 Y86.849 E0.53786
G1 X114.933 Y87.586 E0.56866
G1 X116.067 Y88.719 E0.63563
G1 X116.067 Y89.456 E0.66643
G1 X114.933 Y88.323 E0.7334
G1 X114.933 Y89.059 E0.7642
G1 X116.067 Y90.193 E0.83117
G1 X116.067 Y90.93 E0.86197
G1 X114.933 Y89.796 E0.92894
G1 X114.933 Y90.533 E0.95974
G1 X116.067 Y91.666 E1.02671
G1 X116.067 Y92.403 E1.05751
G1 X114.933 Y91.27 E1.12448
G1 X114.933 Y92.007 E1.15528
G1 X116.067 Y93.14 E1.22225
G1 X116.067 Y93.877 E1.25305
G1 X114.933 Y92.744 E1.32002
G1 X114.933 Y93.481 E1.35082
G1 X116.067 Y94.614 E1.41779
G1 X116.067 Y95.351 E1.44859
G1 X114.933 Y94.218 E1.51556
G1 X114.933 Y94.955 E1.54636
G1 X116.067 Y96.088 E1.61333
G1 X116.067 Y96.825 E1.64413
G1 X114.933 Y95.692 E1.7111
G1 X114.933 Y96.429 E1.7419
G1 X116.067 Y97.562 E1.80887
G1 X116.067 Y98.299 E1.83967
G1 X114.933 Y97.166 E1.90664
G1 X114.933 Y97.903 E1.93744
G1 X116.067 Y99.036 E2.00441
G1 X116.067 Y99.773 E2.03521
G1 X114.933 Y98.639 E2.10218
G1 X114.933 Y99.376 E2.13298
G1 X116.067 Y100.509 E2.19995
G1 X116.067 Y101.246 E2.23075
G1 X114.933 Y100.113 E2.29772
G1 X114.933 Y100.85 E2.32852
G1 X116.067 Y101.983 E2.39549
G1 X116.067 Y102.72 E2.42629
G1 X114.933 Y101.587 E2.49326
G1 X114.933 Y102.324 E2.52406
G1 X116.067 Y103.457 E2.59103
G1 X116.067 Y104.194 E2.62183
G1 X114.933 Y103.061 E2.6888
G1 X114.933 Y103.798 E2.7196
G1 X116.067 Y104.931 E2.78657
G1 X116.067 Y105.668 E2.81737
G1 X114.933 Y104.535 E2.88434
G1 X114.933 Y105.272 E2.91514
G1 X116.067 Y106.405 E2.98211
G1 X116.067 Y107.142 E3.01291
G1 X114.933 Y106.009 E3.07988
G1 X114.933 Y106.746 E3.11068
G1 X116.067 Y107.879 E3.17765
G1 X116.067 Y108.616 E3.20845
G1 X114.933 Y107.482 E3.27542
G1 X114.933 Y108.219 E3.30622
G1 X116.067 Y109.352 E3.37319
G1 X116.067 Y110.089 E3.40399
G1 X114.933 Y108.956 E3.47096
G1 X114.933 Y109.693 E3.50176
G1 X115.965 Y110.725 E3.56275
G1 X115.229 Y110.725 E3.59355
G1 X114.709 Y110.206 E3.62423
G92 E0
G1 E-3.5 F3600
;WIPE_START
G1 F7200
G1 X115.229 Y110.725 E-3.84873
G1 X115.965 Y110.725 E-4.19877
G1 X114.933 Y109.693 E-4.89201
G1 X114.933 Y109.624 E-4.925
;WIPE_END
G1 E-5 F3600
; stop printing object Pegboard_Pin.STL id:0 copy 1
; printing object Pegboard_Pin.STL id:0 copy 3
; acceleration to travel
M204 S1500
G1 X123.238 Y102.476 F9000
; decel to extrusion
M204 S500
G1 X124.253 Y101.603
; end travel
G1 E0 F2400
;TYPE:Internal perimeter
;WIDTH:0.564
G1 F1200
G1 X126.147 Y101.603 E0.08206
G1 X126.147 Y129.397 E1.28631
G1 X124.253 Y129.397 E1.36836
G1 X124.253 Y101.663 E2.57001
G1 X123.732 Y101.082 F9000
;TYPE:External perimeter
G1 F1200
G1 X126.668 Y101.082 E2.69722
G1 X126.668 Y129.918 E3.94663
G1 X123.732 Y129.918 E4.07384
G1 X123.732 Y101.142 E5.32064
;WIPE_START
G1 X124.078 Y101.282 F9000
;WIPE_END
G1 X124.937 Y101.759
;TYPE:Solid infill
;WIDTH:0.544022
G1 F1200
G1 X125.767 Y102.589 E5.36966
G1 X125.767 Y103.326 E5.40046
G1 X124.633 Y102.192 E5.46743
G1 X124.633 Y102.929 E5.49823
G1 X125.767 Y104.062 E5.5652
G1 X125.767 Y104.799 E5.596
G1 X124.633 Y103.666 E5.66297
G1 X124.633 Y104.403 E5.69377
G1 X125.767 Y105.536 E5.76074
G1 X125.767 Y106.273 E5.79154
G1 X124.633 Y105.14 E5.85851
G1 X124.633 Y105.877 E5.88931
G1 X125.767 Y107.01 E5.95628
G1 X125.767 Y107.747 E5.98708
G1 X124.633 Y106.614 E6.05405
G1 X124.633 Y107.351 E6.08485
G1 X125.767 Y108.484 E6.15182
G1 X125.767 Y109.221 E6.18261
G1 X124.633 Y108.088 E6.24959
G1 X124.633 Y108.825 E6.28038
G1 X125.767 Y109.958 E6.34736
G1 X125.767 Y110.695 E6.37815
G1 X124.633 Y109.562 E6.44513
G1 X124.633 Y110.299 E6.47592
G1 X125.767 Y111.432 E6.5429
G1 X125.767 Y112.169 E6.57369
G1 X124.633 Y111.035 E6.64067
G1 X124.633 Y111.772 E6.67146
G1 X125.767 Y112.905 E6.73844
G1 X125.767 Y113.642 E6.76923
G1 X124.633 Y112.509 E6.83621
G1 X124.633 Y113.246 E6.867
G1 X125.767 Y114.379 E6.93398
G1 X125.767 Y115.116 E6.96477
G1 X124.633 Y113.983 E7.03175
G1 X124.633 Y114.72 E7.06254
G1 X125.767 Y115.853 E7.12951
G1 X125.767 Y116.59 E7.16031
G1 X124.633 Y115.457 E7.22728
G1 X124.633 Y116.194 E7.25808
G1 X125.767 Y117.327 E7.32505
G1 X125.767 Y118.064 E7.35585
G1 X124.633 Y116.931 E7.42282
G1 X124.633 Y117.668 E7.45362
G1 X125.767 Y118.801 E7.52059
G1 X125.767 Y119.538 E7.55139
G1 X124.633 Y118.405 E7.61836
G1 X124.633 Y119.142 E7.64916
G1 X125.767 Y120.275 E7.71613
G1 X125.767 Y121.012 E7.74693
G1 X124.633 Y119.878 E7.8139
G1 X124.633 Y120.615 E7.8447
G1 X125.767 Y121.748 E7.91167
G1 X125.767 Y122.485 E7.94247
G1 X124.633 Y121.352 E8.00944
G1 X124.633 Y122.089 E8.04024
G1 X125.767 Y123.222 E8.10721
G1 X125.767 Y123.959 E8.13801
G1 X124.633 Y122.826 E8.20498
G1 X124.633 Y123.563 E8.23578
G1 X125.767 Y124.696 E8.30275
G1 X125.767 Y125.433 E8.33355
G1 X124.633 Y124.3 E8.40052
G1 X124.633 Y125.037 E8.43132
G1 X125.767 Y126.17 E8.49829
G1 X125.767 Y126.907 E8.52909
G1 X124.633 Y125.774 E8.59606
G1 X124.633 Y126.511 E8.62686
G1 X125.767 Y127.644 E8.69383
G1 X125.767 Y128.381 E8.72463
G1 X124.633 Y127.248 E8.7916
G1 X124.633 Y127.985 E8.8224
G1 X125.665 Y129.017 E8.8834
G1 X124.929 Y129.017 E8.91419
G1 X124.409 Y128.497 E8.94488
G92 E0
G1 E-3.5 F3600
;WIPE_START
G1 F7200
G1 X124.929 Y129.017 E-3.84873
G1 X125.665 Y129.017 E-4.19877
G1 X124.633 Y127.985 E-4.89201
G1 X124.633 Y127.915 E-4.925
;WIPE_END
G1 E-5 F3600
; stop printing object Pegboard_Pin.STL id:0 copy 3
; printing object Pegboard_Pin.STL id:0 copy 2
; acceleration to travel
M204 S1500
G1 X108.694 Y120.768 F9000
; decel to extrusion
M204 S500
G1 X106.747 Y119.894
; end travel
G1 E0 F2400
;TYPE:Internal perimeter
;WIDTH:0.564
G1 F1200
G1 X106.747 Y147.688 E1.20425
G1 X104.853 Y147.688 E1.28631
G1 X104.853 Y119.894 E2.49056
G1 X106.687 Y119.894 E2.57001
G1 X107.268 Y119.373 F9000
;TYPE:External perimeter
G1 F1200
G1 X107.268 Y148.209 E3.81942
G1 X104.332 Y148.209 E3.94663
G1 X104.332 Y119.373 E5.19603
G1 X107.208 Y119.373 E5.32064
;WIPE_START
G1 X107.068 Y119.72 F9000
;WIPE_END
G1 X105.537 Y120.051
;TYPE:Solid infill
;WIDTH:0.544022
G1 F1200
G1 X106.367 Y120.88 E5.36966
G1 X106.367 Y121.617 E5.40046
G1 X105.233 Y120.484 E5.46743
G1 X105.233 Y121.221 E5.49823
G1 X106.367 Y122.354 E5.5652
G1 X106.367 Y123.091 E5.596
G1 X105.233 Y121.958 E5.66297
G1 X105.233 Y122.695 E5.69377
G1 X106.367 Y123.828 E5.76074
G1 X106.367 Y124.565 E5.79154
G1 X105.233 Y123.432 E5.85851
G1 X105.233 Y124.168 E5.88931
G1 X106.367 Y125.302 E5.95628
G1 X106.367 Y126.038 E5.98708
G1 X105.233 Y124.905 E6.05405
G1 X105.233 Y125.642 E6.08485
G1 X106.367 Y126.775 E6.15182
G1 X106.367 Y127.512 E6.18261
G1 X105.233 Y126.379 E6.24959
G1 X105.233 Y127.116 E6.28038
G1 X106.367 Y128.249 E6.34736
G1 X106.367 Y128.986 E6.37815
G1 X105.233 Y127.853 E6.44513
G1 X105.233 Y128.59 E6.47592
G1 X106.367 Y129.723 E6.5429
G1 X106.367 Y130.46 E6.57369
G1 X105.233 Y129.327 E6.64067
G1 X105.233 Y130.064 E6.67146
G1 X106.367 Y131.197 E6.73844
G1 X106.367 Y131.934 E6.76923
G1 X105.233 Y130.801 E6.83621
G1 X105.233 Y131.538 E6.867
G1 X106.367 Y132.671 E6.93398
G1 X106.367 Y133.408 E6.96477
G1 X105.233 Y132.275 E7.03175
G1 X105.233 Y133.011 E7.06254
G1 X106.367 Y134.145 E7.12951
G1 X106.367 Y134.881 E7.16031
G1 X105.233 Y133.748 E7.22728
G1 X105.233 Y134.485 E7.25808
G1 X106.367 Y135.618 E7.32505
G1 X106.367 Y136.355 E7.35585
G1 X105.233 Y135.222 E7.42282
G1 X105.233 Y135.959 E7.45362
G1 X106.367 Y137.092 E7.52059
G1 X106.367 Y137.829 E7.55139
G1 X105.233 Y136.696 E7.61836
G1 X105.233 Y137.433 E7.64916
G1 X106.367 Y138.566 E7.71613
G1 X106.367 Y139.303 E7.74693
G1 X105.233 Y138.17 E7.8139
G1 X105.233 Y138.907 E7.8447
G1 X106.367 Y140.04 E7.91167
G1 X106.367 Y140.777 E7.94247
G1 X105.233 Y139.644 E8.00944
G1 X105.233 Y140.381 E8.04024
G1 X106.367 Y141.514 E8.10721
G1 X106.367 Y142.251 E8.13801
G1 X105.233 Y141.118 E8.20498
G1 X105.233 Y141.854 E8.23578
G1 X106.367 Y142.988 E8.30275
G1 X106.367 Y143.724 E8.33355
G1 X105.233 Y142.591 E8.40052
G1 X105.233 Y143.328 E8.43132
G1 X106.367 Y144.461 E8.49829
G1 X106.367 Y145.198 E8.52909
G1 X105.233 Y144.065 E8.59606
G1 X105.233 Y144.802 E8.62686
G1 X106.367 Y145.935 E8.69383
G1 X106.367 Y146.672 E8.72463
G1 X105.233 Y145.539 E8.7916
G1 X105.233 Y146.276 E8.8224
G1 X106.265 Y147.308 E8.8834
G1 X105.529 Y147.308 E8.91419
G1 X105.009 Y146.789 E8.94488
M106 S84.15
;LAYER_CHANGE
;Z:0.4
;HEIGHT:0.2
;BEFORE_LAYER_CHANGE
;0.4


G92 E0
G1 E-3.5 F3600
;WIPE_START
G1 F7200
G1 X105.529 Y147.308 E-3.84873
G1 X106.265 Y147.308 E-4.19877
G1 X105.233 Y146.276 E-4.89201
G1 X105.233 Y146.206 E-4.925
;WIPE_END
G1 E-5 F3600
; stop printing object Pegboard_Pin.STL id:0 copy 2
G1 Z0.4 F9000
;AFTER_LAYER_CHANGE
;0.4
M104 S205 ; set temperature
G92 E0
; acceleration to travel
M204 S1500
G1 X101.222 Y146.206
; decel to extrusion
M204 S500
G1 X100.731 Y146.206
; end travel
G1 E5 F2400
;TYPE:Skirt
;WIDTH:0.48
G1 F1200
G1 X100.731 Y148.591 E5.08667
G1 X101.242 Y150.331 E5.15257
G1 X102.407 Y151.416 E5.21043
G1 X103.95 Y151.81 E5.2683
G1 X107.65 Y151.81 E5.40277
G1 X108.465 Y151.705 E5.43265
G1 X109.858 Y150.933 E5.49051
G1 X129.258 Y132.642 E6.45954
G1 X129.875 Y131.843 E6.49623
G1 X130.269 Y130.3 E6.55409
G1 X130.269 Y100.7 E7.62986
G1 X129.893 Y99.192 E7.68633
G1 X120.193 Y80.901 E8.43879
G1 X118.893 Y79.584 E8.50606
G1 X117.35 Y79.19 E8.56392
G1 X103.95 Y79.19 E9.05092
G1 X102.21 Y79.701 E9.11682
G1 X101.125 Y80.866 E9.17468
