; generated by SuperSlicer 2.4 on 2023-03-06 at 02:15:27 UTC


;
;

;
;
; 

; external perimeters extrusion width = 0.42mm
; perimeters extrusion width = 0.46mm
; infill extrusion width = 0.44mm
; solid infill extrusion width = 0.46mm
; top infill extrusion width = 0.44mm
; support material extrusion width = 0.38mm
; first layer extrusion width = 0.56mm

; object:{"name":"pegboardfeelergauge","id":"pegboardfeelergauge.stl id:0 copy 0","object_center":[117.408152,109.570678,0.000000],"boundingbox_center":[117.408152,109.570678,34.500000],"boundingbox_size":[24.104180,25.900381,69.000000]}
; plater:{"center":[117.408152,109.570678,0.000000],"boundingbox_center":[117.408152,109.570678,34.500000],"boundingbox_size":[24.104180,25.900381,69.000000]}

;TYPE:Custom
START_PRINT
M107
G21 ; set units to millimeters
G90 ; use absolute coordinates
M82 ; use absolute distances for extrusion
G92 E0
; Filament gcode
;_TOOLCHANGE 0
M104 S210 ; set temperature
M109 S210 ; set temperature and wait for it to be reached
M190 S60 ; set bed temperature and wait for it to be reached
M107
;LAYER_CHANGE
;Z:0.2
;HEIGHT:0.2
;BEFORE_LAYER_CHANGE
;0.2


G1 E-5 F3600
G1 Z0.2 F9000
;AFTER_LAYER_CHANGE
;0.2
G92 E0
M204 S500
G1 X113.104 Y94.906
G1 E5 F2400
;TYPE:Skirt
;WIDTH:0.48
G1 F1200
G1 X103.353 Y106.527 E5.55136
G1 X99.965 Y112.071 E5.78749
G1 X99.441 Y113.956 E5.85858
G1 X99.441 Y126.219 E6.30426
G1 X100.15 Y128.382 E6.38697
G1 X101.445 Y129.48 E6.44869
G1 X103.097 Y129.875 E6.51042
G1 X113.023 Y129.875 E6.87116
G1 X114.161 Y129.693 E6.91304
G1 X115.608 Y128.804 E6.97476
G1 X118.029 Y126.38 E7.09928
G1 X121.976 Y122.154 E7.30942
G1 X132.261 Y109.898 E7.89092
G1 X133.108 Y107.786 E7.97362
G1 X132.822 Y106.112 E8.03535
G1 X131.81 Y104.748 E8.09707
G1 X118.787 Y93.82 E8.71491
G1 X116.675 Y92.973 E8.79762
G1 X115.001 Y93.259 E8.85934
G1 X113.637 Y94.271 E8.92107
G1 X113.143 Y94.86 E8.94901
G1 X113.478 Y95.141 F9000
G1 F1200
G1 X103.687 Y106.808 E9.50256
G1 X100.339 Y112.297 E9.73621
G1 X99.878 Y113.956 E9.7988
G1 X99.878 Y126.219 E10.24448
G1 X100.389 Y127.959 E10.31038
G1 X101.554 Y129.044 E10.36824
G1 X103.097 Y129.438 E10.4261
G1 X113.023 Y129.438 E10.78684
G1 X113.929 Y129.307 E10.82013
G1 X115.299 Y128.495 E10.87799
G1 X117.71 Y126.081 E11.00199
G1 X121.641 Y121.873 E11.21127
G1 X131.926 Y109.617 E11.79276
G1 X132.653 Y107.956 E11.85866
G1 X132.458 Y106.376 E11.91652
G1 X131.529 Y105.082 E11.97439
G1 X118.506 Y94.155 E12.59222
G1 X116.845 Y93.428 E12.65812
G1 X115.265 Y93.623 E12.71598
G1 X113.972 Y94.552 E12.77384
G1 X113.516 Y95.095 E12.79961
G92 E0
G1 E-3.5 F3600
;WIPE_START
G1 F7200
G1 X111.588 Y97.393 E-4.925
;WIPE_END
G1 E-5 F3600
; printing object pegboardfeelergauge.stl id:0 copy 0
; acceleration to travel
M204 S1500
G1 X108.187 Y109.761 F9000
; decel to extrusion
M204 S500
G1 X107.771 Y111.272
; end travel
G1 E0 F2400
;TYPE:Support material
;WIDTH:0.564
G1 F1200
G1 X108.184 Y111.619 E0.02337
G1 X108.247 Y111.671 E0.02691
G1 X109.363 Y112.608 E0.09004
G1 X109.735 Y112.92 E0.11109
G1 X110.479 Y113.545 E0.15318
G1 X110.851 Y113.857 E0.17422
G1 X111.968 Y114.793 E0.23736
G1 X112.34 Y115.106 E0.2584
G1 X113.084 Y115.73 E0.30049
G1 X113.456 Y116.042 E0.32154
G1 X114.572 Y116.979 E0.38467
G1 X114.944 Y117.291 E0.40572
G1 X115.688 Y117.916 E0.44781
G1 X116.06 Y118.228 E0.46885
G1 X116.443 Y118.549 E0.49049
G1 X116.464 Y118.566 E0.49167
G1 X116.638 Y118.692 E0.50099
G1 X117.346 Y119.208 E0.53893
G1 X115.36 Y119.208 E0.62498
G1 X115.36 Y123.882 E0.82751
G1 X113.023 Y123.882 E0.92877
G1 X113.023 Y126.219 E1.03003
G1 X103.097 Y126.219 E1.4601
G1 X103.097 Y113.956 E1.99143
G1 X105.434 Y113.956 E2.09269
G1 X105.434 Y111.619 E2.19395
G1 X107.771 Y111.619 E2.29521
G1 X107.771 Y111.332 E2.30764
; acceleration to travel
M204 S1500
G1 X113.696 Y117.141 F9000
; decel to extrusion
M204 S500
G1 X115.671 Y119.078
; end travel
G1 F1200
G1 X115.671 Y118.364 E2.33856
G1 X115.461 Y118.187 E2.35048
G1 X115.092 Y117.878 E2.37131
G1 X115.092 Y118.853 E2.41358
G1 X115.006 Y118.853 E2.41733
G1 X115.006 Y123.528 E2.61986
G1 X114.513 Y123.528 E2.64119
G1 X114.513 Y117.392 E2.90702
G1 X114.344 Y117.25 E2.91658
G1 X113.934 Y116.906 E2.93977
G1 X113.934 Y123.528 E3.22666
G1 X113.355 Y123.528 E3.25175
G1 X113.355 Y116.421 E3.55968
G1 X113.228 Y116.314 E3.56688
G1 X112.856 Y116.002 E3.58793
G1 X112.776 Y115.935 E3.59243
G1 X112.776 Y123.528 E3.92142
G1 X112.668 Y123.528 E3.92609
G1 X112.668 Y125.865 E4.02735
G1 X112.197 Y125.865 E4.04777
G1 X112.197 Y115.449 E4.49906
G1 X112.112 Y115.377 E4.5039
G1 X111.74 Y115.065 E4.52495
G1 X111.618 Y114.963 E4.53181
G1 X111.618 Y125.865 E5.00416
G1 X111.039 Y125.865 E5.02924
G1 X111.039 Y114.477 E5.52264
G1 X110.624 Y114.128 E5.54616
G1 X110.46 Y113.991 E5.55539
G1 X110.46 Y125.865 E6.06983
G1 X109.881 Y125.865 E6.09492
G1 X109.881 Y113.506 E6.63041
G1 X109.507 Y113.192 E6.65158
G1 X109.302 Y113.02 E6.66316
G1 X109.302 Y125.865 E7.21971
G1 X108.723 Y125.865 E7.24479
G1 X108.723 Y112.534 E7.82239
G1 X108.145 Y112.048 E7.85514
G1 X108.145 Y125.865 E8.45378
G1 X107.566 Y125.865 E8.47887
G1 X107.566 Y111.973 E9.08075
G1 X106.987 Y111.973 E9.10584
G1 X106.987 Y125.865 E9.70773
G1 X106.408 Y125.865 E9.73281
G1 X106.408 Y111.973 E10.3347
G1 X105.829 Y111.973 E10.35979
G1 X105.829 Y125.865 E10.96168
G1 X105.25 Y125.865 E10.98676
G1 X105.25 Y114.31 E11.48739
G1 X104.671 Y114.31 E11.51247
G1 X104.671 Y125.865 E12.0131
G1 X104.092 Y125.865 E12.03819
G1 X104.092 Y114.31 E12.53881
G1 X103.513 Y114.31 E12.5639
G1 X103.513 Y126.089 E13.07424
G92 E0
G1 E-3.5 F3600
;WIPE_START
G1 F7200
G1 X103.513 Y123.089 E-4.925
;WIPE_END
G1 E-5 F3600
; acceleration to travel
M204 S1500
G1 X107.874 Y111.089 F9000
; decel to extrusion
M204 S500
G1 X108.407 Y109.623
; end travel
G1 E0 F2400
;TYPE:Internal perimeter
G1 F1200
G1 X107.42 Y108.772 E0.05647
G1 X116.553 Y97.888 E0.67207
G1 X117.564 Y98.71 E0.72854
G1 X117.149 Y99.089 E0.75288
G1 X116.446 Y99.874 E0.79854
G1 X109.358 Y108.32 E1.27629
G1 X108.707 Y109.149 E1.32195
G1 X108.439 Y109.573 E1.34367
G92 E0
G1 E-3.5 F3600
;WIPE_START
G1 F7200
G1 X107.42 Y108.772 E-4.11552
G1 X108.516 Y107.466 E-4.925
;WIPE_END
G1 E-5 F3600
; acceleration to travel
M204 S1500
G1 X117.008 Y116.602 F9000
; decel to extrusion
M204 S500
G1 X118.045 Y117.718
; end travel
G1 E0 F2400
G1 F1200
G1 X118.464 Y117.336 E0.02457
G1 X119.168 Y116.552 E0.07023
G1 X125.605 Y108.88 E0.50415
G1 X126.579 Y107.71 E0.5701
G1 X126.911 Y107.268 E0.59405
G1 X127.206 Y106.802 E0.61797
G1 X128.193 Y107.653 E0.67444
G1 X119.063 Y118.534 E1.28986
G1 X118.625 Y118.168 E1.31458
G1 X118.093 Y117.755 E1.34378
G1 X117.528 Y117.485 F9000
;TYPE:External perimeter
G1 F1200
G1 X118.093 Y116.969 E1.37694
G1 X118.774 Y116.21 E1.42111
G1 X125.205 Y108.546 E1.85461
G1 X126.17 Y107.387 E1.91994
G1 X126.481 Y106.972 E1.94243
G1 X126.89 Y106.328 E1.97545
G1 X118.085 Y98.94 E2.47345
G1 X117.52 Y99.456 E2.50661
G1 X116.839 Y100.215 E2.55077
G1 X109.763 Y108.649 E3.02778
G1 X109.133 Y109.451 E3.07195
G1 X108.723 Y110.097 E3.10511
G1 X117.482 Y117.446 E3.6005
;WIPE_START
G1 X117.811 Y117.768 F9000
;WIPE_END
G1 X119.128 Y119.267
G1 F1200
G1 X118.298 Y118.574 E3.64734
G1 X117.906 Y118.27 E3.66887
G1 X117.116 Y117.708 E3.71086
G1 X116.752 Y117.403 E3.73142
G1 X108.575 Y110.542 E4.19392
G1 X107.885 Y109.861 E4.23591
G1 X106.691 Y108.831 E4.30427
G1 X116.485 Y97.159 E4.96444
G1 X116.564 Y97.226 E4.96896
G1 X117.708 Y98.155 E5.0328
G1 X118.497 Y98.717 E5.07479
G1 X127.038 Y105.883 E5.55785
G1 X127.728 Y106.564 E5.59984
G1 X128.923 Y107.594 E5.6682
G1 X119.167 Y119.221 E6.32581
;WIPE_START
G1 X118.991 Y118.891 F9000
;WIPE_END
G1 X118.741 Y117.968
;TYPE:Gap fill
;WIDTH:0.863281
G1 F1200
G1 X118.824 Y117.87 E6.33458
;WIDTH:0.791277
G1 X118.906 Y117.771 E6.34259
G1 X118.921 Y117.752 E6.34407
;WIDTH:0.76233
G1 X118.979 Y117.681 E6.34957
G1 X119.297 Y117.314 E6.37861
G1 X119.623 Y116.938 E6.40836
G1 X123.333 Y112.514 E6.75374
G1 X127.043 Y108.091 E7.09912
G1 X127.056 Y108.075 E7.10031
G1 X127.196 Y107.899 E7.11378
;WIDTH:0.794182
G1 X127.336 Y107.722 E7.12786
G1 X127.371 Y107.681 E7.13125
G1 X127.418 Y107.627 E7.13573
G1 X127.497 Y107.532 E7.14342
;WIDTH:0.858051
G1 X127.575 Y107.437 E7.15176
G92 E0
G1 E-3.5 F3600
;WIPE_START
G1 F7200
G1 X127.497 Y107.532 E-3.55846
;WIPE_END
G1 E-5 F3600
; acceleration to travel
M204 S1500
G1 X118.028 Y99.445 F9000
; decel to extrusion
M204 S500
G1 X116.872 Y98.457
; end travel
G1 E0 F2400
;WIDTH:0.863275
G1 F1200
G1 X116.789 Y98.555 E0.00874
;WIDTH:0.788698
G1 X116.707 Y98.654 E0.01669
G1 X116.692 Y98.672 E0.01817
G1 X116.634 Y98.745 E0.02392
G1 X116.316 Y99.111 E0.05402
;WIDTH:0.756821
G1 X115.991 Y99.487 E0.08352
G1 X112.444 Y103.713 E0.41103
G1 X108.898 Y107.94 E0.73853
G1 X108.585 Y108.326 E0.76806
;WIDTH:0.79718
G1 X108.278 Y108.703 E0.79852
G1 X108.217 Y108.772 E0.8043
G1 X108.202 Y108.79 E0.80581
G1 X108.119 Y108.888 E0.81386
;WIDTH:0.866977
G1 X108.036 Y108.986 E0.82265
M106 S84.15
;LAYER_CHANGE
;Z:0.4
;HEIGHT:0.2
;BEFORE_LAYER_CHANGE
;0.4


G92 E0
G1 E-3.5 F3600
;WIPE_START
G1 F7200
G1 X108.119 Y108.888 E-3.56097
;WIPE_END
G1 E-5 F3600
; stop printing object pegboardfeelergauge.stl id:0 copy 0
G1 Z0.4 F9000
;AFTER_LAYER_CHANGE
;0.4
M104 S205 ; set temperature
G92 E0
; acceleration to travel
M204 S1500
G1 X104.591 Y105.927
; decel to extrusion
M204 S500
G1 X104.159 Y105.566
; end travel
G1 E5 F2400
;TYPE:Skirt
;WIDTH:0.48
G1 F1200
G1 X103.353 Y106.527 E5.04562
G1 X99.965 Y112.071 E5.28175
G1 X99.441 Y113.956 E5.35284
G1 X99.441 Y126.219 E5.79852
G1 X100.15 Y128.382 E5.88123
G1 X101.445 Y129.48 E5.94295
G1 X103.097 Y129.875 E6.00468
G1 X113.023 Y129.875 E6.36542
G1 X114.161 Y129.693 E6.40729
G1 X115.608 Y128.804 E6.46902
G1 X118.029 Y126.38 E6.59354
G1 X121.976 Y122.154 E6.80368
G1 X132.261 Y109.898 E7.38518
G1 X133.108 Y107.786 E7.46788
G1 X132.822 Y106.112 E7.52961
G1 X131.81 Y104.748 E7.59133
G1 X118.787 Y93.82 E8.20917
G1 X116.675 Y92.973 E8.29188
G1 X115.001 Y93.259 E8.3536
G1 X113.637 Y94.271 E8.41532
G1 X104.198 Y105.52 E8.94901
G1 X104.533 Y105.801 F9000
G1 F1200
G1 X103.687 Y106.808 E8.99682
G1 X100.339 Y112.297 E9.23047
G1 X99.878 Y113.956 E9.29306
G1 X99.878 Y126.219 E9.73874
G1 X100.389 Y127.959 E9.80463
G1 X101.554 Y129.044 E9.8625
G1 X103.097 Y129.438 E9.92036
G1 X113.023 Y129.438 E10.2811
G1 X113.929 Y129.307 E10.31439
G1 X115.299 Y128.495 E10.37225
G1 X117.71 Y126.081 E10.49625
G1 X121.641 Y121.873 E10.70553
G1 X131.926 Y109.617 E11.28702
G1 X132.653 Y107.956 E11.35292
G1 X132.458 Y106.376 E11.41078
G1 X131.529 Y105.082 E11.46864
G1 X118.506 Y94.155 E12.08648
G1 X116.845 Y93.428 E12.15238
G1 X115.265 Y93.623 E12.21024
G1 X113.972 Y94.552 E12.2681
G1 X104.571 Y105.755 E12.79961
G92 E0
G1 E-3.5 F3600
;WIPE_START
G1 F7200
G1 X103.687 Y106.808 E-4.15329
G1 X102.841 Y108.195 E-4.925
;WIPE_END
G1 E-5 F3600
; printing object pegboardfeelergauge.stl id:0 copy 0
; acceleration to travel
M204 S1500
G1 X107.846 Y109.624 F9000
; decel to extrusion
M204 S500
G1 X108.492 Y109.809
; end travel
G1 E0 F2400
;TYPE:Internal perimeter
;WIDTH:0.464
G1 X108.376 Y109.947 E0.00633
G1 X107.011 Y108.802 E0.06872
G1 X116.513 Y97.479 E0.58628
G1 X117.878 Y98.624 E0.64867
G1 X108.531 Y109.763 E1.15779
G92 E0
G1 E-3.5 F3600
;WIPE_START
G1 F7200
G1 X108.376 Y109.947 E-3.61444
G1 X107.011 Y108.802 E-4.46081
G1 X107.639 Y108.054 E-4.925
;WIPE_END
G1 E-5 F3600
; acceleration to travel
M204 S1500
G1 X116.683 Y116.563 F9000
; decel to extrusion
M204 S500
G1 X117.852 Y117.663
; end travel
G1 E0 F2400
G1 X127.237 Y106.478 E0.51122
G1 X128.602 Y107.623 E0.57361
G1 X119.101 Y118.946 E1.09116
G1 X117.736 Y117.801 E1.15355
G1 X117.813 Y117.709 E1.15779
G1 X117.546 Y117.406 F9000
;TYPE:External perimeter
;WIDTH:0.42
G1 F1500
G1 X126.815 Y106.36 E1.60991
G1 X118.067 Y99.019 E1.96798
G1 X108.798 Y110.065 E2.42011
G1 X117.5 Y117.367 E2.77629
;WIPE_START
G1 X117.853 Y117.663 F9000
;WIPE_END
G92 E0
G1 E-3.5 F3600
;WIPE_START
G1 F7200
G1 X119.749 Y115.339 E-4.925
;WIPE_END
G1 E-5 F3600
; acceleration to travel
M204 S1500
G1 X119.216 Y119.051 F9000
; decel to extrusion
M204 S500
G1 X119.15 Y119.509
; end travel
G1 E0 F2400
G1 F1500
G1 X106.449 Y108.851 E0.51985
G1 X116.463 Y96.916 E1.00835
G1 X129.164 Y107.574 E1.52821
G1 X119.188 Y119.463 E2.01483
;WIPE_START
G1 X119.013 Y119.133 F9000
;WIPE_END
G1 X118.617 Y118.376
;TYPE:Solid infill
;WIDTH:0.493942
G1 F2400
G1 X122.106 Y114.886 E2.19877
G1 X125.212 Y111.185 E2.37884
G1 X118.422 Y117.975 E2.73677
G1 X118.169 Y117.763 E2.74908
G1 X118.849 Y116.953 E2.78851
G1 X128.154 Y107.648 E3.27899
G1 X127.83 Y107.376 E3.29474
G1 X121.954 Y113.252 E3.60446
G1 X125.06 Y109.551 E3.78453
G1 X127.635 Y106.976 E3.92026
G92 E0
G1 E-3.5 F3600
;WIPE_START
G1 F7200
G1 X125.513 Y109.097 E-4.925
;WIPE_END
G1 E-5 F3600
G1 X126.729 Y109.457 F9000
G1 E0 F2400
;TYPE:Gap fill
;WIDTH:0.13892
G1 F1800
G1 X126.696 Y109.492 E0.00038
G1 X126.44 Y109.771 E0.00341
;WIDTH:0.180249
G1 X126.184 Y110.051 E0.00774
;WIDTH:0.221578
G1 X125.928 Y110.33 E0.01337
;WIDTH:0.262907
G1 X125.672 Y110.61 E0.0203
;WIDTH:0.315893
G1 X125.416 Y110.889 E0.0289
G1 X125.372 Y110.937 E0.03038
G1 X125.328 Y110.985 E0.03187
G92 E0
G1 E-3.5 F3600
;WIPE_START
G1 F7200
G1 X125.372 Y110.937 E-3.53103
G1 X125.416 Y110.889 E-3.56206
G1 X125.672 Y110.61 E-3.74208
;WIPE_END
G1 E-5 F3600
; acceleration to travel
M204 S1500
G1 X122.264 Y113.136 F9000
; decel to extrusion
M204 S500
G1 X121.838 Y113.452
; end travel
G1 E0 F2400
;WIDTH:0.315896
G1 F1800
G1 X121.75 Y113.548 E0.00297
G1 X121.494 Y113.827 E0.01157
;WIDTH:0.262907
G1 X121.238 Y114.107 E0.0185
;WIDTH:0.221578
G1 X120.982 Y114.386 E0.02413
;WIDTH:0.180249
G1 X120.726 Y114.666 E0.02846
;WIDTH:0.13892
G1 X120.47 Y114.945 E0.03148
G1 X120.437 Y114.98 E0.03187
G1 X120.518 Y116.859 F9000
G1 F1800
G1 X120.485 Y116.894 E0.03225
G1 X120.2 Y117.206 E0.03562
;WIDTH:0.185019
G1 X119.914 Y117.517 E0.04062
;WIDTH:0.231118
G1 X119.629 Y117.829 E0.04723
;WIDTH:0.277217
G1 X119.343 Y118.141 E0.05547
;WIDTH:0.33741
G1 X119.057 Y118.452 E0.06582
G1 X119.011 Y118.505 E0.06754
G1 X118.965 Y118.558 E0.06926
G92 E0
G1 E-3.5 F3600
;WIPE_START
G1 F7200
G1 X119.011 Y118.505 E-3.5333
G1 X119.057 Y118.452 E-3.5666
G1 X119.343 Y118.141 E-3.76741
;WIPE_END
G1 E-5 F3600
; acceleration to travel
M204 S1500
G1 X126.298 Y107.595 F9000
; decel to extrusion
M204 S500
G1 X127.167 Y106.277
; end travel
G1 E0 F2400
;WIDTH:0.279248
G1 F1800
G1 X127.122 Y106.239 E0.00116
G1 X127.077 Y106.201 E0.00232
G1 X118.178 Y98.734 E0.23059
G1 X118.088 Y98.658 E0.23291
G1 X116.91 Y97.977 F9000
;TYPE:Solid infill
;WIDTH:0.493942
G1 F2400
G1 X114.335 Y100.552 E0.36864
G1 X111.229 Y104.253 E0.54871
G1 X117.105 Y98.377 E0.85843
G1 X117.429 Y98.649 E0.87418
G1 X108.124 Y107.954 E1.36466
G1 X107.444 Y108.764 E1.40409
G1 X107.697 Y108.976 E1.4164
G1 X114.487 Y102.186 E1.77433
G1 X111.382 Y105.887 E1.9544
G1 X107.892 Y109.377 E2.13834
G1 X108.241 Y109.559 F9000
;TYPE:Gap fill
;WIDTH:0.337413
G1 F1800
G1 X108.287 Y109.506 E2.14006
G1 X108.333 Y109.453 E2.14178
G1 X108.618 Y109.142 E2.15213
;WIDTH:0.277219
G1 X108.904 Y108.83 E2.16036
;WIDTH:0.231119
G1 X109.19 Y108.518 E2.16698
;WIDTH:0.18502
G1 X109.475 Y108.207 E2.17197
;WIDTH:0.13892
G1 X109.761 Y107.895 E2.17535
G1 X109.793 Y107.86 E2.17573
G1 X109.713 Y105.981 F9000
G1 F1800
G1 X109.745 Y105.946 E2.17611
G1 X110.001 Y105.667 E2.17914
;WIDTH:0.180249
G1 X110.257 Y105.387 E2.18347
;WIDTH:0.221578
G1 X110.513 Y105.108 E2.1891
;WIDTH:0.262907
G1 X110.769 Y104.828 E2.19603
;WIDTH:0.315893
G1 X111.025 Y104.549 E2.20463
G1 X111.069 Y104.501 E2.20611
G1 X111.114 Y104.453 E2.2076
G92 E0
G1 E-3.5 F3600
;WIPE_START
G1 F7200
G1 X111.069 Y104.501 E-3.53103
G1 X111.025 Y104.549 E-3.56206
G1 X110.769 Y104.828 E-3.74208
;WIPE_END
G1 E-5 F3600
; acceleration to travel
M204 S1500
G1 X114.177 Y102.302 F9000
; decel to extrusion
M204 S500
G1 X114.603 Y101.986
; end travel
G1 E0 F2400
;WIDTH:0.315897
G1 F1800
G1 X114.692 Y101.89 E0.00297
G1 X114.948 Y101.611 E0.01157
;WIDTH:0.262907
G1 X115.204 Y101.331 E0.0185
;WIDTH:0.221578
