; generated by SuperSlicer 2.4 on 2023-03-03 at 18:01:43 UTC


;
;

;
;
; 

; external perimeters extrusion width = 0.42mm
; perimeters extrusion width = 0.46mm
; infill extrusion width = 0.44mm
; solid infill extrusion width = 0.46mm
; top infill extrusion width = 0.44mm
; first layer extrusion width = 0.56mm

; object:{"name":"pegboard","id":"pegboard.xacto.double.stl id:0 copy 0","object_center":[115.500000,115.500000,0.000000],"boundingbox_center":[115.500000,115.500000,25.424972],"boundingbox_size":[27.002007,37.165161,50.849943]}
; plater:{"center":[115.500000,115.500000,0.000000],"boundingbox_center":[115.500000,115.500000,25.424972],"boundingbox_size":[27.002007,37.165161,50.849943]}

;TYPE:Custom
START_PRINT
M107
G21 ; set units to millimeters
G90 ; use absolute coordinates
M82 ; use absolute distances for extrusion
G92 E0
; Filament gcode
;_TOOLCHANGE 0
M104 S210 ; set temperature
M109 S210 ; set temperature and wait for it to be reached
M190 S60 ; set bed temperature and wait for it to be reached
M107
;LAYER_CHANGE
;Z:0.2
;HEIGHT:0.2
;BEFORE_LAYER_CHANGE
;0.2


G1 E-5 F3600
G1 Z0.2 F9000
;AFTER_LAYER_CHANGE
;0.2
G92 E0
M204 S500
G1 X102.926 Y107.659
G1 E5 F2400
;TYPE:Skirt
;WIDTH:0.48
G1 F1200
G1 X102.432 Y108.62 E5.03925
G1 X98.93 Y119.684 E5.46104
G1 X98.78 Y120.658 E5.49684
G1 X98.791 Y132.947 E5.94347
G1 X99.133 Y134.389 E5.99731
G1 X100.263 Y135.651 E6.05889
G1 X102.094 Y136.223 E6.1286
G1 X128.841 Y136.225 E7.10068
G1 X130.207 Y135.925 E7.15151
G1 X131.813 Y134.49 E7.22978
G1 X132.208 Y132.948 E7.28764
G1 X132.218 Y120.65 E7.73459
G1 X132.154 Y120.01 E7.75796
G1 X128.458 Y108.59 E8.19418
G1 X128.188 Y107.975 E8.21861
G1 X127.038 Y106.723 E8.28037
G1 X125.522 Y106.237 E8.33823
G1 X120.532 Y106.222 E8.51959
G1 X105.609 Y106.226 E9.06193
G1 X104.277 Y106.515 E9.11149
G1 X102.972 Y107.621 E9.17364
G92 E0
G1 E-3.5 F3600
;WIPE_START
G1 F7200
G1 X102.432 Y108.62 E-4.03939
G1 X101.87 Y110.397 E-4.925
;WIPE_END
G1 E-5 F3600
; printing object pegboard.xacto.double.stl id:0 copy 0
; acceleration to travel
M204 S1500
G1 X105.924 Y110.43 F9000
; decel to extrusion
M204 S500
G1 X106.42 Y110.434
; end travel
G1 E0 F2400
;TYPE:Internal perimeter
;WIDTH:0.564
G1 F1200
G1 X109.581 Y110.431 E0.13696
G1 X109.58 Y111.481 E0.18248
G1 X109.555 Y112.609 E0.23134
G1 X109.521 Y113.056 E0.25079
G1 X109.468 Y114.648 E0.31977
G1 X109.175 Y116.952 E0.42044
G1 X109.146 Y117.028 E0.42395
G1 X108.996 Y118.04 E0.46826
G1 X109.301 Y118.671 E0.49863
G1 X109.481 Y118.792 E0.50804
G1 X109.721 Y119.056 E0.52351
G1 X109.787 Y119.099 E0.5269
G1 X110.01 Y119.341 E0.54114
G1 X110.097 Y119.404 E0.54583
G1 X110.633 Y119.941 E0.57868
G1 X110.682 Y120.017 E0.58262
G1 X111.407 Y120.715 E0.6262
G1 X111.444 Y120.774 E0.62922
G1 X111.733 Y121.064 E0.64697
G1 X112.25 Y121.39 E0.67345
G1 X112.827 Y121.414 E0.69847
G1 X118.273 Y121.413 E0.93447
G1 X118.735 Y121.369 E0.95456
G1 X119.17 Y121.042 E0.97813
G1 X120.153 Y120.056 E1.03847
G1 X120.372 Y119.895 E1.05026
G1 X120.464 Y119.741 E1.058
G1 X120.616 Y119.591 E1.06725
G1 X120.825 Y119.442 E1.0784
G1 X120.925 Y119.278 E1.08672
G1 X121.223 Y118.982 E1.10492
G1 X121.48 Y118.801 E1.11853
G1 X121.568 Y118.767 E1.12263
G1 X121.892 Y118.051 E1.15665
G1 X121.84 Y117.546 E1.17865
G1 X121.727 Y116.996 E1.20301
G1 X121.637 Y116.155 E1.23964
G1 X121.606 Y116.069 E1.2436
G1 X121.442 Y114.757 E1.30089
G1 X121.36 Y112.522 E1.39777
G1 X121.335 Y112.436 E1.40166
G1 X121.318 Y111.929 E1.42367
G1 X121.319 Y110.423 E1.48892
G1 X124.465 Y110.423 E1.62525
G1 X124.471 Y111.942 E1.69104
G1 X124.368 Y114.635 E1.80784
G1 X124.329 Y114.818 E1.81592
G1 X124.302 Y115.178 E1.83159
G1 X124.25 Y115.594 E1.84974
G1 X124.221 Y115.683 E1.85379
G1 X124.075 Y116.958 E1.9094
G1 X124.05 Y117.018 E1.91222
G1 X123.897 Y118.018 E1.95603
G1 X124.156 Y118.578 E1.98276
G1 X126.804 Y121.212 E2.14459
G1 X127.299 Y121.406 E2.16761
G1 X128.087 Y121.412 E2.20175
G1 X128.08 Y132.075 E2.66375
G1 X126.49 Y132.075 E2.73261
G1 X126.49 Y124.633 E3.05506
G1 X126.474 Y124.299 E3.06952
G1 X126.429 Y124.195 E3.07444
G1 X126.406 Y123.905 E3.08704
G1 X125.856 Y123.372 E3.12019
G1 X125.103 Y123.341 E3.15286
G1 X105.759 Y123.341 E3.99099
G1 X105.374 Y123.346 E4.00767
G1 X104.609 Y123.743 E4.04504
G1 X104.516 Y124.44 E4.07547
G1 X104.515 Y132.075 E4.40628
G1 X102.93 Y132.079 E4.47496
G1 X102.936 Y121.407 E4.93736
G1 X103.765 Y121.406 E4.97328
G1 X104.236 Y121.076 E4.99821
G1 X105.104 Y120.203 E5.05152
G1 X105.207 Y120.142 E5.05672
G1 X105.435 Y119.882 E5.07171
G1 X105.511 Y119.838 E5.0755
G1 X105.728 Y119.591 E5.08975
G1 X105.774 Y119.567 E5.09198
G1 X106.127 Y119.219 E5.11347
G1 X106.168 Y119.138 E5.11742
G1 X106.481 Y118.824 E5.13661
G1 X106.699 Y118.704 E5.1474
G1 X107 Y118.019 E5.17981
G1 X106.855 Y117.079 E5.22104
G1 X106.826 Y116.98 E5.2255
G1 X106.783 Y116.564 E5.2436
G1 X106.639 Y115.577 E5.28685
G1 X106.544 Y114.584 E5.33004
G1 X106.528 Y114.549 E5.33173
G1 X106.423 Y111.927 E5.44541
G1 X106.42 Y110.494 E5.5075
G1 X105.897 Y109.914 F9000
;TYPE:External perimeter
G1 F1200
G1 X110.102 Y109.909 E5.68969
G1 X110.101 Y111.487 E5.75806
G1 X110.076 Y112.634 E5.80778
G1 X110.041 Y113.085 E5.82736
G1 X109.988 Y114.689 E5.89691
G1 X109.684 Y117.081 E6.00138
G1 X109.653 Y117.162 E6.00513
G1 X109.535 Y117.957 E6.03997
G1 X109.709 Y118.317 E6.05727
G1 X109.825 Y118.395 E6.06332
G1 X110.063 Y118.657 E6.07867
G1 X110.126 Y118.699 E6.08196
G1 X110.357 Y118.949 E6.09669
G1 X110.436 Y119.006 E6.10094
G1 X111.04 Y119.612 E6.138
G1 X111.087 Y119.683 E6.1417
G1 X111.814 Y120.384 E6.18547
G1 X111.854 Y120.448 E6.18872
G1 X112.061 Y120.655 E6.20139
G1 X112.41 Y120.875 E6.2193
G1 X112.837 Y120.893 E6.23781
G1 X118.248 Y120.892 E6.47227
G1 X118.539 Y120.864 E6.48494
G1 X118.827 Y120.648 E6.50054
G1 X119.812 Y119.659 E6.56101
G1 X119.978 Y119.537 E6.56994
G1 X120.05 Y119.417 E6.576
G1 X120.28 Y119.191 E6.58999
G1 X120.436 Y119.08 E6.59825
G1 X120.512 Y118.953 E6.60468
G1 X120.887 Y118.582 E6.62754
G1 X121.082 Y118.444 E6.63788
G1 X121.098 Y118.39 E6.64033
G1 X121.181 Y118.358 E6.64418
G1 X121.359 Y117.965 E6.66288
G1 X121.324 Y117.626 E6.67763
G1 X121.211 Y117.076 E6.70194
G1 X121.125 Y116.271 E6.73705
G1 X121.096 Y116.189 E6.74079
G1 X120.922 Y114.799 E6.8015
G1 X120.841 Y112.605 E6.89662
G1 X120.816 Y112.518 E6.90056
G1 X120.797 Y111.937 E6.92574
G1 X120.798 Y109.901 E7.01393
G1 X124.984 Y109.902 E7.19532
G1 X124.992 Y111.951 E7.28407
G1 X124.887 Y114.7 E7.40331
G1 X124.846 Y114.892 E7.4118
G1 X124.821 Y115.23 E7.42648
G1 X124.761 Y115.71 E7.44743
G1 X124.732 Y115.796 E7.45135
G1 X124.584 Y117.088 E7.50771
G1 X124.556 Y117.157 E7.51096
G1 X124.436 Y117.941 E7.54532
G1 X124.59 Y118.274 E7.5612
G1 X127.094 Y120.766 E7.71429
G1 X127.399 Y120.885 E7.72845
G1 X128.608 Y120.895 E7.78084
G1 X128.6 Y132.596 E8.28781
G1 X125.969 Y132.596 E8.40182
G1 X125.969 Y124.646 E8.74628
G1 X125.958 Y124.417 E8.75618
G1 X125.917 Y124.321 E8.76073
G1 X125.902 Y124.143 E8.76847
G1 X125.636 Y123.885 E8.78452
G1 X125.092 Y123.862 E8.80812
G1 X105.762 Y123.862 E9.64563
G1 X105.504 Y123.866 E9.65682
G1 X105.089 Y124.081 E9.67707
G1 X105.037 Y124.474 E9.69425
G1 X105.036 Y132.594 E10.04608
G1 X102.408 Y132.602 E10.15993
G1 X102.416 Y120.887 E10.66752
G1 X103.6 Y120.885 E10.71885
G1 X103.899 Y120.676 E10.73467
G1 X104.78 Y119.789 E10.78883
G1 X104.87 Y119.736 E10.79333
G1 X105.101 Y119.474 E10.80847
G1 X105.176 Y119.43 E10.81225
G1 X105.401 Y119.174 E10.82701
G1 X105.463 Y119.141 E10.83007
G1 X105.7 Y118.908 E10.84449
G1 X105.74 Y118.829 E10.84833
G1 X106.164 Y118.403 E10.87433
G1 X106.293 Y118.332 E10.88071
G1 X106.462 Y117.948 E10.8989
G1 X106.345 Y117.193 E10.93201
G1 X106.312 Y117.081 E10.93705
G1 X106.266 Y116.629 E10.95676
G1 X106.121 Y115.639 E11.0001
G1 X106.034 Y114.722 E11.03999
G1 X106.011 Y114.674 E11.04233
G1 X105.902 Y111.938 E11.16094
G1 X105.897 Y109.974 E11.24606
;WIPE_START
G1 X106.244 Y110.113 F9000
;WIPE_END
G92 E0
G1 E-3.5 F3600
;WIPE_START
G1 F7200
G1 X109.244 Y110.11 E-4.925
;WIPE_END
G1 E-5 F3600
; acceleration to travel
M204 S1500
G1 X121.73 Y110.528 F9000
; decel to extrusion
M204 S500
G1 X123.256 Y110.579
; end travel
G1 E0 F2400
;TYPE:Solid infill
;WIDTH:0.540062
G1 F1200
G1 X124.089 Y111.412 E0.04887
G1 X124.091 Y111.935 E0.07057
G1 X124.083 Y112.143 E0.07921
G1 X122.743 Y110.803 E0.15783
G1 X122.006 Y110.803 E0.18841
G1 X124.056 Y112.853 E0.30868
G1 X124.029 Y113.563 E0.33815
G1 X121.699 Y111.233 E0.47485
G1 X121.699 Y111.92 E0.50337
G1 X121.701 Y111.972 E0.50551
G1 X124.002 Y114.272 E0.6405
G1 X123.989 Y114.604 E0.65427
G1 X123.945 Y114.953 E0.66884
G1 X121.735 Y112.742 E0.79852
G1 X121.768 Y113.513 E0.83053
G1 X123.862 Y115.607 E0.95337
G1 X123.779 Y116.261 E0.98073
G1 X121.802 Y114.284 E1.09674
G1 X121.821 Y114.723 E1.11497
G1 X121.872 Y115.09 E1.13035
G1 X123.696 Y116.915 E1.23741
G1 X123.591 Y117.546 E1.26397
G1 X121.988 Y115.944 E1.35799
G1 X122.105 Y116.797 E1.39373
G1 X127.706 Y122.398 E1.72236
G1 X127.705 Y123.134 E1.75291
G1 X122.221 Y117.651 E2.07468
G1 X122.284 Y118.109 E2.09386
G1 X122.177 Y118.343 E2.10456
G1 X127.705 Y123.871 E2.42888
G1 X127.704 Y124.607 E2.45943
G1 X121.947 Y118.85 E2.79721
G1 X121.867 Y119.028 E2.80531
G1 X121.572 Y119.212 E2.81971
G1 X125.33 Y122.97 E3.04018
G1 X126.017 Y122.998 E3.06871
G1 X126.773 Y123.731 E3.11241
G1 X126.803 Y124.103 E3.12787
G1 X126.854 Y124.222 E3.13323
G1 X126.854 Y124.495 E3.14455
G1 X127.704 Y125.344 E3.19438
G1 X127.703 Y126.08 E3.22493
G1 X126.856 Y125.233 E3.27464
G1 X126.858 Y125.972 E3.30528
G1 X127.703 Y126.817 E3.35487
G1 X127.702 Y127.553 E3.38542
G1 X126.859 Y126.71 E3.43489
G1 X126.861 Y127.449 E3.46553
G1 X127.702 Y128.29 E3.51487
G1 X127.701 Y129.026 E3.54542
G1 X126.862 Y128.187 E3.59465
G1 X126.864 Y128.926 E3.62529
G1 X127.701 Y129.762 E3.67439
G1 X127.7 Y130.499 E3.70495
G1 X126.866 Y129.664 E3.75393
G1 X126.867 Y130.403 E3.78457
G1 X127.7 Y131.235 E3.83343
G1 X127.7 Y131.694 E3.85247
G1 X127.422 Y131.694 E3.86399
G1 X126.644 Y130.917 E3.90962
G92 E0
G1 E-3.5 F3600
;WIPE_START
G1 F7200
G1 X127.422 Y131.694 E-4.02241
G1 X127.7 Y131.694 E-4.15433
G1 X127.7 Y131.235 E-4.3723
G1 X126.877 Y130.413 E-4.925
;WIPE_END
G1 E-5 F3600
; acceleration to travel
M204 S1500
G1 X125.033 Y123.972 F9000
; decel to extrusion
M204 S500
G1 X124.808 Y123.185
; end travel
G1 E0 F2400
G1 F1200
G1 X121.193 Y119.57 E0.21211
G1 X121.11 Y119.707 E0.21874
G1 X120.861 Y119.884 E0.23143
G1 X120.815 Y119.929 E0.2341
G1 X123.847 Y122.961 E0.41199
G1 X123.11 Y122.961 E0.44256
G1 X120.455 Y120.306 E0.59834
G1 X120.402 Y120.345 E0.60108
G1 X120.08 Y120.668 E0.61999
G1 X122.373 Y122.961 E0.75453
G1 X121.636 Y122.961 E0.7851
G1 X119.712 Y121.037 E0.89798
G1 X119.42 Y121.33 E0.91515
G1 X119.334 Y121.395 E0.91964
G1 X120.899 Y122.961 E1.0115
G1 X120.162 Y122.961 E1.04208
G1 X118.913 Y121.711 E1.1154
G1 X118.878 Y121.737 E1.11721
G1 X118.291 Y121.794 E1.14167
G1 X118.258 Y121.793 E1.14303
G1 X119.425 Y122.961 E1.21153
G1 X118.688 Y122.961 E1.2421
G1 X117.518 Y121.791 E1.31076
G1 X116.779 Y121.788 E1.34145
G1 X117.952 Y122.961 E1.41028
G1 X117.215 Y122.961 E1.44085
G1 X116.039 Y121.785 E1.50984
G1 X115.299 Y121.782 E1.54053
G1 X116.478 Y122.961 E1.60968
G1 X115.741 Y122.961 E1.64025
G1 X114.56 Y121.779 E1.70956
G1 X113.82 Y121.777 E1.74025
G1 X115.004 Y122.961 E1.80973
G1 X114.267 Y122.961 E1.8403
G1 X112.855 Y121.549 E1.92314
G92 E0
G1 E-3.5 F3600
;WIPE_START
G1 F7200
G1 X114.267 Y122.961 E-4.44837
G1 X115.004 Y122.961 E-4.7984
G1 X114.815 Y122.772 E-4.925
;WIPE_END
G1 E-5 F3600
; acceleration to travel
M204 S1500
G1 X110 Y112.704 F9000
; decel to extrusion
M204 S500
G1 X109.412 Y111.474
; end travel
G1 E0 F2400
G1 F1200
G1 X108.75 Y110.812 E0.03882
G1 X108.014 Y110.813 E0.06936
G1 X109.182 Y111.981 E0.13788
G1 X109.175 Y112.598 E0.16351
G1 X109.17 Y112.706 E0.16797
G1 X107.278 Y110.814 E0.27898
G1 X106.801 Y110.814 E0.2988
G1 X106.801 Y111.074 E0.30956
G1 X109.14 Y113.412 E0.44678
G1 X109.11 Y114.119 E0.47613
G1 X106.803 Y111.812 E0.61148
G1 X106.803 Y111.919 E0.61593
G1 X106.829 Y112.575 E0.64318
G1 X109.064 Y114.81 E0.77428
G1 X108.981 Y115.464 E0.80163
G1 X106.86 Y113.343 E0.92606
G1 X106.891 Y114.111 E0.95793
G1 X108.898 Y116.118 E1.07569
G1 X108.815 Y116.772 E1.10304
G1 X106.955 Y114.912 E1.21213
G1 X107.058 Y115.752 E1.24724
G1 X108.91 Y117.603 E1.35586
G92 E0
G1 E-3.5 F3600
;WIPE_START
G1 F7200
G1 X107.058 Y115.752 E-4.74355
G1 X107.012 Y115.373 E-4.925
;WIPE_END
G1 E-5 F3600
G1 X106.904 Y116.335 F9000
G1 E0 F2400
G1 F1200
G1 X108.61 Y118.041 E0.10012
G1 X108.601 Y118.097 E0.10245
G1 X109.003 Y118.929 E0.1408
G1 X109.238 Y119.087 E0.15252
G1 X111.493 Y121.362 E0.28545
G1 X112.139 Y121.77 E0.31715
G1 X112.34 Y121.771 E0.3255
G1 X113.53 Y122.961 E0.39531
G1 X112.793 Y122.961 E0.42588
G1 X107.292 Y117.46 E0.74866
G1 X107.394 Y118.068 E0.77426
G1 X107.324 Y118.228 E0.78152
G1 X112.056 Y122.961 E1.0592
G1 X111.319 Y122.961 E1.08977
G1 X107.098 Y118.74 E1.33744
G1 X106.995 Y118.975 E1.34809
G1 X106.738 Y119.116 E1.36026
G1 X110.582 Y122.961 E1.58583
G1 X109.846 Y122.961 E1.61641
G1 X106.372 Y119.488 E1.8202
G1 X106.012 Y119.864 E1.84182
G1 X109.109 Y122.961 E2.0235
G1 X108.372 Y122.961 E2.05408
G1 X105.647 Y120.236 E2.21394
G1 X105.273 Y120.599 E2.23557
G1 X107.635 Y122.961 E2.37413
G1 X106.898 Y122.961 E2.40471
G1 X104.899 Y120.962 E2.52198
G1 X104.525 Y121.325 E2.5436
G1 X106.161 Y122.961 E2.63957
G1 X105.757 Y122.961 E2.65635
G1 X105.428 Y122.965 E2.66997
G1 X104.099 Y121.636 E2.74794
G1 X103.886 Y121.786 E2.75877
G1 X103.513 Y121.787 E2.77423
G1 X104.893 Y123.167 E2.85521
G1 X104.408 Y123.419 E2.87789
G1 X103.316 Y122.327 E2.94196
G1 X103.316 Y123.063 E2.97251
G1 X104.198 Y123.946 E3.02429
G1 X104.136 Y124.414 E3.04391
G1 X104.136 Y124.62 E3.05246
G1 X103.315 Y123.8 E3.10061
G1 X103.315 Y124.536 E3.13117
G1 X104.136 Y125.357 E3.17935
G1 X104.136 Y126.094 E3.20991
G1 X103.314 Y125.273 E3.25811
G1 X103.314 Y126.009 E3.28866
G1 X104.136 Y126.831 E3.33688
G1 X104.135 Y127.568 E3.36744
G1 X103.313 Y126.746 E3.41568
G1 X103.313 Y127.482 E3.44623
G1 X104.135 Y128.304 E3.49448
G1 X104.135 Y129.041 E3.52505
G1 X103.312 Y128.218 E3.57332
G1 X103.312 Y128.955 E3.60387
G1 X104.135 Y129.778 E3.65216
G1 X104.135 Y130.515 E3.68272
G1 X103.312 Y129.691 E3.73103
G1 X103.311 Y130.428 E3.76158
G1 X104.135 Y131.251 E3.80991
G1 X104.135 Y131.695 E3.82833
G1 X103.843 Y131.696 E3.84044
G1 X103.087 Y130.94 E3.88479
M106 S84.15
;LAYER_CHANGE
;Z:0.4
;HEIGHT:0.2
;BEFORE_LAYER_CHANGE
;0.4


G92 E0
G1 E-3.5 F3600
;WIPE_START
G1 F7200
G1 X103.843 Y131.696 E-4.0078
G1 X104.135 Y131.695 E-4.14647
G1 X104.135 Y131.251 E-4.35738
G1 X103.311 Y130.428 E-4.91061
G1 X103.311 Y130.398 E-4.925
;WIPE_END
G1 E-5 F3600
; stop printing object pegboard.xacto.double.stl id:0 copy 0
G1 Z0.4 F9000
;AFTER_LAYER_CHANGE
;0.4
M104 S205 ; set temperature
G92 E0
; acceleration to travel
M204 S1500
G1 X99.281 Y130.401
; decel to extrusion
M204 S500
G1 X98.789 Y130.401
; end travel
G1 E5 F2400
;TYPE:Skirt
;WIDTH:0.48
G1 F1200
G1 X98.791 Y132.947 E5.09253
G1 X99.133 Y134.389 E5.14637
G1 X100.263 Y135.651 E5.20795
G1 X102.094 Y136.223 E5.27765
G1 X128.841 Y136.225 E6.24973
G1 X130.207 Y135.925 E6.30056
G1 X131.813 Y134.49 E6.37883
G1 X132.208 Y132.948 E6.4367
G1 X132.218 Y120.65 E6.88364
G1 X132.154 Y120.01 E6.90702
G1 X128.458 Y108.59 E7.34324
G1 X128.188 Y107.975 E7.36767
G1 X127.038 Y106.723 E7.42943
G1 X125.522 Y106.237 E7.48729
G1 X120.532 Y106.222 E7.66864
G1 X105.609 Y106.226 E8.21099
G1 X104.277 Y106.515 E8.26054
G1 X102.926 Y107.659 E8.32487
G1 X102.432 Y108.62 E8.36412
G1 X98.93 Y119.684 E8.78591
G1 X98.78 Y120.658 E8.82172
G1 X98.788 Y130.341 E9.17364
G92 E0
G1 E-3.5 F3600
;WIPE_START
G1 F7200
G1 X98.791 Y132.947 E-4.73783
G1 X98.882 Y133.331 E-4.925
;WIPE_END
G1 E-5 F3600
; printing object pegboard.xacto.double.stl id:0 copy 0
; acceleration to travel
M204 S1500
G1 X102.19 Y132.503 F9000
; decel to extrusion
M204 S500
G1 X102.618 Y132.396
; end travel
G1 E0 F2400
;TYPE:Internal perimeter
;WIDTH:0.464
G1 X102.608 Y121.103 E0.3954
G1 X103.64 Y121.1 E0.43153
