; generated by SuperSlicer 2.4 on 2023-09-09 at 19:51:39 UTC


;
;

;
;
; 

; external perimeters extrusion width = 0.45mm
; perimeters extrusion width = 0.45mm
; infill extrusion width = 0.45mm
; solid infill extrusion width = 0.45mm
; top infill extrusion width = 0.40mm
; first layer extrusion width = 0.42mm

; object:{"name":"disc_hanger","id":"disc_hanger.stl id:0 copy 0","object_center":[-0.267406,-7.523839,0.000000],"boundingbox_center":[-0.267406,-7.523839,5.334000],"boundingbox_size":[75.536407,51.152721,10.668000]}
; plater:{"center":[-0.267406,-7.523839,0.000000],"boundingbox_center":[-0.267406,-7.523839,5.334000],"boundingbox_size":[75.536407,51.152721,10.668000]}

;TYPE:Custom
START_PRINT
M107
G21 ; set units to millimeters
G90 ; use absolute coordinates
M83 ; use relative distances for extrusion
; Filament gcode
;_TOOLCHANGE 0
M104 S200 ; set temperature
M109 S200 ; set temperature and wait for it to be reached
M190 S60 ; set bed temperature and wait for it to be reached
M107
;LAYER_CHANGE
;Z:0.2
;HEIGHT:0.2
;BEFORE_LAYER_CHANGE
G92 E0
;0.2
G1 E-5 F3600
G1 Z0.2 F10800
;AFTER_LAYER_CHANGE
;0.2
M204 S1000
G1 X0.041 Y22.201
G1 E5 F2400
;TYPE:Skirt
;WIDTH:0.52
G1 F1200
G1 X1.345 Y22.198 E0.05174
G1 X4.3 Y22.07 E0.1173
G1 X7.246 Y21.819 E0.1173
G1 X10.179 Y21.447 E0.1173
G1 X13.095 Y20.953 E0.1173
G1 X15.988 Y20.338 E0.11733
G1 X18.652 Y19.659 E0.10906
G1 X21.487 Y18.815 E0.11735
G1 X24.283 Y17.854 E0.1173
G1 X27.037 Y16.778 E0.1173
G1 X29.745 Y15.588 E0.1173
G1 X32.427 Y14.273 E0.11851
G1 X35.027 Y12.862 E0.11734
G1 X37.565 Y11.345 E0.1173
G1 X38.581 Y10.606 E0.04983
G1 X39.411 Y9.813 E0.04553
G1 X40.442 Y8.427 E0.06854
G1 X40.718 Y7.928 E0.02265
G1 X41.339 Y6.331 E0.06796
G1 X41.627 Y4.646 E0.06779
G1 X41.657 Y1.813 E0.11242
G1 X41.594 Y0.834 E0.0389
G1 X41.296 Y-0.619 E0.05886
G1 X40.953 Y-1.563 E0.03984
G1 X40.38 Y-2.674 E0.04959
G1 X22.333 Y-30.907 E1.32923
G1 X21.624 Y-31.958 E0.05031
G1 X20.551 Y-33.286 E0.06773
G1 X19.347 Y-34.497 E0.06773
G1 X18.026 Y-35.578 E0.06773
G1 X16.6 Y-36.518 E0.06773
G1 X15.086 Y-37.307 E0.06773
G1 X13.498 Y-37.936 E0.06773
G1 X11.855 Y-38.399 E0.06773
G1 X10.173 Y-38.69 E0.06773
G1 X8.469 Y-38.808 E0.06773
G1 X-8.71 Y-38.816 E0.6815
G1 X-10.123 Y-38.751 E0.05611
G1 X-11.815 Y-38.518 E0.06773
G1 X-14.033 Y-37.936 E0.09098
G1 X-15.082 Y-37.541 E0.04446
G1 X-16.624 Y-36.807 E0.06773
G1 X-18.56 Y-35.578 E0.09098
G1 X-19.882 Y-34.497 E0.06773
G1 X-20.686 Y-33.716 E0.04446
G1 X-21.805 Y-32.427 E0.06773
G1 X-22.868 Y-30.907 E0.07357
G1 X-40.919 Y-2.669 E1.32951
G1 X-41.493 Y-1.552 E0.0498
G1 X-41.958 Y-0.143 E0.05885
G1 X-42.129 Y0.834 E0.03936
G1 X-42.191 Y4.065 E0.12821
G1 X-42.104 Y5.207 E0.04544
G1 X-41.705 Y6.869 E0.06779
G1 X-41.253 Y7.928 E0.04566
G1 X-40.977 Y8.427 E0.02265
G1 X-39.956 Y9.803 E0.06796
G1 X-39.125 Y10.598 E0.0456
G1 X-38.099 Y11.345 E0.05034
G1 X-35.562 Y12.862 E0.1173
G1 X-32.963 Y14.273 E0.1173
G1 X-30.307 Y15.575 E0.11733
G1 X-27.573 Y16.777 E0.11851
G1 X-24.846 Y17.843 E0.11614
G1 X-22.219 Y18.751 E0.11023
G1 X-19.416 Y19.596 E0.11615
G1 X-16.552 Y20.331 E0.11728
G1 X-13.631 Y20.952 E0.1185
G1 X-10.744 Y21.442 E0.11616
G1 X-7.515 Y21.847 E0.12907
G1 X-4.596 Y22.085 E0.11618
G1 X-1.611 Y22.204 E0.11849
G1 X-0.019 Y22.201 E0.06318
G1 X-0.02 Y21.724 F10800
G1 F1200
G1 X1.326 Y21.722 E0.05336
G1 X4.26 Y21.595 E0.11651
G1 X7.187 Y21.346 E0.11651
G1 X10.1 Y20.976 E0.11651
G1 X12.996 Y20.486 E0.11651
G1 X15.87 Y19.875 E0.11654
G1 X18.534 Y19.197 E0.10906
G1 X21.35 Y18.358 E0.11656
G1 X24.128 Y17.403 E0.11651
G1 X26.863 Y16.334 E0.11651
G1 X29.552 Y15.152 E0.11651
G1 X32.216 Y13.845 E0.11772
G1 X34.798 Y12.443 E0.11656
G1 X37.319 Y10.935 E0.11651
G1 X38.287 Y10.23 E0.04753
G1 X39.048 Y9.503 E0.04173
G1 X40.025 Y8.197 E0.0647
G1 X40.301 Y7.697 E0.02265
G1 X40.715 Y6.727 E0.04185
G1 X41.095 Y5.159 E0.064
G1 X41.18 Y4.065 E0.04351
G1 X41.119 Y0.875 E0.12657
G1 X40.835 Y-0.497 E0.05557
G1 X40.521 Y-1.362 E0.03651
G1 X39.978 Y-2.417 E0.04708
G1 X21.931 Y-30.65 E1.32923
G1 X20.905 Y-32.121 E0.07114
G1 X19.819 Y-33.374 E0.06579
G1 X18.61 Y-34.509 E0.06579
G1 X17.73 Y-35.204 E0.04446
G1 X16.345 Y-36.115 E0.06579
G1 X14.873 Y-36.88 E0.06579
G1 X12.818 Y-37.652 E0.0871
G1 X11.207 Y-38.047 E0.06579
G1 X10.099 Y-38.219 E0.04446
G1 X8.445 Y-38.332 E0.06579
G1 X-8.71 Y-38.339 E0.68053
G1 X-10.099 Y-38.274 E0.05514
G1 X-11.742 Y-38.047 E0.06579
G1 X-13.865 Y-37.489 E0.0871
G1 X-15.408 Y-36.88 E0.06579
G1 X-16.411 Y-36.38 E0.04446
G1 X-18.265 Y-35.204 E0.0871
G1 X-19.145 Y-34.509 E0.04446
G1 X-20.354 Y-33.374 E0.06579
G1 X-21.44 Y-32.121 E0.06579
G1 X-22.466 Y-30.65 E0.07114
G1 X-40.517 Y-2.412 E1.32951
G1 X-41.061 Y-1.352 E0.04725
G1 X-41.497 Y-0.02 E0.05557
G1 X-41.653 Y0.875 E0.03607
G1 X-41.714 Y4.065 E0.12657
G1 X-41.63 Y5.159 E0.04351
G1 X-41.25 Y6.727 E0.064
G1 X-40.835 Y7.697 E0.04185
G1 X-40.559 Y8.197 E0.02265
G1 X-39.593 Y9.493 E0.06415
G1 X-38.832 Y10.222 E0.04179
G1 X-37.854 Y10.935 E0.04803
G1 X-35.333 Y12.443 E0.11651
G1 X-32.752 Y13.845 E0.11651
G1 X-30.115 Y15.139 E0.11654
G1 X-27.398 Y16.333 E0.11772
G1 X-24.69 Y17.392 E0.11536
G1 X-21.856 Y18.366 E0.11887
G1 X-19.07 Y19.196 E0.11533
G1 X-16.222 Y19.918 E0.11655
G1 X-13.532 Y20.485 E0.10906
G1 X-10.665 Y20.971 E0.11537
G1 X-7.476 Y21.371 E0.1275
G1 X-4.576 Y21.608 E0.11539
G1 X-1.612 Y21.727 E0.11771
G1 X-0.08 Y21.724 E0.06077
G1 E-3.5 F3600
;WIPE_START
G1 F8640
G1 X1.326 Y21.722 E-0.55621
G1 X3.518 Y21.627 E-0.86879
;WIPE_END
G1 E-0.075 F3600
; printing object disc_hanger.stl id:0 copy 0
; acceleration to travel
M204 S1500
G1 X0.506 Y10.453 F10800
; decel to extrusion
M204 S800
G1 X-0.08 Y8.281
; end travel
G1 E5 F2400
;TYPE:Internal perimeter
;WIDTH:0.42
G1 F1200
G1 X1.052 Y8.281 E0.03547
G1 X3.662 Y8.177 E0.08191
G1 X6.266 Y7.97 E0.08191
G1 X8.86 Y7.661 E0.08191
G1 X11.46 Y7.245 E0.08256
G1 X11.914 Y7.162 E0.01447
G1 X12.266 Y7.055 E0.01153
G1 X13.012 Y6.735 E0.02546
G1 X13.693 Y6.315 E0.02508
G1 X14.309 Y5.794 E0.0253
G1 X14.849 Y5.178 E0.02568
G1 X15.297 Y4.478 E0.02606
G1 X15.622 Y3.747 E0.0251
G1 X15.842 Y2.953 E0.02581
G1 X15.94 Y2.142 E0.02563
G1 X15.915 Y1.325 E0.02562
G1 X15.768 Y0.521 E0.02563
G1 X15.503 Y-0.252 E0.02563
G1 X15.126 Y-0.977 E0.02562
G1 X14.662 Y-1.613 E0.02468
G1 X13.521 Y-3.028 E0.05698
G1 X12.477 Y-4.478 E0.05604
G1 X11.512 Y-5.982 E0.05604
G1 X10.629 Y-7.536 E0.05604
G1 X9.831 Y-9.136 E0.05604
G1 X9.121 Y-10.776 E0.05604
G1 X8.501 Y-12.452 E0.05604
G1 X7.971 Y-14.159 E0.05604
G1 X7.528 Y-15.919 E0.05691
G1 X7.297 Y-16.699 E0.0255
G1 X6.952 Y-17.466 E0.02637
G1 X6.507 Y-18.18 E0.02637
G1 X5.97 Y-18.827 E0.02637
G1 X5.351 Y-19.396 E0.02637
G1 X4.66 Y-19.876 E0.02637
G1 X3.912 Y-20.26 E0.02637
G1 X3.118 Y-20.538 E0.02637
G1 X2.294 Y-20.707 E0.02637
G1 X1.475 Y-20.763 E0.02575
G1 X-2.01 Y-20.763 E0.10926
G1 X-2.829 Y-20.707 E0.02575
G1 X-3.653 Y-20.538 E0.02637
G1 X-4.446 Y-20.26 E0.02637
G1 X-5.195 Y-19.876 E0.02637
G1 X-5.886 Y-19.396 E0.02637
G1 X-6.505 Y-18.827 E0.02637
G1 X-7.042 Y-18.18 E0.02637
G1 X-7.487 Y-17.466 E0.02637
G1 X-7.832 Y-16.699 E0.02637
G1 X-8.062 Y-15.919 E0.0255
G1 X-8.506 Y-14.159 E0.05691
G1 X-9.035 Y-12.452 E0.05604
G1 X-9.656 Y-10.776 E0.05604
G1 X-10.366 Y-9.136 E0.05604
G1 X-11.164 Y-7.536 E0.05604
G1 X-12.046 Y-5.982 E0.05604
G1 X-13.011 Y-4.478 E0.05604
G1 X-14.056 Y-3.028 E0.05604
G1 X-15.197 Y-1.613 E0.05698
G1 X-15.661 Y-0.977 E0.02468
G1 X-16.038 Y-0.252 E0.02562
G1 X-16.303 Y0.521 E0.02562
G1 X-16.442 Y1.282 E0.02425
G1 X-16.475 Y2.141 E0.02696
G1 X-16.371 Y2.978 E0.02645
G1 X-16.157 Y3.747 E0.02502
G1 X-15.832 Y4.478 E0.02509
G1 X-15.384 Y5.178 E0.02604
G1 X-14.851 Y5.787 E0.02536
G1 X-14.239 Y6.306 E0.02519
G1 X-13.52 Y6.749 E0.02649
G1 X-12.848 Y7.038 E0.02293
G1 X-12.593 Y7.121 E0.00839
G1 X-11.976 Y7.249 E0.01976
G1 X-9.395 Y7.661 E0.08196
G1 X-6.801 Y7.97 E0.08191
G1 X-4.197 Y8.177 E0.08191
G1 X-1.586 Y8.281 E0.08191
G1 X-0.14 Y8.281 E0.04536
G1 X-0.08 Y7.904 F10800
;TYPE:External perimeter
G1 F1200
G1 X1.044 Y7.904 E0.03523
G1 X3.639 Y7.801 E0.08144
G1 X6.229 Y7.595 E0.08144
G1 X8.808 Y7.287 E0.08144
G1 X11.396 Y6.874 E0.08219
G1 X11.825 Y6.795 E0.01367
G1 X12.137 Y6.701 E0.01021
G1 X12.838 Y6.4 E0.02391
G1 X13.47 Y6.009 E0.02333
G1 X14.044 Y5.524 E0.02354
G1 X14.547 Y4.951 E0.02391
G1 X14.964 Y4.299 E0.02427
G1 X15.267 Y3.619 E0.02333
G1 X15.471 Y2.88 E0.02404
G1 X15.562 Y2.125 E0.02385
G1 X15.539 Y1.365 E0.02385
G1 X15.403 Y0.616 E0.02385
G1 X15.156 Y-0.103 E0.02385
G1 X14.804 Y-0.778 E0.02385
G1 X14.362 Y-1.383 E0.02351
G1 X13.221 Y-2.799 E0.05701
G1 X12.165 Y-4.266 E0.05668
G1 X11.189 Y-5.787 E0.05668
G1 X10.296 Y-7.359 E0.05668
G1 X9.489 Y-8.977 E0.05668
G1 X8.771 Y-10.636 E0.05668
G1 X8.143 Y-12.331 E0.05668
G1 X7.608 Y-14.057 E0.05668
G1 X7.164 Y-15.82 E0.05699
G1 X6.943 Y-16.568 E0.02446
G1 X6.619 Y-17.288 E0.02477
G1 X6.201 Y-17.959 E0.02477
G1 X5.696 Y-18.567 E0.02477
G1 X5.114 Y-19.101 E0.02477
G1 X4.466 Y-19.552 E0.02477
G1 X3.763 Y-19.912 E0.02477
G1 X3.017 Y-20.174 E0.02477
G1 X2.243 Y-20.333 E0.02477
G1 X1.462 Y-20.386 E0.02455
G1 X-1.997 Y-20.386 E0.10847
G1 X-2.778 Y-20.333 E0.02455
G1 X-3.552 Y-20.174 E0.02477
G1 X-4.297 Y-19.912 E0.02477
G1 X-5.001 Y-19.552 E0.02477
G1 X-5.649 Y-19.101 E0.02477
G1 X-6.231 Y-18.567 E0.02477
G1 X-6.736 Y-17.959 E0.02477
G1 X-7.154 Y-17.288 E0.02477
G1 X-7.478 Y-16.568 E0.02477
G1 X-7.699 Y-15.82 E0.02446
G1 X-8.143 Y-14.057 E0.05699
G1 X-8.678 Y-12.331 E0.05668
G1 X-9.306 Y-10.636 E0.05668
G1 X-10.024 Y-8.977 E0.05668
G1 X-10.831 Y-7.359 E0.05668
G1 X-11.723 Y-5.787 E0.05668
G1 X-12.7 Y-4.266 E0.05668
G1 X-13.756 Y-2.799 E0.05668
G1 X-14.897 Y-1.383 E0.05701
G1 X-15.339 Y-0.778 E0.02351
G1 X-15.691 Y-0.103 E0.02385
G1 X-15.937 Y0.616 E0.02385
G1 X-16.066 Y1.323 E0.02252
G1 X-16.097 Y2.125 E0.02516
G1 X-16 Y2.904 E0.02462
G1 X-15.801 Y3.619 E0.02327
G1 X-15.499 Y4.299 E0.02333
G1 X-15.082 Y4.951 E0.02427
G1 X-14.586 Y5.517 E0.0236
G1 X-14.017 Y6 E0.02341
G1 X-13.345 Y6.414 E0.02472
G1 X-12.714 Y6.685 E0.02153
G1 X-12.496 Y6.756 E0.0072
G1 X-11.908 Y6.878 E0.01883
G1 X-9.343 Y7.287 E0.08146
G1 X-6.763 Y7.595 E0.08144
G1 X-4.174 Y7.801 E0.08144
G1 X-1.579 Y7.904 E0.08144
G1 X-0.14 Y7.904 E0.04513
;WIPE_START
M204 S1000
G1 X0.12 Y8.25 F10800
;WIPE_END
G1 E-3.5 F3600
;WIPE_START
G1 F8640
G1 X1.048 Y8.104 E-0.37177
G1 X3.651 Y8 E-1.03127
G1 X3.707 Y7.996 E-0.02196
;WIPE_END
G1 E-0.075 F3600
; acceleration to travel
M204 S1500
G1 X-8.175 Y-19.003 F10800
; decel to extrusion
M204 S800
G1 X-10.485 Y-24.251
; end travel
G1 E5 F2400
;TYPE:Internal perimeter
G1 F1200
G1 X-9.993 Y-24.455 E0.01669
G1 X-9.531 Y-24.809 E0.01824
G1 X-9.177 Y-25.271 E0.01824
G1 X-8.955 Y-25.808 E0.01824
G1 X-8.879 Y-26.385 E0.01824
G1 X-8.955 Y-26.962 E0.01824
G1 X-9.177 Y-27.5 E0.01824
G1 X-9.531 Y-27.961 E0.01824
G1 X-9.993 Y-28.316 E0.01824
G1 X-10.531 Y-28.538 E0.01824
G1 X-11.108 Y-28.614 E0.01824
G1 X-11.684 Y-28.538 E0.01824
G1 X-12.222 Y-28.316 E0.01824
G1 X-12.684 Y-27.961 E0.01824
G1 X-13.038 Y-27.5 E0.01824
G1 X-13.261 Y-26.962 E0.01824
G1 X-13.336 Y-26.385 E0.01824
G1 X-13.261 Y-25.808 E0.01824
G1 X-13.038 Y-25.271 E0.01824
G1 X-12.684 Y-24.809 E0.01824
G1 X-12.222 Y-24.455 E0.01824
G1 X-11.684 Y-24.232 E0.01824
G1 X-11.108 Y-24.156 E0.01824
G1 X-10.541 Y-24.231 E0.01792
G1 X-10.629 Y-24.6 F10800
;TYPE:External perimeter
G1 F1200
G1 X-10.183 Y-24.784 E0.01513
G1 X-9.8 Y-25.078 E0.01513
G1 X-9.507 Y-25.461 E0.01513
G1 X-9.322 Y-25.907 E0.01513
G1 X-9.259 Y-26.385 E0.01513
G1 X-9.322 Y-26.864 E0.01513
G1 X-9.507 Y-27.31 E0.01513
G1 X-9.8 Y-27.692 E0.01513
G1 X-10.183 Y-27.986 E0.01513
G1 X-10.629 Y-28.171 E0.01513
G1 X-11.108 Y-28.234 E0.01513
G1 X-11.586 Y-28.171 E0.01513
G1 X-12.032 Y-27.986 E0.01513
G1 X-12.415 Y-27.692 E0.01513
G1 X-12.708 Y-27.31 E0.01513
G1 X-12.893 Y-26.864 E0.01513
G1 X-12.956 Y-26.385 E0.01513
G1 X-12.893 Y-25.907 E0.01513
G1 X-12.708 Y-25.461 E0.01513
G1 X-12.415 Y-25.078 E0.01513
G1 X-12.032 Y-24.784 E0.01513
G1 X-11.586 Y-24.6 E0.01513
G1 X-11.108 Y-24.537 E0.01513
G1 X-10.689 Y-24.592 E0.01325
;WIPE_START
M204 S1000
G1 X-10.334 Y-24.329 F10800
;WIPE_END
G1 E-3.5 F3600
;WIPE_START
G1 F8640
G1 X-10.082 Y-24.61 E-0.14912
G1 X-9.658 Y-24.935 E-0.21187
G1 X-9.332 Y-25.36 E-0.21187
G1 X-9.127 Y-25.855 E-0.21187
G1 X-9.057 Y-26.385 E-0.21187
G1 X-9.127 Y-26.916 E-0.21187
G1 X-9.332 Y-27.41 E-0.21187
G1 X-9.339 Y-27.42 E-0.00467
;WIPE_END
G1 E-0.075 F3600
; acceleration to travel
M204 S1500
G1 X5.471 Y-26.595 F10800
; decel to extrusion
M204 S800
G1 X8.35 Y-26.434
; end travel
G1 E5 F2400
;TYPE:Internal perimeter
G1 F1200
G1 X8.344 Y-26.385 E0.00156
G1 X8.42 Y-25.808 E0.01824
G1 X8.642 Y-25.271 E0.01824
G1 X8.997 Y-24.809 E0.01824
G1 X9.458 Y-24.455 E0.01824
G1 X9.996 Y-24.232 E0.01824
G1 X10.573 Y-24.156 E0.01824
G1 X11.15 Y-24.232 E0.01824
G1 X11.687 Y-24.455 E0.01824
G1 X12.149 Y-24.809 E0.01824
G1 X12.503 Y-25.271 E0.01824
G1 X12.726 Y-25.808 E0.01824
G1 X12.802 Y-26.385 E0.01824
G1 X12.726 Y-26.962 E0.01824
G1 X12.503 Y-27.5 E0.01824
G1 X12.149 Y-27.961 E0.01824
G1 X11.687 Y-28.316 E0.01824
G1 X11.15 Y-28.538 E0.01824
G1 X10.573 Y-28.614 E0.01824
G1 X9.996 Y-28.538 E0.01824
G1 X9.458 Y-28.316 E0.01824
G1 X8.997 Y-27.961 E0.01824
G1 X8.642 Y-27.5 E0.01824
G1 X8.42 Y-26.962 E0.01824
G1 X8.358 Y-26.494 E0.01481
G1 X8.724 Y-26.385 F10800
;TYPE:External perimeter
G1 F1200
G1 X8.787 Y-25.907 E0.01513
G1 X8.972 Y-25.461 E0.01513
G1 X9.266 Y-25.078 E0.01513
G1 X9.648 Y-24.784 E0.01513
G1 X10.094 Y-24.6 E0.01513
G1 X10.573 Y-24.537 E0.01513
G1 X11.051 Y-24.6 E0.01513
G1 X11.497 Y-24.784 E0.01513
G1 X11.88 Y-25.078 E0.01513
G1 X12.174 Y-25.461 E0.01513
G1 X12.358 Y-25.907 E0.01513
G1 X12.421 Y-26.385 E0.01513
G1 X12.358 Y-26.864 E0.01513
G1 X12.174 Y-27.31 E0.01513
G1 X11.88 Y-27.692 E0.01513
G1 X11.497 Y-27.986 E0.01513
G1 X11.051 Y-28.171 E0.01513
G1 X10.573 Y-28.234 E0.01513
G1 X10.094 Y-28.171 E0.01513
G1 X9.648 Y-27.986 E0.01513
G1 X9.266 Y-27.692 E0.01513
G1 X8.972 Y-27.31 E0.01513
G1 X8.787 Y-26.864 E0.01513
G1 X8.732 Y-26.445 E0.01325
;WIPE_START
M204 S1000
G1 X8.387 Y-26.17 F10800
;WIPE_END
G1 E-3.5 F3600
;WIPE_START
G1 F8640
G1 X8.592 Y-25.855 E-0.14912
G1 X8.797 Y-25.36 E-0.21187
G1 X9.123 Y-24.935 E-0.21187
G1 X9.548 Y-24.61 E-0.21187
G1 X10.042 Y-24.405 E-0.21187
G1 X10.573 Y-24.335 E-0.21187
G1 X11.103 Y-24.405 E-0.21187
G1 X11.114 Y-24.409 E-0.00467
;WIPE_END
G1 E-0.075 F3600
; acceleration to travel
M204 S1500
G1 X9.895 Y-31.093 F10800
; decel to extrusion
M204 S800
G1 X9.657 Y-32.392
; end travel
G1 E5 F2400
;TYPE:Internal perimeter
G1 F1200
G1 X10.283 Y-32.295 E0.01984
G1 X11.308 Y-32.026 E0.03325
G1 X12.301 Y-31.652 E0.03325
G1 X13.25 Y-31.179 E0.03325
G1 X14.145 Y-30.611 E0.03325
G1 X14.978 Y-29.954 E0.03325
G1 X15.739 Y-29.216 E0.03325
G1 X16.42 Y-28.403 E0.03325
G1 X17.014 Y-27.524 E0.03325
G1 X17.515 Y-26.59 E0.03325
G1 X17.917 Y-25.608 E0.03325
G1 X18.216 Y-24.591 E0.03325
G1 X18.409 Y-23.551 E0.03317
G1 X18.595 Y-20.968 E0.08119
G1 X18.802 Y-19.46 E0.04774
G1 X19.116 Y-17.968 E0.0478
G1 X19.536 Y-16.503 E0.0478
G1 X20.058 Y-15.071 E0.0478
G1 X20.682 Y-13.68 E0.0478
G1 X21.403 Y-12.336 E0.0478
G1 X22.218 Y-11.048 E0.0478
G1 X23.123 Y-9.821 E0.0478
G1 X24.112 Y-8.661 E0.0478
G1 X25.182 Y-7.575 E0.0478
G1 X26.318 Y-6.575 E0.04747
G1 X34.107 Y-0.198 E0.31561
G1 X34.567 Y0.114 E0.01745
G1 X34.838 Y0.388 E0.01207
G1 X35.054 Y0.698 E0.01184
G1 X35.219 Y1.052 E0.01226
G1 X35.319 Y1.429 E0.01223
G1 X35.354 Y1.837 E0.01284
G1 X35.354 Y4.034 E0.0689
G1 X35.306 Y4.507 E0.01489
G1 X35.173 Y4.932 E0.01397
G1 X34.954 Y5.327 E0.01416
G1 X34.661 Y5.671 E0.01417
G1 X34.29 Y5.959 E0.01471
G1 X32 Y7.334 E0.08377
G1 X29.633 Y8.624 E0.08451
G1 X27.188 Y9.827 E0.08543
G1 X24.723 Y10.915 E0.08451
G1 X22.214 Y11.901 E0.08451
G1 X19.666 Y12.781 E0.08451
G1 X17.084 Y13.554 E0.08451
G1 X14.444 Y14.227 E0.08543
G1 X11.807 Y14.783 E0.08451
G1 X9.148 Y15.229 E0.08451
G1 X6.474 Y15.564 E0.08451
G1 X3.788 Y15.788 E0.08451
G1 X1.095 Y15.901 E0.08451
G1 X-1.6 Y15.901 E0.08451
G1 X-4.323 Y15.788 E0.08543
G1 X-6.98 Y15.567 E0.08359
G1 X-9.712 Y15.224 E0.08635
