; generated by SuperSlicer 2.4 on 2023-12-10 at 02:15:19 UTC


;
;

;
;
; 

; external perimeters extrusion width = 0.60mm
; perimeters extrusion width = 0.50mm
; infill extrusion width = 0.50mm
; solid infill extrusion width = 0.50mm
; top infill extrusion width = 0.45mm
; first layer extrusion width = 0.42mm

; object:{"name":"disc_shelf_L","id":"disc_shelf_L.stl id:0 copy 0","object_center":[0.000000,-0.000000,0.000000],"boundingbox_center":[0.000000,-0.000000,90.692169],"boundingbox_size":[206.372528,32.000000,181.384338]}
; plater:{"center":[0.000000,-0.000000,0.000000],"boundingbox_center":[0.000000,-0.000000,90.692169],"boundingbox_size":[206.372528,32.000000,181.384338]}

;TYPE:Custom
START_PRINT
M107
G21 ; set units to millimeters
G90 ; use absolute coordinates
M83 ; use relative distances for extrusion
; Filament gcode
;_TOOLCHANGE 0
M104 S200 ; set temperature
M109 S200 ; set temperature and wait for it to be reached
M190 S60 ; set bed temperature and wait for it to be reached
M107
;LAYER_CHANGE
;Z:0.2
;HEIGHT:0.2
;BEFORE_LAYER_CHANGE
G92 E0
;0.2
G1 E-5 F3600
G1 Z0.2 F10800
;AFTER_LAYER_CHANGE
;0.2
M204 S1000
G1 X0 Y-25.52
G1 E5 F2400
;TYPE:Skirt
;WIDTH:0.52
G1 F1200
G1 X-102.254 Y-25.52 E4.05634
G1 X-104.536 Y-25.044 E0.09247
G1 X-106.295 Y-23.845 E0.08445
G1 X-109.322 Y-20.819 E0.16982
G1 X-110.6 Y-18.869 E0.09247
G1 X-110.996 Y-16.777 E0.08445
G1 X-110.996 Y0.11 E0.66991
G1 X-110.521 Y2.392 E0.09247
G1 X-109.322 Y4.152 E0.08445
G1 X-106.295 Y7.179 E0.16982
G1 X-105.592 Y7.777 E0.03662
G1 X-82.428 Y24.443 E1.13204
G1 X-81.181 Y25.123 E0.05632
G1 X-79.09 Y25.52 E0.08445
G1 X102.254 Y25.52 E7.19376
G1 X104.536 Y25.044 E0.09247
G1 X106.295 Y23.845 E0.08445
G1 X109.322 Y20.819 E0.16982
G1 X110.6 Y18.869 E0.09247
G1 X110.996 Y16.777 E0.08445
G1 X110.996 Y-19.804 E1.45114
G1 X110.435 Y-22.273 E0.10046
G1 X109.174 Y-23.989 E0.08445
G1 X107.372 Y-25.123 E0.08445
G1 X105.281 Y-25.52 E0.08445
G1 X0.06 Y-25.52 E4.17403
G1 X0.06 Y-25.042 F10800
G1 F1200
G1 X-102.254 Y-25.042 E4.05872
G1 X-104.265 Y-24.641 E0.08135
G1 X-105.958 Y-23.508 E0.08082
G1 X-108.985 Y-20.481 E0.16982
G1 X-110.123 Y-18.775 E0.08135
G1 X-110.519 Y-16.777 E0.08082
G1 X-110.519 Y0.11 E0.66991
G1 X-110.118 Y2.121 E0.08135
G1 X-108.985 Y3.814 E0.08082
G1 X-105.958 Y6.841 E0.16982
G1 X-105.313 Y7.39 E0.03357
G1 X-82.149 Y24.056 E1.13204
G1 X-81.088 Y24.646 E0.04816
G1 X-79.09 Y25.042 E0.08082
G1 X102.254 Y25.042 E7.19376
G1 X104.265 Y24.641 E0.08135
G1 X105.958 Y23.508 E0.08082
G1 X108.985 Y20.481 E0.16982
G1 X110.123 Y18.775 E0.08135
G1 X110.519 Y16.777 E0.08082
G1 X110.519 Y-19.804 E1.45114
G1 X110.113 Y-21.827 E0.08187
G1 X108.975 Y-23.518 E0.08082
G1 X107.279 Y-24.646 E0.08082
G1 X105.281 Y-25.042 E0.08082
G1 X0.12 Y-25.042 E4.17165
G1 E-3.5 F3600
;WIPE_START
G1 F8640
G1 X-3.48 Y-25.042 E-1.425
;WIPE_END
G1 E-0.075 F3600
; acceleration to travel
M204 S1500
G1 X-0.584 Y-20.596 F10800
; decel to extrusion
M204 S1000
G1 X0.12 Y-19.516
; end travel
G1 E5 F2400
;WIDTH:0.42
G1 F1200
G1 X100.698 Y-19.514 E3.15355
G1 X101.631 Y-19.342 E0.02975
G1 X102.527 Y-18.974 E0.03037
G1 X103.238 Y-18.492 E0.02694
G1 X103.86 Y-17.892 E0.02709
G1 X104.358 Y-17.211 E0.02645
G1 X104.743 Y-16.396 E0.02826
G1 X104.982 Y-15.298 E0.03524
G1 X104.994 Y15.055 E0.9517
G1 X104.63 Y16.532 E0.04771
G1 X103.826 Y17.828 E0.04781
G1 X103.24 Y18.397 E0.02559
G1 X102.547 Y18.895 E0.02676
G1 X102.212 Y19.046 E0.01153
G1 X100.577 Y19.517 E0.05336
G1 X74.179 Y19.517 E0.82771
G1 X72.625 Y19.085 E0.05055
G1 X72.222 Y18.906 E0.01383
G1 X71.296 Y18.203 E0.03646
G1 X70.524 Y17.297 E0.03731
G1 X70.031 Y16.29 E0.03515
G1 X69.771 Y15.177 E0.03584
G1 X69.757 Y2.851 E0.38649
G1 X-46.593 Y2.851 E3.64806
G1 X-46.607 Y15.177 E0.38649
G1 X-46.867 Y16.291 E0.03584
G1 X-47.36 Y17.297 E0.03515
G1 X-48.132 Y18.203 E0.03731
G1 X-49.058 Y18.906 E0.03646
G1 X-49.461 Y19.085 E0.01383
G1 X-51.014 Y19.517 E0.05055
G1 X-77.368 Y19.517 E0.82628
G1 X-78.845 Y19.153 E0.04771
G1 X-80.139 Y18.35 E0.04775
G1 X-80.683 Y17.795 E0.02438
G1 X-81.141 Y17.192 E0.02373
G1 X-81.77 Y15.464 E0.05765
G1 X-81.811 Y15.186 E0.00882
G1 X-81.828 Y2.85 E0.3868
G1 X-100.79 Y2.817 E0.59455
G1 X-102.178 Y2.412 E0.04535
G1 X-103.123 Y1.826 E0.03486
G1 X-103.762 Y1.225 E0.02748
G1 X-104.252 Y0.596 E0.02502
G1 X-104.436 Y0.281 E0.01144
G1 X-104.994 Y-1.567 E0.06052
G1 X-104.942 Y-15.446 E0.43516
G1 X-104.527 Y-16.763 E0.04331
G1 X-104.028 Y-17.57 E0.02973
G1 X-103.367 Y-18.288 E0.03061
G1 X-102.211 Y-19.06 E0.04361
G1 X-100.572 Y-19.517 E0.05334
G1 X0.06 Y-19.516 E3.15524
G1 X0.06 Y-19.139 F10800
G1 F1200
G1 X100.68 Y-19.137 E3.15488
G1 X101.542 Y-18.975 E0.0275
G1 X102.364 Y-18.633 E0.0279
G1 X103.011 Y-18.19 E0.02461
G1 X103.585 Y-17.632 E0.02508
G1 X104.042 Y-17.004 E0.02437
G1 X104.392 Y-16.256 E0.02589
G1 X104.609 Y-15.239 E0.03261
G1 X104.617 Y15.032 E0.94911
G1 X104.271 Y16.412 E0.04461
G1 X103.546 Y17.574 E0.04295
G1 X103.008 Y18.1 E0.02359
G1 X102.373 Y18.56 E0.02458
G1 X102.093 Y18.688 E0.00966
G1 X100.55 Y19.14 E0.05042
G1 X74.205 Y19.14 E0.82605
G1 X72.741 Y18.726 E0.04768
G1 X72.397 Y18.571 E0.01185
G1 X71.57 Y17.943 E0.03257
G1 X70.826 Y17.071 E0.03593
G1 X70.394 Y16.184 E0.03094
G1 X70.143 Y15.113 E0.0345
G1 X70.134 Y2.474 E0.39629
G1 X-46.969 Y2.474 E3.67168
G1 X-46.979 Y15.113 E0.39629
G1 X-47.229 Y16.184 E0.0345
G1 X-47.662 Y17.071 E0.03094
G1 X-48.405 Y17.943 E0.03593
G1 X-49.233 Y18.571 E0.03256
G1 X-49.577 Y18.726 E0.01185
G1 X-51.04 Y19.14 E0.04768
G1 X-77.344 Y19.14 E0.82474
G1 X-78.724 Y18.794 E0.04461
G1 X-79.886 Y18.07 E0.04292
G1 X-80.39 Y17.557 E0.02255
G1 X-80.823 Y16.987 E0.02245
G1 X-81.409 Y15.355 E0.05434
G1 X-81.434 Y15.173 E0.00578
G1 X-81.451 Y2.473 E0.39819
G1 X-100.711 Y2.448 E0.60389
G1 X-102.002 Y2.078 E0.04208
G1 X-102.908 Y1.515 E0.03344
G1 X-103.492 Y0.962 E0.02524
G1 X-103.946 Y0.375 E0.02327
G1 X-104.099 Y0.11 E0.00958
G1 X-104.617 Y-1.594 E0.05585
G1 X-104.573 Y-15.361 E0.43165
G1 X-104.194 Y-16.585 E0.04019
G1 X-103.717 Y-17.356 E0.02841
G1 X-103.106 Y-18.016 E0.02822
G1 X-102.079 Y-18.706 E0.03878
G1 X-100.546 Y-19.14 E0.04997
G1 X-0 Y-19.139 E3.15254
G1 X-0 Y-18.761 F10800
G1 F1200
G1 X100.663 Y-18.76 E3.15621
G1 X101.452 Y-18.609 E0.0252
G1 X102.199 Y-18.294 E0.02543
G1 X102.784 Y-17.889 E0.02228
G1 X103.31 Y-17.374 E0.02308
G1 X103.726 Y-16.798 E0.02229
G1 X104.041 Y-16.117 E0.02352
G1 X104.236 Y-15.181 E0.02999
G1 X104.24 Y15.009 E0.94658
G1 X103.935 Y16.238 E0.03972
G1 X103.265 Y17.321 E0.0399
G1 X102.774 Y17.804 E0.0216
G1 X102.197 Y18.226 E0.02242
G1 X101.972 Y18.331 E0.00778
G1 X100.523 Y18.763 E0.04742
G1 X74.231 Y18.763 E0.82436
G1 X72.859 Y18.368 E0.04476
G1 X72.573 Y18.237 E0.00988
G1 X71.842 Y17.682 E0.02876
G1 X71.154 Y16.882 E0.03308
G1 X70.756 Y16.077 E0.02816
G1 X70.515 Y15.048 E0.03314
G1 X70.511 Y2.097 E0.40608
G1 X-47.346 Y2.097 E3.69532
G1 X-47.351 Y15.048 E0.40608
G1 X-47.592 Y16.077 E0.03314
G1 X-47.99 Y16.882 E0.02816
G1 X-48.678 Y17.682 E0.03308
G1 X-49.408 Y18.237 E0.02876
G1 X-49.695 Y18.368 E0.00988
G1 X-51.067 Y18.763 E0.04476
G1 X-77.321 Y18.763 E0.82319
G1 X-78.551 Y18.458 E0.03972
G1 X-79.633 Y17.789 E0.0399
G1 X-80.097 Y17.319 E0.0207
G1 X-80.505 Y16.782 E0.02115
G1 X-81.038 Y15.282 E0.0499
G1 X-81.056 Y15.159 E0.00392
G1 X-81.075 Y2.096 E0.40956
G1 X-100.634 Y2.078 E0.61328
G1 X-101.825 Y1.744 E0.03878
G1 X-102.692 Y1.206 E0.03199
G1 X-103.22 Y0.699 E0.02295
G1 X-103.639 Y0.155 E0.02153
G1 X-103.761 Y-0.059 E0.00771
G1 X-104.24 Y-1.621 E0.05125
G1 X-104.204 Y-15.278 E0.42819
G1 X-103.861 Y-16.407 E0.03703
G1 X-103.406 Y-17.141 E0.02706
G1 X-102.845 Y-17.743 E0.02581
G1 X-101.946 Y-18.352 E0.03403
G1 X-100.519 Y-18.763 E0.04656
G1 X-0.06 Y-18.761 E3.14983
G1 X-0.06 Y-18.384 F10800
G1 F1200
G1 X100.644 Y-18.383 E3.15752
G1 X101.36 Y-18.243 E0.02287
G1 X102.033 Y-17.955 E0.02295
G1 X102.554 Y-17.589 E0.01996
G1 X103.034 Y-17.117 E0.0211
G1 X103.409 Y-16.593 E0.0202
G1 X103.689 Y-15.98 E0.02113
G1 X103.863 Y-15.124 E0.02738
G1 X103.863 Y14.985 E0.94407
G1 X103.576 Y16.118 E0.03662
G1 X102.985 Y17.068 E0.0351
G1 X102.539 Y17.508 E0.01965
G1 X102.018 Y17.894 E0.0203
G1 X101.849 Y17.974 E0.00588
G1 X100.495 Y18.386 E0.04438
G1 X74.258 Y18.386 E0.82264
G1 X72.979 Y18.01 E0.0418
G1 X72.75 Y17.903 E0.00792
G1 X72.114 Y17.419 E0.02507
G1 X71.48 Y16.692 E0.03025
G1 X71.118 Y15.97 E0.02533
G1 X70.888 Y14.983 E0.03177
G1 X70.888 Y1.72 E0.41588
G1 X-47.723 Y1.72 E3.71897
G1 X-47.723 Y14.983 E0.41588
G1 X-47.954 Y15.97 E0.03177
G1 X-48.316 Y16.692 E0.02533
G1 X-48.95 Y17.419 E0.03025
G1 X-49.586 Y17.903 E0.02507
G1 X-49.815 Y18.01 E0.00792
G1 X-51.094 Y18.386 E0.0418
G1 X-77.298 Y18.386 E0.82161
G1 X-78.43 Y18.1 E0.03662
G1 X-79.381 Y17.508 E0.0351
G1 X-79.82 Y17.063 E0.01961
G1 X-80.186 Y16.578 E0.01906
G1 X-80.669 Y15.204 E0.04566
G1 X-80.679 Y15.142 E0.00196
G1 X-80.698 Y1.719 E0.42087
G1 X-100.559 Y1.707 E0.62273
G1 X-101.649 Y1.409 E0.03544
G1 X-102.476 Y0.896 E0.0305
G1 X-102.948 Y0.438 E0.02062
G1 X-103.332 Y-0.064 E0.0198
G1 X-103.423 Y-0.226 E0.00583
G1 X-103.863 Y-1.649 E0.04671
G1 X-103.835 Y-15.196 E0.42475
G1 X-103.527 Y-16.23 E0.03384
G1 X-103.096 Y-16.927 E0.02568
G1 X-102.584 Y-17.47 E0.02339
G1 X-101.811 Y-17.998 E0.02936
G1 X-100.492 Y-18.386 E0.0431
G1 X-0.12 Y-18.384 E3.1471
G1 X-0.12 Y-18.007 F10800
G1 F1200
G1 X100.626 Y-18.005 E3.15881
G1 X101.266 Y-17.877 E0.02049
G1 X101.865 Y-17.617 E0.02046
G1 X102.323 Y-17.291 E0.01764
G1 X102.757 Y-16.861 E0.01915
G1 X103.091 Y-16.39 E0.0181
G1 X103.337 Y-15.844 E0.01876
G1 X103.486 Y-15.106 E0.02363
G1 X103.486 Y14.962 E0.94276
G1 X103.24 Y15.945 E0.03175
G1 X102.703 Y16.816 E0.0321
G1 X102.302 Y17.214 E0.01771
G1 X101.836 Y17.563 E0.01825
G1 X101.723 Y17.619 E0.00395
G1 X100.467 Y18.009 E0.04126
G1 X74.286 Y18.009 E0.82088
G1 X73.102 Y17.653 E0.03877
G1 X72.93 Y17.571 E0.00596
G1 X72.384 Y17.156 E0.0215
G1 X71.805 Y16.5 E0.02745
G1 X71.48 Y15.861 E0.02249
G1 X71.265 Y14.961 E0.02899
G1 X71.265 Y1.342 E0.42701
G1 X-48.101 Y1.342 E3.74261
G1 X-48.101 Y14.961 E0.42701
G1 X-48.315 Y15.861 E0.02899
G1 X-48.641 Y16.5 E0.02249
G1 X-49.22 Y17.156 E0.02745
G1 X-49.766 Y17.571 E0.0215
G1 X-49.937 Y17.653 E0.00596
G1 X-51.121 Y18.009 E0.03877
G1 X-77.275 Y18.009 E0.82002
G1 X-78.257 Y17.764 E0.03175
G1 X-79.129 Y17.226 E0.0321
G1 X-79.527 Y16.826 E0.01771
G1 X-79.868 Y16.374 E0.01773
G1 X-80.302 Y15.111 E0.0419
G1 X-80.321 Y1.342 E0.4317
G1 X-100.486 Y1.337 E0.63225
G1 X-101.474 Y1.074 E0.03206
G1 X-102.259 Y0.587 E0.02897
G1 X-102.674 Y0.179 E0.01824
G1 X-103.023 Y-0.28 E0.01809
G1 X-103.083 Y-0.39 E0.00393
G1 X-103.486 Y-1.677 E0.04228
G1 X-103.466 Y-15.116 E0.42137
G1 X-103.193 Y-16.054 E0.03061
G1 X-102.786 Y-16.712 E0.02427
G1 X-102.324 Y-17.196 E0.02096
G1 X-101.674 Y-17.646 E0.02479
G1 X-100.465 Y-18.009 E0.0396
G1 X-0.18 Y-18.007 E3.14435
G1 X-0.18 Y-17.63 F10800
G1 F1200
G1 X100.607 Y-17.628 E3.16011
G1 X101.134 Y-17.523 E0.01686
G1 X101.696 Y-17.279 E0.01919
G1 X102.09 Y-16.994 E0.01526
G1 X102.479 Y-16.605 E0.01722
G1 X102.772 Y-16.188 E0.01599
G1 X102.984 Y-15.71 E0.01639
G1 X103.109 Y-15.087 E0.01994
G1 X103.109 Y14.939 E0.94143
G1 X102.882 Y15.823 E0.02863
G1 X102.421 Y16.565 E0.02739
G1 X102.065 Y16.921 E0.0158
G1 X101.648 Y17.236 E0.01636
G1 X101.593 Y17.264 E0.00194
G1 X100.437 Y17.632 E0.03803
G1 X74.314 Y17.632 E0.81909
G1 X73.227 Y17.297 E0.03566
G1 X73.113 Y17.241 E0.00398
G1 X72.654 Y16.891 E0.01811
G1 X72.129 Y16.305 E0.02467
G1 X71.84 Y15.749 E0.01964
G1 X71.642 Y14.939 E0.02616
G1 X71.642 Y0.965 E0.43812
G1 X-48.478 Y0.965 E3.76626
G1 X-48.478 Y14.939 E0.43812
G1 X-48.676 Y15.749 E0.02616
G1 X-48.965 Y16.305 E0.01964
G1 X-49.489 Y16.891 E0.02467
G1 X-49.949 Y17.241 E0.01811
G1 X-50.063 Y17.297 E0.00398
G1 X-51.15 Y17.632 E0.03566
G1 X-77.251 Y17.632 E0.81839
G1 X-78.136 Y17.405 E0.02863
G1 X-78.877 Y16.944 E0.02739
G1 X-79.234 Y16.588 E0.0158
G1 X-79.548 Y16.172 E0.01636
G1 X-79.935 Y15.02 E0.0381
G1 X-79.945 Y0.965 E0.44066
G1 X-100.415 Y0.965 E0.64185
G1 X-101.3 Y0.739 E0.02862
G1 X-102.042 Y0.278 E0.02739
G1 X-102.398 Y-0.079 E0.0158
G1 X-102.712 Y-0.495 E0.01636
G1 X-102.741 Y-0.55 E0.00194
G1 X-103.109 Y-1.706 E0.03804
G1 X-103.096 Y-15.038 E0.41802
G1 X-102.858 Y-15.877 E0.02734
G1 X-102.476 Y-16.496 E0.02281
G1 X-102.066 Y-16.921 E0.01851
G1 X-101.535 Y-17.294 E0.02034
G1 X-100.437 Y-17.632 E0.03603
G1 X-0.24 Y-17.63 E3.14159
G1 X-0.24 Y-17.253 F10800
G1 F1200
G1 X100.588 Y-17.251 E3.16139
G1 X101.038 Y-17.158 E0.01442
G1 X101.525 Y-16.942 E0.01668
G1 X101.834 Y-16.717 E0.01201
G1 X102.2 Y-16.351 E0.01623
G1 X102.451 Y-15.988 E0.01383
G1 X102.63 Y-15.578 E0.01402
G1 X102.732 Y-15.068 E0.01631
G1 X102.732 Y14.915 E0.94011
G1 X102.546 Y15.65 E0.02377
G1 X102.139 Y16.314 E0.02441
G1 X101.808 Y16.645 E0.01468
G1 X101.447 Y16.915 E0.01413
G1 X100.408 Y17.255 E0.03428
G1 X74.343 Y17.255 E0.81724
G1 X73.356 Y16.943 E0.03245
G1 X73.301 Y16.914 E0.00194
G1 X72.921 Y16.625 E0.01497
G1 X72.451 Y16.107 E0.02192
G1 X72.2 Y15.635 E0.01678
G1 X72.019 Y14.915 E0.02327
G1 X72.019 Y0.588 E0.44921
G1 X-48.855 Y0.588 E3.7899
G1 X-48.855 Y14.915 E0.44921
G1 X-49.036 Y15.635 E0.02327
G1 X-49.287 Y16.107 E0.01678
G1 X-49.757 Y16.625 E0.02192
G1 X-50.137 Y16.914 E0.01497
G1 X-50.192 Y16.943 E0.00194
G1 X-51.179 Y17.255 E0.03245
G1 X-77.228 Y17.255 E0.81675
G1 X-77.963 Y17.069 E0.02377
G1 X-78.627 Y16.662 E0.02441
G1 X-78.958 Y16.331 E0.01468
G1 X-79.228 Y15.97 E0.01413
G1 X-79.568 Y14.931 E0.03428
G1 X-79.568 Y0.588 E0.4497
G1 X-100.392 Y0.588 E0.65294
G1 X-101.127 Y0.402 E0.02377
G1 X-101.791 Y-0.005 E0.02441
G1 X-102.122 Y-0.336 E0.01468
G1 X-102.392 Y-0.696 E0.01413
G1 X-102.732 Y-1.736 E0.03428
G1 X-102.726 Y-14.963 E0.41474
G1 X-102.524 Y-15.702 E0.02402
G1 X-102.166 Y-16.28 E0.0213
G1 X-101.808 Y-16.645 E0.01604
G1 X-101.393 Y-16.943 E0.01602
G1 X-100.408 Y-17.255 E0.03239
G1 X-0.3 Y-17.253 E3.1388
G1 X-0.3 Y-16.876 F10800
G1 F1200
G1 X100.567 Y-16.874 E3.16263
G1 X100.939 Y-16.794 E0.01191
G1 X101.351 Y-16.607 E0.0142
G1 X101.577 Y-16.44 E0.00882
G1 X101.921 Y-16.097 E0.01523
G1 X102.129 Y-15.791 E0.01159
G1 X102.275 Y-15.449 E0.01167
G1 X102.355 Y-15.05 E0.01275
G1 X102.355 Y14.891 E0.93877
G1 X102.188 Y15.528 E0.02063
G1 X101.857 Y16.063 E0.01974
G1 X101.551 Y16.369 E0.01357
G1 X101.247 Y16.594 E0.01187
G1 X100.378 Y16.878 E0.02866
G1 X74.373 Y16.878 E0.81537
G1 X73.503 Y16.594 E0.02869
G1 X73.187 Y16.357 E0.01239
G1 X72.771 Y15.907 E0.0192
G1 X72.56 Y15.517 E0.0139
G1 X72.396 Y14.891 E0.02029
G1 X72.396 Y0.211 E0.46028
G1 X-49.232 Y0.211 E3.81355
G1 X-49.232 Y14.891 E0.46028
G1 X-49.395 Y15.517 E0.02029
G1 X-49.607 Y15.907 E0.0139
G1 X-50.022 Y16.357 E0.0192
G1 X-50.339 Y16.594 E0.01239
G1 X-51.208 Y16.878 E0.02869
G1 X-77.204 Y16.878 E0.81506
G1 X-77.84 Y16.711 E0.02063
G1 X-78.375 Y16.38 E0.01974
G1 X-78.681 Y16.074 E0.01357
G1 X-78.907 Y15.77 E0.01187
G1 X-79.19 Y14.901 E0.02866
G1 X-79.19 Y0.211 E0.46059
G1 X-100.368 Y0.211 E0.664
G1 X-101.004 Y0.045 E0.02063
G1 X-101.54 Y-0.287 E0.01974
G1 X-101.845 Y-0.593 E0.01357
G1 X-102.071 Y-0.897 E0.01187
G1 X-102.355 Y-1.766 E0.02866
G1 X-102.355 Y-14.891 E0.41154
G1 X-102.188 Y-15.528 E0.02063
G1 X-101.857 Y-16.063 E0.01974
G1 X-101.551 Y-16.369 E0.01357
G1 X-101.247 Y-16.594 E0.01187
G1 X-100.378 Y-16.878 E0.02866
G1 X-0.36 Y-16.876 E3.13599
G1 X-0.36 Y-16.499 F10800
G1 F1200
G1 X100.547 Y-16.497 E3.16388
G1 X100.804 Y-16.441 E0.00823
G1 X101.146 Y-16.29 E0.01174
G1 X101.321 Y-16.163 E0.00679
G1 X101.641 Y-15.843 E0.01418
G1 X101.806 Y-15.597 E0.00928
G1 X101.92 Y-15.321 E0.00936
G1 X101.978 Y-15.031 E0.00928
G1 X101.978 Y14.866 E0.93741
G1 X101.832 Y15.402 E0.01741
G1 X101.575 Y15.811 E0.01515
G1 X101.294 Y16.092 E0.01245
G1 X101.048 Y16.273 E0.00958
G1 X100.348 Y16.501 E0.02308
G1 X74.402 Y16.501 E0.81351
G1 X73.702 Y16.272 E0.02309
G1 X73.45 Y16.086 E0.00985
G1 X73.089 Y15.702 E0.01651
G1 X72.917 Y15.396 E0.01102
G1 X72.773 Y14.866 E0.01722
G1 X72.773 Y-0.166 E0.47131
G1 X-49.609 Y-0.166 E3.8372
G1 X-49.609 Y14.866 E0.47131
G1 X-49.753 Y15.396 E0.01722
G1 X-49.925 Y15.702 E0.01102
G1 X-50.285 Y16.086 E0.01651
