; generated by SuperSlicer 2.4 on 2023-12-10 at 02:16:03 UTC


;
;

;
;
; 

; external perimeters extrusion width = 0.60mm
; perimeters extrusion width = 0.50mm
; infill extrusion width = 0.50mm
; solid infill extrusion width = 0.50mm
; top infill extrusion width = 0.45mm
; first layer extrusion width = 0.42mm

; object:{"name":"disc_shelf_M","id":"disc_shelf_M.stl id:0 copy 0","object_center":[0.000000,-0.000000,0.000000],"boundingbox_center":[0.000000,-0.000000,103.186264],"boundingbox_size":[181.384338,15.000000,206.372528]}
; plater:{"center":[0.000000,-0.000000,0.000000],"boundingbox_center":[0.000000,-0.000000,103.186264],"boundingbox_size":[181.384338,15.000000,206.372528]}

;TYPE:Custom
START_PRINT
M107
G21 ; set units to millimeters
G90 ; use absolute coordinates
M83 ; use relative distances for extrusion
; Filament gcode
;_TOOLCHANGE 0
M109 S200 ; set temperature and wait for it to be reached
M190 S60 ; set bed temperature and wait for it to be reached
M107
;LAYER_CHANGE
;Z:0.2
;HEIGHT:0.2
;BEFORE_LAYER_CHANGE
G92 E0
;0.2
G1 E-5 F3600
G1 Z0.2 F10800
;AFTER_LAYER_CHANGE
;0.2
M204 S1000
G1 X0 Y-22.186
G1 E5 F2400
;TYPE:Skirt
;WIDTH:0.52
G1 F1200
G1 X-91.399 Y-22.186 E3.62575
G1 X-92.545 Y-22.07 E0.04568
G1 X-94.515 Y-21.262 E0.08445
G1 X-101.7 Y-16.59 E0.34001
G1 X-102.77 Y-15.692 E0.0554
G1 X-103.904 Y-13.89 E0.08445
G1 X-104.301 Y-11.799 E0.08445
G1 X-104.301 Y11.799 E0.93608
G1 X-104.13 Y13.185 E0.0554
G1 X-103.238 Y15.118 E0.08445
G1 X-101.7 Y16.59 E0.08445
G1 X-94.515 Y21.262 E0.34001
G1 X-93.491 Y21.79 E0.04568
G1 X-91.399 Y22.186 E0.08445
G1 X92.076 Y22.186 E7.27832
G1 X94.358 Y21.711 E0.09247
G1 X96.117 Y20.512 E0.08445
G1 X102.073 Y14.556 E0.33413
G1 X103.351 Y12.606 E0.09247
G1 X103.747 Y10.515 E0.08445
G1 X103.747 Y-10.515 E0.83422
G1 X103.272 Y-12.797 E0.09247
G1 X102.073 Y-14.556 E0.08445
G1 X96.117 Y-20.512 E0.33413
G1 X94.167 Y-21.79 E0.09247
G1 X92.076 Y-22.186 E0.08445
G1 X0.06 Y-22.186 E3.6502
G1 X0.06 Y-21.709 F10800
G1 F1200
G1 X-91.399 Y-21.709 E3.62813
G1 X-94.255 Y-20.862 E0.11815
G1 X-101.44 Y-16.19 E0.34001
G1 X-102.299 Y-15.493 E0.04386
G1 X-103.427 Y-13.797 E0.08082
G1 X-103.823 Y-11.799 E0.08082
G1 X-103.823 Y11.799 E0.93608
G1 X-103.707 Y12.898 E0.04386
G1 X-102.9 Y14.769 E0.08082
G1 X-101.44 Y16.19 E0.08082
G1 X-94.255 Y20.862 E0.34001
G1 X-91.399 Y21.709 E0.11815
G1 X92.076 Y21.709 E7.27832
G1 X94.087 Y21.308 E0.08135
G1 X95.78 Y20.175 E0.08082
G1 X101.736 Y14.219 E0.33413
G1 X102.874 Y12.513 E0.08135
G1 X103.27 Y10.515 E0.08082
G1 X103.27 Y-10.515 E0.83422
G1 X102.869 Y-12.526 E0.08135
G1 X101.736 Y-14.219 E0.08082
G1 X95.78 Y-20.175 E0.33413
G1 X94.074 Y-21.313 E0.08135
G1 X92.076 Y-21.709 E0.08082
G1 X0.12 Y-21.709 E3.64782
G1 E-3.5 F3600
;WIPE_START
G1 F8640
G1 X-3.48 Y-21.709 E-1.425
;WIPE_END
G1 E-0.075 F3600
; acceleration to travel
M204 S1500
G1 X-0.584 Y-17.178 F10800
; decel to extrusion
M204 S1000
G1 X0.12 Y-16.077
; end travel
G1 E5 F2400
;WIDTH:0.42
G1 F1200
G1 X88.504 Y-16.08 E2.77121
G1 X90.548 Y-15.729 E0.06504
G1 X92.445 Y-14.978 E0.06396
G1 X94.71 Y-13.315 E0.08808
G1 X96.797 Y-10.355 E0.11358
G1 X97.109 Y-9.486 E0.02894
G1 X97.649 Y-6.977 E0.08047
G1 X97.527 Y7.929 E0.4674
G1 X96.708 Y10.529 E0.08547
G1 X95.671 Y12.217 E0.06212
G1 X94.3 Y13.683 E0.06291
G1 X91.694 Y15.321 E0.09652
G1 X88.683 Y16.081 E0.09738
G1 X-89.046 Y16.086 E5.57256
G1 X-91.466 Y15.569 E0.0776
G1 X-92.608 Y15.15 E0.03813
G1 X-95.621 Y12.965 E0.11669
G1 X-96.534 Y11.796 E0.0465
G1 X-97.285 Y10.523 E0.04635
G1 X-98.203 Y7.011 E0.11383
G1 X-98.097 Y-7.832 E0.46541
G1 X-97.372 Y-10.302 E0.0807
G1 X-96.407 Y-11.978 E0.06064
G1 X-95.131 Y-13.428 E0.06057
G1 X-93.465 Y-14.658 E0.06492
G1 X-92.13 Y-15.344 E0.04705
G1 X-89.171 Y-16.075 E0.09558
G1 X0.06 Y-16.077 E2.79777
G1 X0.06 Y-15.704 F10800
G1 F1200
G1 X88.456 Y-15.705 E2.7716
G1 X90.428 Y-15.371 E0.0627
G1 X92.284 Y-14.636 E0.06258
G1 X94.462 Y-13.03 E0.08485
G1 X96.451 Y-10.203 E0.10838
G1 X96.743 Y-9.394 E0.02698
G1 X97.272 Y-6.959 E0.07811
G1 X97.15 Y7.898 E0.46585
G1 X96.356 Y10.393 E0.08209
G1 X95.36 Y12.003 E0.05937
G1 X94.078 Y13.376 E0.05889
G1 X91.519 Y14.986 E0.09481
G1 X88.614 Y15.709 E0.09386
G1 X-89.026 Y15.709 E5.56977
G1 X-91.374 Y15.204 E0.07531
G1 X-92.453 Y14.805 E0.03607
G1 X-95.34 Y12.712 E0.11181
G1 X-96.215 Y11.594 E0.04451
G1 X-96.947 Y10.354 E0.04514
G1 X-97.825 Y6.989 E0.10906
G1 X-97.72 Y-7.803 E0.4638
G1 X-97.017 Y-10.173 E0.07751
G1 X-96.09 Y-11.773 E0.05796
G1 X-94.862 Y-13.164 E0.05819
G1 X-93.254 Y-14.345 E0.06256
G1 X-92.018 Y-14.983 E0.04359
G1 X-89.103 Y-15.704 E0.09417
G1 X0 Y-15.704 E2.79375
G1 X0 Y-15.33 F10800
G1 F1200
G1 X88.441 Y-15.328 E2.77299
G1 X90.307 Y-15.013 E0.05936
G1 X92.122 Y-14.294 E0.06119
G1 X94.213 Y-12.745 E0.08159
G1 X96.105 Y-10.051 E0.10322
G1 X96.377 Y-9.301 E0.02503
G1 X96.895 Y-6.941 E0.07574
G1 X96.773 Y7.866 E0.46429
G1 X96.004 Y10.256 E0.0787
G1 X95.071 Y11.76 E0.05551
G1 X93.856 Y13.071 E0.05603
G1 X91.398 Y14.628 E0.09123
G1 X88.591 Y15.332 E0.09074
G1 X-89.006 Y15.332 E5.56841
G1 X-91.281 Y14.838 E0.073
G1 X-92.298 Y14.46 E0.03401
G1 X-95.059 Y12.459 E0.10695
G1 X-95.911 Y11.372 E0.04329
G1 X-96.608 Y10.186 E0.04314
G1 X-97.448 Y6.967 E0.10431
G1 X-97.343 Y-7.774 E0.46218
G1 X-96.662 Y-10.044 E0.0743
G1 X-95.774 Y-11.566 E0.05528
G1 X-94.593 Y-12.898 E0.05581
G1 X-93.043 Y-14.032 E0.06022
G1 X-91.906 Y-14.622 E0.04015
G1 X-89.034 Y-15.332 E0.09276
G1 X-0.06 Y-15.33 E2.78973
G1 X-0.06 Y-14.953 F10800
G1 F1200
G1 X88.425 Y-14.951 E2.77437
G1 X90.224 Y-14.644 E0.05724
G1 X91.959 Y-13.953 E0.05856
G1 X93.963 Y-12.461 E0.07834
G1 X95.759 Y-9.899 E0.0981
G1 X96.012 Y-9.207 E0.02309
G1 X96.517 Y-6.923 E0.07335
G1 X96.396 Y7.834 E0.46271
G1 X95.653 Y10.117 E0.07528
G1 X94.761 Y11.545 E0.0528
G1 X93.633 Y12.766 E0.0521
G1 X91.276 Y14.27 E0.08765
G1 X88.567 Y14.955 E0.08761
G1 X-88.985 Y14.955 E5.56704
G1 X-91.187 Y14.472 E0.07067
G1 X-92.142 Y14.116 E0.03196
G1 X-94.779 Y12.205 E0.10211
G1 X-95.592 Y11.17 E0.04128
G1 X-96.27 Y10.017 E0.04193
G1 X-97.071 Y6.945 E0.09955
G1 X-96.966 Y-7.744 E0.46056
G1 X-96.308 Y-9.913 E0.07107
G1 X-95.458 Y-11.36 E0.05261
G1 X-94.325 Y-12.633 E0.05344
G1 X-92.832 Y-13.719 E0.05789
G1 X-91.793 Y-14.262 E0.03674
G1 X-89.011 Y-14.955 E0.0899
G1 X-0.12 Y-14.953 E2.78713
G1 X-0.12 Y-14.576 F10800
G1 F1200
G1 X88.409 Y-14.574 E2.77575
G1 X90.141 Y-14.276 E0.05511
G1 X91.796 Y-13.612 E0.05592
G1 X93.713 Y-12.177 E0.07509
G1 X95.414 Y-9.746 E0.09302
G1 X95.646 Y-9.113 E0.02115
G1 X96.14 Y-6.904 E0.07094
G1 X96.019 Y7.802 E0.46112
G1 X95.302 Y9.977 E0.07183
G1 X94.471 Y11.303 E0.04906
G1 X93.408 Y12.462 E0.04929
G1 X91.153 Y13.912 E0.08406
G1 X88.544 Y14.578 E0.08445
G1 X-88.965 Y14.578 E5.56566
G1 X-91.093 Y14.107 E0.06833
G1 X-91.986 Y13.772 E0.02991
G1 X-94.499 Y11.952 E0.09729
G1 X-95.288 Y10.947 E0.04006
G1 X-95.932 Y9.849 E0.03992
G1 X-96.694 Y6.923 E0.0948
G1 X-96.589 Y-7.714 E0.45892
G1 X-95.954 Y-9.781 E0.0678
G1 X-95.143 Y-11.152 E0.04995
G1 X-94.057 Y-12.366 E0.05108
G1 X-92.622 Y-13.406 E0.05557
G1 X-91.68 Y-13.902 E0.03338
G1 X-88.988 Y-14.578 E0.08702
G1 X-0.18 Y-14.576 E2.78452
G1 X-0.18 Y-14.199 F10800
G1 F1200
G1 X88.392 Y-14.197 E2.77712
G1 X90.057 Y-13.908 E0.05296
G1 X91.632 Y-13.272 E0.05327
G1 X93.463 Y-11.894 E0.07185
G1 X95.068 Y-9.592 E0.08798
G1 X95.281 Y-9.017 E0.01923
G1 X95.763 Y-6.886 E0.06852
G1 X95.642 Y7.769 E0.45951
G1 X94.951 Y9.836 E0.06834
G1 X94.161 Y11.088 E0.04641
G1 X93.183 Y12.159 E0.04547
G1 X91.03 Y13.554 E0.08046
G1 X88.52 Y14.201 E0.08126
G1 X-88.944 Y14.201 E5.56426
G1 X-90.998 Y13.742 E0.06597
G1 X-91.829 Y13.428 E0.02787
G1 X-94.219 Y11.698 E0.0925
G1 X-94.969 Y10.745 E0.03803
G1 X-95.593 Y9.68 E0.0387
G1 X-96.316 Y6.901 E0.09006
G1 X-96.212 Y-7.683 E0.45727
G1 X-95.601 Y-9.647 E0.0645
G1 X-94.828 Y-10.943 E0.04729
G1 X-93.79 Y-12.099 E0.04873
G1 X-92.412 Y-13.093 E0.05327
G1 X-91.565 Y-13.542 E0.03005
G1 X-88.965 Y-14.201 E0.08412
G1 X-0.24 Y-14.199 E2.7819
G1 X-0.24 Y-13.822 F10800
G1 F1200
G1 X88.376 Y-13.82 E2.77849
G1 X89.972 Y-13.54 E0.0508
G1 X91.467 Y-12.932 E0.05062
G1 X93.211 Y-11.611 E0.0686
G1 X94.723 Y-9.438 E0.083
G1 X94.916 Y-8.921 E0.01731
G1 X95.386 Y-6.867 E0.06607
G1 X95.266 Y7.736 E0.45787
G1 X94.601 Y9.694 E0.06483
G1 X93.871 Y10.847 E0.0428
G1 X92.957 Y11.856 E0.0427
G1 X90.905 Y13.197 E0.07684
G1 X88.496 Y13.824 E0.07805
G1 X-88.923 Y13.824 E5.56285
G1 X-90.902 Y13.377 E0.06359
G1 X-91.672 Y13.084 E0.02584
G1 X-93.939 Y11.444 E0.08773
G1 X-94.665 Y10.522 E0.0368
G1 X-95.255 Y9.512 E0.03666
G1 X-95.939 Y6.879 E0.08533
G1 X-95.836 Y-7.652 E0.45561
G1 X-95.248 Y-9.513 E0.06117
G1 X-94.515 Y-10.733 E0.04464
G1 X-93.524 Y-11.832 E0.04639
G1 X-92.202 Y-12.779 E0.05098
G1 X-91.45 Y-13.182 E0.02676
G1 X-88.941 Y-13.824 E0.08119
G1 X-0.3 Y-13.822 E2.77928
G1 X-0.3 Y-13.445 F10800
G1 F1200
G1 X88.36 Y-13.443 E2.77986
G1 X89.848 Y-13.183 E0.04738
G1 X91.302 Y-12.592 E0.0492
G1 X92.959 Y-11.329 E0.06533
G1 X94.379 Y-9.284 E0.07806
G1 X94.552 Y-8.824 E0.0154
G1 X95.008 Y-6.848 E0.0636
G1 X94.899 Y7.644 E0.45438
G1 X94.27 Y9.512 E0.06179
G1 X93.58 Y10.606 E0.04056
G1 X92.693 Y11.585 E0.04142
G1 X90.725 Y12.864 E0.0736
G1 X88.472 Y13.447 E0.07297
G1 X-88.902 Y13.447 E5.56144
G1 X-90.805 Y13.012 E0.06119
G1 X-91.514 Y12.741 E0.02382
G1 X-93.659 Y11.19 E0.08299
G1 X-94.346 Y10.32 E0.03474
G1 X-94.916 Y9.344 E0.03543
G1 X-95.562 Y6.857 E0.08059
G1 X-95.459 Y-7.621 E0.45394
G1 X-94.896 Y-9.376 E0.05781
G1 X-94.201 Y-10.522 E0.042
G1 X-93.258 Y-11.563 E0.04405
G1 X-91.993 Y-12.465 E0.04872
G1 X-91.333 Y-12.823 E0.02352
G1 X-88.917 Y-13.447 E0.07824
G1 X-0.36 Y-13.445 E2.77665
G1 X-0.36 Y-13.068 F10800
G1 F1200
G1 X88.343 Y-13.066 E2.78122
G1 X89.763 Y-12.815 E0.0452
G1 X91.136 Y-12.253 E0.04652
G1 X92.706 Y-11.048 E0.06207
G1 X94.034 Y-9.128 E0.07319
G1 X94.188 Y-8.726 E0.0135
G1 X94.631 Y-6.828 E0.06111
G1 X94.531 Y7.553 E0.45091
G1 X93.939 Y9.33 E0.05872
G1 X93.27 Y10.391 E0.03933
G1 X92.431 Y11.314 E0.03912
G1 X90.601 Y12.507 E0.06851
G1 X88.448 Y13.069 E0.06976
G1 X-88.881 Y13.069 E5.56001
G1 X-90.707 Y12.648 E0.05877
G1 X-91.356 Y12.398 E0.02181
G1 X-93.379 Y10.935 E0.07827
G1 X-94.042 Y10.097 E0.03351
G1 X-94.577 Y9.177 E0.03337
G1 X-95.185 Y6.835 E0.07587
G1 X-95.082 Y-7.589 E0.45226
G1 X-94.544 Y-9.239 E0.0544
G1 X-93.889 Y-10.31 E0.03938
G1 X-92.993 Y-11.294 E0.04173
G1 X-91.783 Y-12.151 E0.04647
G1 X-91.215 Y-12.464 E0.02033
G1 X-88.893 Y-13.069 E0.07525
G1 X-0.42 Y-13.068 E2.77401
G1 X-0.42 Y-12.691 F10800
G1 F1200
G1 X88.327 Y-12.689 E2.78258
G1 X89.677 Y-12.448 E0.043
G1 X90.969 Y-11.914 E0.04383
G1 X92.453 Y-10.767 E0.0588
G1 X93.691 Y-8.972 E0.06837
G1 X93.824 Y-8.627 E0.0116
G1 X94.254 Y-6.808 E0.0586
G1 X94.164 Y7.463 E0.44745
G1 X93.608 Y9.149 E0.05566
G1 X92.98 Y10.149 E0.03704
G1 X92.168 Y11.042 E0.03784
G1 X90.475 Y12.15 E0.06344
G1 X88.424 Y12.692 E0.06653
G1 X-88.859 Y12.692 E5.55857
G1 X-90.608 Y12.284 E0.05632
G1 X-91.197 Y12.055 E0.0198
G1 X-93.1 Y10.681 E0.07359
G1 X-93.722 Y9.895 E0.03143
G1 X-94.238 Y9.01 E0.03214
G1 X-94.808 Y6.813 E0.07116
G1 X-94.714 Y-7.501 E0.44879
G1 X-94.21 Y-9.062 E0.05143
G1 X-93.597 Y-10.071 E0.03701
G1 X-92.758 Y-10.999 E0.03923
G1 X-91.574 Y-11.837 E0.04548
G1 X-91.055 Y-12.122 E0.01858
G1 X-88.869 Y-12.692 E0.07083
G1 X-0.48 Y-12.691 E2.77138
G1 X-0.48 Y-12.314 F10800
G1 F1200
G1 X88.31 Y-12.312 E2.78393
G1 X89.59 Y-12.08 E0.04078
G1 X90.8 Y-11.576 E0.04113
G1 X92.198 Y-10.487 E0.05554
G1 X93.347 Y-8.815 E0.06364
G1 X93.46 Y-8.526 E0.00971
G1 X93.877 Y-6.787 E0.05607
G1 X93.797 Y7.374 E0.44401
G1 X93.276 Y8.968 E0.05258
G1 X92.67 Y9.934 E0.03578
G1 X91.905 Y10.77 E0.03551
G1 X90.348 Y11.794 E0.05842
G1 X88.399 Y12.315 E0.06327
G1 X-88.837 Y12.315 E5.55711
G1 X-90.508 Y11.92 E0.05385
G1 X-91.037 Y11.713 E0.01781
G1 X-92.82 Y10.426 E0.06894
G1 X-93.419 Y9.672 E0.03018
G1 X-93.899 Y8.843 E0.03005
G1 X-94.43 Y6.79 E0.06647
G1 X-94.346 Y-7.413 E0.44535
G1 X-93.876 Y-8.886 E0.04847
G1 X-93.305 Y-9.832 E0.03465
G1 X-92.523 Y-10.703 E0.03671
G1 X-91.365 Y-11.523 E0.04448
G1 X-90.894 Y-11.78 E0.01681
G1 X-88.845 Y-12.315 E0.06642
G1 X-0.54 Y-12.314 E2.76874
G1 X-0.54 Y-11.936 F10800
G1 F1200
G1 X88.293 Y-11.935 E2.78528
G1 X89.501 Y-11.713 E0.03854
G1 X90.631 Y-11.238 E0.03842
G1 X91.943 Y-10.209 E0.05228
G1 X93.005 Y-8.656 E0.05898
G1 X93.097 Y-8.424 E0.00782
G1 X93.5 Y-6.766 E0.0535
G1 X93.429 Y7.285 E0.44058
G1 X92.944 Y8.788 E0.04951
G1 X92.38 Y9.693 E0.03343
G1 X91.643 Y10.499 E0.03424
G1 X90.22 Y11.438 E0.05344
G1 X88.374 Y11.938 E0.05999
G1 X-88.815 Y11.938 E5.55563
G1 X-90.408 Y11.556 E0.05135
G1 X-90.877 Y11.371 E0.01582
G1 X-92.542 Y10.171 E0.06434
G1 X-93.099 Y9.471 E0.02807
G1 X-93.56 Y8.676 E0.02881
G1 X-94.053 Y6.768 E0.06179
G1 X-93.978 Y-7.327 E0.44194
G1 X-93.541 Y-8.711 E0.04551
G1 X-93.011 Y-9.594 E0.0323
G1 X-92.287 Y-10.408 E0.03415
G1 X-91.157 Y-11.209 E0.04345
G1 X-90.735 Y-11.437 E0.01504
G1 X-88.821 Y-11.938 E0.06204
G1 X-0.6 Y-11.936 E2.7661
G1 X-0.6 Y-11.559 F10800
G1 F1200
G1 X88.276 Y-11.558 E2.78663
G1 X89.374 Y-11.358 E0.03501
G1 X90.461 Y-10.9 E0.03697
G1 X91.686 Y-9.931 E0.04899
G1 X92.663 Y-8.495 E0.05443
G1 X92.734 Y-8.321 E0.00591
G1 X93.122 Y-6.744 E0.0509
G1 X93.061 Y7.198 E0.43717
G1 X92.611 Y8.608 E0.04641
G1 X92.069 Y9.478 E0.03215
G1 X91.381 Y10.227 E0.03188
G1 X90.092 Y11.082 E0.04851
G1 X88.349 Y11.561 E0.05668
G1 X-88.792 Y11.561 E5.55413
G1 X-90.305 Y11.193 E0.04882
G1 X-90.715 Y11.029 E0.01385
G1 X-92.263 Y9.916 E0.05977
G1 X-92.795 Y9.247 E0.02682
G1 X-93.221 Y8.51 E0.02668
G1 X-93.676 Y6.745 E0.05713
G1 X-93.61 Y-7.241 E0.43855
G1 X-93.206 Y-8.537 E0.04255
G1 X-92.717 Y-9.358 E0.02996
G1 X-92.052 Y-10.113 E0.03155
G1 X-90.948 Y-10.895 E0.0424
G1 X-90.576 Y-11.094 E0.01324
G1 X-88.796 Y-11.561 E0.05768
G1 X-0.66 Y-11.559 E2.76346
G1 X-0.66 Y-11.182 F10800
G1 F1200
G1 X88.258 Y-11.18 E2.78797
G1 X89.285 Y-10.991 E0.03274
G1 X90.29 Y-10.563 E0.03422
G1 X91.428 Y-9.654 E0.04569
G1 X92.322 Y-8.332 E0.05003
G1 X92.371 Y-8.215 E0.00398
G1 X92.745 Y-6.722 E0.04825
G1 X92.693 Y7.112 E0.43378
G1 X92.278 Y8.43 E0.04331
G1 X91.779 Y9.236 E0.02973
G1 X91.118 Y9.955 E0.03061
G1 X89.961 Y10.727 E0.04361
G1 X88.323 Y11.184 E0.05334
G1 X-88.77 Y11.184 E5.55261
G1 X-90.202 Y10.83 E0.04626
G1 X-90.553 Y10.688 E0.01188
G1 X-91.984 Y9.66 E0.05526
G1 X-92.476 Y9.046 E0.02466
G1 X-92.881 Y8.343 E0.02543
G1 X-93.299 Y6.723 E0.05247
G1 X-93.241 Y-7.157 E0.4352
G1 X-92.87 Y-8.364 E0.0396
G1 X-92.422 Y-9.123 E0.02764
G1 X-91.815 Y-9.818 E0.02891
G1 X-90.74 Y-10.58 E0.04132
G1 X-90.418 Y-10.751 E0.01143
G1 X-88.772 Y-11.184 E0.05336
G1 X-0.72 Y-11.182 E2.76082
G1 X-0.72 Y-10.805 F10800
G1 F1200
G1 X88.241 Y-10.803 E2.7893
G1 X89.195 Y-10.624 E0.03045
G1 X90.117 Y-10.227 E0.03147
G1 X91.17 Y-9.378 E0.0424
G1 X91.984 Y-8.164 E0.04585
G1 X92.01 Y-8.107 E0.00196
G1 X92.368 Y-6.7 E0.04552
G1 X92.324 Y7.028 E0.43041
G1 X91.945 Y8.252 E0.04019
G1 X91.468 Y9.022 E0.02841
G1 X90.857 Y9.683 E0.02822
G1 X89.83 Y10.372 E0.03878
G1 X88.297 Y10.807 E0.04997
G1 X-88.746 Y10.807 E5.55106
G1 X-90.097 Y10.468 E0.04366
G1 X-90.389 Y10.348 E0.00991
G1 X-91.706 Y9.404 E0.05079
G1 X-92.172 Y8.822 E0.02339
G1 X-92.541 Y8.178 E0.02327
G1 X-92.922 Y6.7 E0.04784
G1 X-92.872 Y-7.074 E0.43188
G1 X-92.533 Y-8.193 E0.03666
G1 X-92.126 Y-8.889 E0.02528
G1 X-91.546 Y-9.553 E0.02764
G1 X-90.533 Y-10.264 E0.03882
G1 X-90.261 Y-10.408 E0.00963
G1 X-88.748 Y-10.807 E0.04907
G1 X-0.78 Y-10.805 E2.75817
G1 X-0.78 Y-10.428 F10800
G1 F1200
G1 X88.223 Y-10.426 E2.79062
G1 X89.104 Y-10.257 E0.02811
G1 X89.943 Y-9.892 E0.0287
G1 X90.909 Y-9.104 E0.0391
G1 X91.653 Y-7.982 E0.04221
G1 X91.991 Y-6.677 E0.04227
G1 X91.955 Y6.944 E0.42707
G1 X91.612 Y8.074 E0.03703
G1 X91.157 Y8.808 E0.02706
G1 X90.595 Y9.41 E0.02581
G1 X89.697 Y10.018 E0.03403
G1 X88.27 Y10.43 E0.04656
G1 X-88.723 Y10.43 E5.54949
G1 X-89.99 Y10.106 E0.04102
G1 X-90.224 Y10.008 E0.00796
G1 X-91.429 Y9.148 E0.04641
G1 X-91.853 Y8.621 E0.02119
G1 X-92.202 Y8.012 E0.02201
G1 X-92.544 Y6.677 E0.04322
G1 X-92.503 Y-6.992 E0.42859
G1 X-92.196 Y-8.023 E0.03373
G1 X-91.829 Y-8.656 E0.02294
