; generated by SuperSlicer 2.4 on 2023-12-10 at 02:14:55 UTC


;
;

;
;
; 

; external perimeters extrusion width = 0.60mm
; perimeters extrusion width = 0.50mm
; infill extrusion width = 0.50mm
; solid infill extrusion width = 0.50mm
; top infill extrusion width = 0.45mm
; first layer extrusion width = 0.42mm

; object:{"name":"disc_shelf_R","id":"disc_shelf_R.stl id:0 copy 0","object_center":[0.000000,0.000000,0.000000],"boundingbox_center":[0.000000,0.000000,90.692169],"boundingbox_size":[206.372528,32.000000,181.384338]}
; plater:{"center":[0.000000,0.000000,0.000000],"boundingbox_center":[0.000000,0.000000,90.692169],"boundingbox_size":[206.372528,32.000000,181.384338]}

;TYPE:Custom
START_PRINT
M107
G21 ; set units to millimeters
G90 ; use absolute coordinates
M83 ; use relative distances for extrusion
; Filament gcode
;_TOOLCHANGE 0
M104 S200 ; set temperature
M109 S200 ; set temperature and wait for it to be reached
M190 S60 ; set bed temperature and wait for it to be reached
M107
;LAYER_CHANGE
;Z:0.2
;HEIGHT:0.2
;BEFORE_LAYER_CHANGE
G92 E0
;0.2
G1 E-5 F3600
G1 Z0.2 F10800
;AFTER_LAYER_CHANGE
;0.2
M204 S1000
G1 X0 Y-25.52
G1 E5 F2400
;TYPE:Skirt
;WIDTH:0.52
G1 F1200
G1 X-79.09 Y-25.52 E3.13743
G1 X-80.498 Y-25.343 E0.05632
G1 X-82.428 Y-24.443 E0.08445
G1 X-105.592 Y-7.777 E1.13204
G1 X-106.295 Y-7.179 E0.03662
G1 X-109.322 Y-4.152 E0.16982
G1 X-110.6 Y-2.202 E0.09247
G1 X-110.996 Y-0.11 E0.08445
G1 X-110.996 Y16.777 E0.66991
G1 X-110.521 Y19.059 E0.09247
G1 X-109.322 Y20.819 E0.08445
G1 X-106.295 Y23.845 E0.16982
G1 X-104.345 Y25.123 E0.09247
G1 X-102.254 Y25.52 E0.08445
G1 X105.281 Y25.52 E8.23275
G1 X107.75 Y24.958 E0.10046
G1 X109.465 Y23.697 E0.08445
G1 X110.6 Y21.896 E0.08445
G1 X110.996 Y19.804 E0.08445
G1 X110.996 Y-16.777 E1.45114
G1 X110.521 Y-19.059 E0.09247
G1 X109.322 Y-20.819 E0.08445
G1 X106.295 Y-23.845 E0.16982
G1 X104.345 Y-25.123 E0.09247
G1 X102.254 Y-25.52 E0.08445
G1 X0.06 Y-25.52 E4.05396
G1 X0.06 Y-25.042 F10800
G1 F1200
G1 X-79.09 Y-25.042 E3.13981
G1 X-80.295 Y-24.902 E0.04816
G1 X-82.149 Y-24.056 E0.08082
G1 X-105.313 Y-7.39 E1.13204
G1 X-105.958 Y-6.841 E0.03357
G1 X-108.985 Y-3.814 E0.16982
G1 X-110.123 Y-2.109 E0.08135
G1 X-110.519 Y-0.11 E0.08082
G1 X-110.519 Y16.777 E0.66991
G1 X-110.118 Y18.788 E0.08135
G1 X-108.985 Y20.481 E0.08082
G1 X-105.958 Y23.508 E0.16982
G1 X-104.252 Y24.646 E0.08135
G1 X-102.254 Y25.042 E0.08082
G1 X105.281 Y25.042 E8.23275
G1 X107.304 Y24.636 E0.08187
G1 X108.994 Y23.499 E0.08082
G1 X110.123 Y21.802 E0.08082
G1 X110.519 Y19.804 E0.08082
G1 X110.519 Y-16.777 E1.45114
G1 X110.118 Y-18.788 E0.08135
G1 X108.985 Y-20.481 E0.08082
G1 X105.958 Y-23.508 E0.16982
G1 X104.252 Y-24.646 E0.08135
G1 X102.254 Y-25.042 E0.08082
G1 X0.12 Y-25.042 E4.05157
G1 E-3.5 F3600
;WIPE_START
G1 F8640
G1 X-3.48 Y-25.042 E-1.425
;WIPE_END
G1 E-0.075 F3600
; acceleration to travel
M204 S1500
G1 X-0.584 Y-7.189 F10800
; decel to extrusion
M204 S1000
G1 X0.12 Y-2.851
; end travel
G1 E5 F2400
;WIDTH:0.42
G1 F1200
G1 X69.757 Y-2.851 E2.18341
G1 X69.771 Y-15.177 E0.38649
G1 X70.031 Y-16.29 E0.03584
G1 X70.524 Y-17.297 E0.03515
G1 X71.296 Y-18.203 E0.03731
G1 X72.222 Y-18.906 E0.03646
G1 X72.625 Y-19.085 E0.01383
G1 X74.179 Y-19.517 E0.05055
G1 X100.411 Y-19.517 E0.8225
G1 X101.214 Y-19.416 E0.02539
G1 X102.642 Y-18.831 E0.04836
G1 X103.812 Y-17.837 E0.04816
G1 X104.623 Y-16.549 E0.0477
G1 X104.994 Y-15.057 E0.04822
G1 X104.994 Y15.134 E0.94662
G1 X104.909 Y15.816 E0.02154
G1 X104.601 Y16.738 E0.03049
G1 X104.22 Y17.435 E0.0249
G1 X103.378 Y18.374 E0.03953
G1 X102.315 Y19.084 E0.0401
G1 X101.497 Y19.38 E0.02728
G1 X100.639 Y19.517 E0.02725
G1 X-100.524 Y19.517 E6.30731
G1 X-101.764 Y19.244 E0.03981
G1 X-102.734 Y18.776 E0.03378
G1 X-103.674 Y17.983 E0.03856
G1 X-104.238 Y17.283 E0.02819
G1 X-104.557 Y16.667 E0.02174
G1 X-104.994 Y15.095 E0.05114
G1 X-104.994 Y1.62 E0.42252
G1 X-104.718 Y0.368 E0.04018
G1 X-104.148 Y-0.743 E0.03915
G1 X-103.406 Y-1.582 E0.03513
G1 X-102.527 Y-2.24 E0.03441
G1 X-102.125 Y-2.419 E0.0138
G1 X-100.572 Y-2.851 E0.05055
G1 X-81.83 Y-2.851 E0.58766
G1 X-81.815 Y-15.177 E0.38649
G1 X-81.555 Y-16.291 E0.03584
G1 X-81.089 Y-17.258 E0.03367
G1 X-80.295 Y-18.197 E0.03856
G1 X-79.595 Y-18.761 E0.02819
G1 X-78.979 Y-19.08 E0.02175
G1 X-77.407 Y-19.517 E0.05115
G1 X-51.079 Y-19.514 E0.82552
G1 X-50.052 Y-19.324 E0.03274
G1 X-49.048 Y-18.897 E0.03422
G1 X-47.914 Y-17.992 E0.04547
G1 X-47.092 Y-16.827 E0.04471
G1 X-46.646 Y-15.452 E0.04531
G1 X-46.596 Y-2.851 E0.39511
G1 X0.06 Y-2.851 E1.46287
G1 X0.06 Y-2.474 F10800
G1 F1200
G1 X70.134 Y-2.474 E2.19711
G1 X70.143 Y-15.113 E0.39629
G1 X70.394 Y-16.184 E0.0345
G1 X70.826 Y-17.071 E0.03094
G1 X71.57 Y-17.943 E0.03593
G1 X72.397 Y-18.571 E0.03257
G1 X72.741 Y-18.726 E0.01185
G1 X74.205 Y-19.14 E0.04768
G1 X100.399 Y-19.14 E0.82131
G1 X101.142 Y-19.045 E0.02349
G1 X102.422 Y-18.524 E0.04333
G1 X103.51 Y-17.61 E0.04456
G1 X104.265 Y-16.427 E0.04397
G1 X104.617 Y-15.034 E0.04508
G1 X104.617 Y15.122 E0.94552
G1 X104.537 Y15.749 E0.01982
G1 X104.249 Y16.602 E0.0282
G1 X103.9 Y17.234 E0.02264
G1 X103.114 Y18.103 E0.03676
G1 X102.165 Y18.737 E0.03579
G1 X101.385 Y19.019 E0.026
G1 X100.624 Y19.14 E0.02417
G1 X-100.503 Y19.14 E6.30619
G1 X-101.66 Y18.881 E0.03717
G1 X-102.548 Y18.448 E0.03097
G1 X-103.416 Y17.707 E0.03577
G1 X-103.932 Y17.062 E0.02592
G1 X-104.199 Y16.546 E0.01822
G1 X-104.617 Y15.069 E0.04811
G1 X-104.617 Y1.64 E0.42105
G1 X-104.355 Y0.475 E0.03747
G1 X-103.824 Y-0.549 E0.03614
G1 X-103.164 Y-1.293 E0.03119
G1 X-102.353 Y-1.904 E0.03186
G1 X-102.009 Y-2.06 E0.01183
G1 X-100.546 Y-2.474 E0.04768
G1 X-81.453 Y-2.474 E0.59865
G1 X-81.443 Y-15.113 E0.39629
G1 X-81.193 Y-16.184 E0.0345
G1 X-80.76 Y-17.071 E0.03093
G1 X-80.02 Y-17.939 E0.03577
G1 X-79.374 Y-18.455 E0.02592
G1 X-78.858 Y-18.722 E0.01822
G1 X-77.381 Y-19.14 E0.04812
G1 X-51.096 Y-19.137 E0.82416
G1 X-50.142 Y-18.957 E0.03044
G1 X-49.22 Y-18.56 E0.03147
G1 X-48.172 Y-17.715 E0.04223
G1 X-47.418 Y-16.634 E0.04132
G1 X-47.014 Y-15.365 E0.04175
G1 X-46.972 Y-2.474 E0.40421
G1 X-0 Y-2.474 E1.47278
G1 X-0 Y-2.097 F10800
G1 F1200
G1 X70.511 Y-2.097 E2.21081
G1 X70.515 Y-15.048 E0.40608
G1 X70.756 Y-16.077 E0.03314
G1 X71.154 Y-16.882 E0.02816
G1 X71.842 Y-17.682 E0.03308
G1 X72.573 Y-18.237 E0.02876
G1 X72.859 Y-18.368 E0.00988
G1 X74.231 Y-18.763 E0.04476
G1 X100.387 Y-18.763 E0.8201
G1 X101.069 Y-18.674 E0.02156
G1 X102.251 Y-18.186 E0.04008
G1 X103.244 Y-17.341 E0.04089
G1 X103.929 Y-16.252 E0.04035
G1 X104.24 Y-15.01 E0.04013
G1 X104.24 Y15.11 E0.94441
G1 X104.166 Y15.682 E0.01808
G1 X103.898 Y16.464 E0.0259
G1 X103.581 Y17.032 E0.02039
G1 X102.885 Y17.804 E0.03261
G1 X102.013 Y18.391 E0.03294
G1 X101.307 Y18.65 E0.02359
G1 X100.609 Y18.763 E0.02219
G1 X-100.482 Y18.763 E6.30505
G1 X-101.554 Y18.518 E0.03449
G1 X-102.359 Y18.12 E0.02816
G1 X-103.156 Y17.433 E0.03299
G1 X-103.625 Y16.842 E0.02368
G1 X-103.842 Y16.423 E0.01477
G1 X-104.24 Y15.043 E0.04505
G1 X-104.24 Y1.662 E0.41955
G1 X-103.993 Y0.583 E0.03471
G1 X-103.502 Y-0.352 E0.03312
G1 X-102.896 Y-1.027 E0.02843
G1 X-102.178 Y-1.57 E0.02823
G1 X-101.891 Y-1.701 E0.00987
G1 X-100.519 Y-2.097 E0.04476
G1 X-81.076 Y-2.097 E0.60964
G1 X-81.071 Y-15.048 E0.40608
G1 X-80.831 Y-16.077 E0.03314
G1 X-80.433 Y-16.882 E0.02816
G1 X-79.746 Y-17.679 E0.03299
G1 X-79.154 Y-18.149 E0.02368
G1 X-78.736 Y-18.365 E0.01477
G1 X-77.355 Y-18.763 E0.04506
G1 X-51.114 Y-18.76 E0.82276
G1 X-50.234 Y-18.591 E0.02811
G1 X-49.395 Y-18.225 E0.0287
G1 X-48.431 Y-17.44 E0.03898
G1 X-47.744 Y-16.444 E0.03793
G1 X-47.383 Y-15.28 E0.0382
G1 X-47.348 Y-2.097 E0.41337
G1 X-0.06 Y-2.097 E1.48269
G1 X-0.06 Y-1.72 F10800
G1 F1200
G1 X70.888 Y-1.72 E2.22451
G1 X70.888 Y-14.983 E0.41588
G1 X71.118 Y-15.97 E0.03177
G1 X71.48 Y-16.692 E0.02533
G1 X72.114 Y-17.419 E0.03025
G1 X72.75 Y-17.903 E0.02507
G1 X72.979 Y-18.01 E0.00792
G1 X74.258 Y-18.386 E0.0418
G1 X100.374 Y-18.386 E0.81886
G1 X100.995 Y-18.304 E0.01961
G1 X102.078 Y-17.85 E0.03683
G1 X102.941 Y-17.114 E0.03556
G1 X103.572 Y-16.13 E0.03666
G1 X103.863 Y-14.987 E0.03697
G1 X103.863 Y15.098 E0.94328
G1 X103.794 Y15.613 E0.01632
G1 X103.547 Y16.324 E0.02358
G1 X103.263 Y16.828 E0.01814
G1 X102.621 Y17.533 E0.02991
G1 X101.861 Y18.045 E0.02874
G1 X101.228 Y18.281 E0.02119
G1 X100.593 Y18.386 E0.02016
G1 X-100.46 Y18.386 E6.30388
G1 X-101.447 Y18.156 E0.03177
G1 X-102.169 Y17.794 E0.02533
G1 X-102.895 Y17.161 E0.0302
G1 X-103.318 Y16.623 E0.02146
G1 X-103.485 Y16.3 E0.01141
G1 X-103.863 Y15.016 E0.04196
G1 X-103.863 Y1.683 E0.41803
G1 X-103.631 Y0.692 E0.03191
G1 X-103.18 Y-0.154 E0.03009
G1 X-102.629 Y-0.761 E0.02569
G1 X-102 Y-1.237 E0.02472
G1 X-101.771 Y-1.343 E0.00791
G1 X-100.492 Y-1.72 E0.0418
G1 X-80.699 Y-1.72 E0.62062
G1 X-80.699 Y-14.983 E0.41588
G1 X-80.468 Y-15.97 E0.03177
G1 X-80.106 Y-16.692 E0.02533
G1 X-79.473 Y-17.418 E0.0302
G1 X-78.935 Y-17.841 E0.02146
G1 X-78.612 Y-18.009 E0.01141
G1 X-77.328 Y-18.386 E0.04197
G1 X-51.132 Y-18.383 E0.82135
G1 X-50.327 Y-18.225 E0.02574
G1 X-49.571 Y-17.891 E0.02592
G1 X-48.691 Y-17.166 E0.03573
G1 X-48.072 Y-16.255 E0.03452
G1 X-47.751 Y-15.197 E0.03466
G1 X-47.724 Y-1.72 E0.42259
G1 X-0.12 Y-1.72 E1.49261
G1 X-0.12 Y-1.342 F10800
G1 F1200
G1 X71.265 Y-1.342 E2.23822
G1 X71.265 Y-14.961 E0.42701
G1 X71.48 Y-15.861 E0.02899
G1 X71.805 Y-16.5 E0.02249
G1 X72.384 Y-17.156 E0.02745
G1 X72.93 Y-17.571 E0.0215
G1 X73.102 Y-17.653 E0.00596
G1 X74.286 Y-18.009 E0.03877
G1 X100.362 Y-18.009 E0.8176
G1 X100.919 Y-17.934 E0.01762
G1 X101.903 Y-17.514 E0.03354
G1 X102.673 Y-16.847 E0.03195
G1 X103.237 Y-15.954 E0.03312
G1 X103.486 Y-14.964 E0.03201
G1 X103.486 Y15.085 E0.94215
G1 X103.423 Y15.543 E0.01451
G1 X103.197 Y16.182 E0.02125
G1 X102.946 Y16.623 E0.01589
G1 X102.359 Y17.261 E0.02722
G1 X101.707 Y17.7 E0.02463
G1 X101.146 Y17.912 E0.01879
G1 X100.577 Y18.009 E0.0181
G1 X-100.438 Y18.009 E6.30269
G1 X-101.337 Y17.794 E0.02899
G1 X-101.976 Y17.468 E0.02249
G1 X-102.632 Y16.89 E0.02743
G1 X-103.01 Y16.405 E0.01927
G1 X-103.129 Y16.174 E0.00814
G1 X-103.486 Y14.988 E0.03883
G1 X-103.486 Y1.705 E0.41647
G1 X-103.27 Y0.803 E0.02908
G1 X-102.885 Y0.082 E0.02564
G1 X-102.361 Y-0.494 E0.02442
G1 X-101.82 Y-0.905 E0.02129
G1 X-101.649 Y-0.987 E0.00595
G1 X-100.465 Y-1.342 E0.03877
G1 X-80.322 Y-1.342 E0.63158
G1 X-80.322 Y-14.961 E0.42701
G1 X-80.107 Y-15.861 E0.02899
G1 X-79.781 Y-16.5 E0.02249
G1 X-79.202 Y-17.156 E0.02743
G1 X-78.717 Y-17.533 E0.01927
G1 X-78.487 Y-17.653 E0.00814
G1 X-77.3 Y-18.009 E0.03884
G1 X-51.151 Y-18.005 E0.8199
G1 X-50.422 Y-17.859 E0.02333
G1 X-49.749 Y-17.557 E0.02313
G1 X-48.954 Y-16.893 E0.03247
G1 X-48.401 Y-16.069 E0.03111
G1 X-48.121 Y-15.117 E0.03114
G1 X-48.101 Y-1.342 E0.43188
G1 X-0.18 Y-1.342 E1.50253
G1 X-0.18 Y-0.965 F10800
G1 F1200
G1 X71.642 Y-0.965 E2.25192
G1 X71.642 Y-14.939 E0.43812
G1 X71.84 Y-15.749 E0.02616
G1 X72.129 Y-16.305 E0.01964
G1 X72.654 Y-16.891 E0.02467
G1 X73.113 Y-17.241 E0.01811
G1 X73.227 Y-17.297 E0.00398
G1 X74.314 Y-17.632 E0.03566
G1 X100.349 Y-17.632 E0.81631
G1 X100.842 Y-17.564 E0.0156
G1 X101.726 Y-17.18 E0.03022
G1 X102.404 Y-16.582 E0.02834
G1 X102.879 Y-15.831 E0.02787
G1 X103.109 Y-14.94 E0.02886
G1 X103.109 Y15.072 E0.94099
G1 X103.053 Y15.472 E0.01267
G1 X102.848 Y16.039 E0.01889
G1 X102.631 Y16.415 E0.01364
G1 X102.097 Y16.989 E0.02455
G1 X101.552 Y17.356 E0.02062
G1 X101.063 Y17.544 E0.01641
G1 X100.561 Y17.632 E0.01599
G1 X-100.415 Y17.632 E6.30147
G1 X-101.226 Y17.433 E0.02616
G1 X-101.782 Y17.145 E0.01964
G1 X-102.368 Y16.62 E0.02467
G1 X-102.701 Y16.188 E0.0171
G1 X-102.774 Y16.047 E0.00498
G1 X-103.109 Y14.96 E0.03566
G1 X-103.109 Y1.728 E0.41487
G1 X-102.91 Y0.917 E0.02619
G1 X-102.565 Y0.283 E0.02263
G1 X-102.095 Y-0.226 E0.02172
G1 X-101.638 Y-0.575 E0.01803
G1 X-101.524 Y-0.631 E0.00398
G1 X-100.437 Y-0.965 E0.03566
G1 X-79.945 Y-0.965 E0.64251
G1 X-79.945 Y-14.939 E0.43812
G1 X-79.746 Y-15.749 E0.02616
G1 X-79.457 Y-16.305 E0.01964
G1 X-78.933 Y-16.891 E0.02467
G1 X-78.501 Y-17.224 E0.0171
G1 X-78.359 Y-17.297 E0.00498
G1 X-77.272 Y-17.632 E0.03567
G1 X-51.17 Y-17.628 E0.81843
G1 X-50.557 Y-17.506 E0.0196
G1 X-49.927 Y-17.224 E0.02163
G1 X-49.218 Y-16.623 E0.02914
G1 X-48.732 Y-15.886 E0.02769
G1 X-48.491 Y-15.039 E0.02763
G1 X-48.478 Y-0.965 E0.44125
G1 X-0.24 Y-0.965 E1.51246
G1 X-0.24 Y-0.588 F10800
G1 F1200
G1 X72.019 Y-0.588 E2.26563
G1 X72.019 Y-14.915 E0.44921
G1 X72.2 Y-15.635 E0.02327
G1 X72.451 Y-16.107 E0.01678
G1 X72.921 Y-16.625 E0.02192
G1 X73.301 Y-16.914 E0.01497
G1 X73.356 Y-16.943 E0.00194
G1 X74.343 Y-17.255 E0.03245
G1 X100.335 Y-17.255 E0.81498
G1 X100.764 Y-17.194 E0.01356
G1 X101.501 Y-16.876 E0.02517
G1 X102.102 Y-16.355 E0.02494
G1 X102.522 Y-15.706 E0.02426
G1 X102.732 Y-14.915 E0.02564
G1 X102.732 Y15.058 E0.93979
G1 X102.682 Y15.398 E0.01077
G1 X102.5 Y15.893 E0.01652
G1 X102.316 Y16.206 E0.0114
G1 X101.837 Y16.715 E0.02191
G1 X101.394 Y17.013 E0.01673
G1 X100.978 Y17.176 E0.01403
G1 X100.544 Y17.255 E0.01383
G1 X-100.392 Y17.255 E6.30021
G1 X-101.111 Y17.073 E0.02327
G1 X-101.584 Y16.823 E0.01678
G1 X-102.102 Y16.353 E0.02192
G1 X-102.391 Y15.973 E0.01497
G1 X-102.419 Y15.918 E0.00194
G1 X-102.732 Y14.931 E0.03245
G1 X-102.732 Y1.751 E0.41323
G1 X-102.55 Y1.032 E0.02327
G1 X-102.272 Y0.521 E0.01823
G1 X-101.829 Y0.042 E0.02047
G1 X-101.449 Y-0.247 E0.01497
G1 X-101.394 Y-0.276 E0.00194
G1 X-100.408 Y-0.588 E0.03245
G1 X-79.568 Y-0.588 E0.65343
G1 X-79.568 Y-14.915 E0.44921
G1 X-79.386 Y-15.635 E0.02327
G1 X-79.135 Y-16.107 E0.01678
G1 X-78.665 Y-16.625 E0.02192
G1 X-78.285 Y-16.914 E0.01497
G1 X-78.23 Y-16.943 E0.00194
G1 X-77.243 Y-17.255 E0.03245
G1 X-51.189 Y-17.251 E0.81692
G1 X-50.653 Y-17.141 E0.01714
G1 X-50.108 Y-16.892 E0.0188
G1 X-49.484 Y-16.355 E0.02581
G1 X-49.064 Y-15.705 E0.02425
G1 X-48.861 Y-14.963 E0.02413
G1 X-48.855 Y-0.588 E0.45071
G1 X-0.3 Y-0.588 E1.5224
G1 X-0.3 Y-0.211 F10800
G1 F1200
G1 X72.396 Y-0.211 E2.27933
G1 X72.396 Y-14.891 E0.46028
G1 X72.56 Y-15.517 E0.02029
G1 X72.771 Y-15.907 E0.0139
G1 X73.187 Y-16.357 E0.0192
G1 X73.503 Y-16.594 E0.01239
G1 X74.373 Y-16.878 E0.02869
G1 X100.322 Y-16.878 E0.81361
G1 X100.683 Y-16.825 E0.01147
G1 X101.322 Y-16.543 E0.02188
G1 X101.832 Y-16.091 E0.02137
G1 X102.188 Y-15.528 E0.02087
G1 X102.355 Y-14.891 E0.02066
G1 X102.355 Y15.044 E0.93859
G1 X102.312 Y15.322 E0.00882
G1 X102.153 Y15.744 E0.01414
G1 X102.003 Y15.994 E0.00915
G1 X101.578 Y16.44 E0.0193
G1 X101.235 Y16.67 E0.01296
G1 X100.89 Y16.809 E0.01168
G1 X100.526 Y16.878 E0.01159
G1 X-100.368 Y16.878 E6.2989
G1 X-100.994 Y16.714 E0.02029
G1 X-101.383 Y16.503 E0.0139
G1 X-101.833 Y16.087 E0.0192
G1 X-102.071 Y15.771 E0.01239
G1 X-102.355 Y14.901 E0.02869
G1 X-102.355 Y1.776 E0.41154
G1 X-102.191 Y1.149 E0.02029
G1 X-101.979 Y0.76 E0.0139
G1 X-101.564 Y0.31 E0.0192
G1 X-101.248 Y0.073 E0.01239
G1 X-100.378 Y-0.211 E0.02869
G1 X-79.19 Y-0.211 E0.66432
G1 X-79.19 Y-14.891 E0.46028
G1 X-79.027 Y-15.517 E0.02029
G1 X-78.815 Y-15.907 E0.0139
G1 X-78.4 Y-16.357 E0.0192
G1 X-78.084 Y-16.594 E0.01239
G1 X-77.214 Y-16.878 E0.0287
G1 X-51.209 Y-16.874 E0.81537
G1 X-50.753 Y-16.777 E0.01461
G1 X-50.292 Y-16.562 E0.01595
G1 X-49.753 Y-16.089 E0.02246
G1 X-49.399 Y-15.528 E0.02081
G1 X-49.232 Y-14.891 E0.02066
G1 X-49.232 Y-0.211 E0.46028
G1 X-0.36 Y-0.211 E1.53234
G1 X-0.36 Y0.166 F10800
G1 F1200
G1 X72.773 Y0.166 E2.29303
G1 X72.773 Y-14.866 E0.47131
G1 X72.917 Y-15.396 E0.01722
G1 X73.089 Y-15.702 E0.01102
G1 X73.45 Y-16.086 E0.01651
G1 X73.702 Y-16.272 E0.00985
G1 X74.402 Y-16.501 E0.02309
G1 X100.307 Y-16.501 E0.81223
G1 X100.602 Y-16.456 E0.00935
G1 X101.094 Y-16.241 E0.01682
G1 X101.562 Y-15.826 E0.01961
G1 X101.831 Y-15.402 E0.01576
G1 X101.978 Y-14.866 E0.01742
G1 X101.978 Y15.029 E0.93733
G1 X101.943 Y15.243 E0.00679
G1 X101.808 Y15.592 E0.01174
G1 X101.693 Y15.78 E0.00691
G1 X101.321 Y16.163 E0.01673
G1 X101.074 Y16.329 E0.00935
G1 X100.798 Y16.443 E0.00936
G1 X100.508 Y16.501 E0.00928
G1 X-100.343 Y16.501 E6.29753
G1 X-100.873 Y16.357 E0.01722
G1 X-101.179 Y16.185 E0.01102
