; HEADER_BLOCK_START
; generated by OrcaSlicer 1.9.0 on 2024-02-10 at 00:16:12
; total layer number: 202
; filament_density: 1.24
; filament_diameter: 1.75
; max_z_height: 40.40
; HEADER_BLOCK_END

; THUMBNAIL_BLOCK_START

;
; THUMBNAIL_BLOCK_END

; external perimeters extrusion width = 0.40mm
; perimeters extrusion width = 0.45mm
; infill extrusion width = 0.45mm
; solid infill extrusion width = 0.40mm
; top infill extrusion width = 0.40mm
; support material extrusion width = 0.40mm
; first layer extrusion width = 0.50mm

; EXECUTABLE_BLOCK_START
EXCLUDE_OBJECT_DEFINE NAME=ElectricScrewDriverHanger-Pegboard.obj_id_0_copy_0 CENTER=110,110 POLYGON=[[68.5,89.3757],[68.5682,88.8581],[68.7679,88.3757],[69.0858,87.9615],[69.5,87.6437],[69.9824,87.4439],[70.5,87.3757],[149.5,87.3757],[150.018,87.4439],[150.5,87.6437],[150.914,87.9615],[151.232,88.3757],[151.432,88.8581],[151.5,89.3757],[151.5,120.376],[136.784,132.143],[136.291,132.407],[135.755,132.569],[135.199,132.624],[84.2845,132.624],[83.7285,132.569],[83.1925,132.407],[82.6995,132.143],[82.2675,131.788],[68.5,120.376],[68.5,89.3757]]
M73 P0 R119
;TYPE:Custom
M190 S60
M109 S210
PRINT_START EXTRUDER=210 BED=60
START_PRINT
G90
G21
M83 ; use relative distances for extrusion
; filament start gcode
M106 S0
;LAYER_CHANGE
;Z:0.2
;HEIGHT:0.2
;BEFORE_LAYER_CHANGE
;0.2
G92 E0

G10 ; retract
;AFTER_LAYER_CHANGE
;0.2
;_SET_FAN_SPEED_CHANGING_LAYER
SET_VELOCITY_LIMIT ACCEL=500 ACCEL_TO_DECEL=250
; printing object ElectricScrewDriverHanger-Pegboard.obj id:0 copy 0
EXCLUDE_OBJECT_START NAME=ElectricScrewDriverHanger-Pegboard.obj_id_0_copy_0
G1 Z.4 F10800
G1 X89.567 Y121.515
G1 Z.2
G11 ; unretract
;TYPE:Support
;WIDTH:0.5
G1 F1800
G1 X89.987 Y122.368 E.03541
G1 X90.251 Y123.283 E.03548
G1 X90.347 Y124.233 E.03556
G1 X90.273 Y125.187 E.03564
G1 X90.03 Y126.114 E.03571
G1 X89.623 Y126.985 E.03578
G1 X89.067 Y127.769 E.03584
G1 X88.377 Y128.442 E.03589
G1 X87.576 Y128.98 E.03594
G1 X86.69 Y129.365 E.03597
G1 X85.749 Y129.584 E.03599
G1 X84.783 Y129.628 E.036
G1 X83.826 Y129.497 E.036
G1 X83.561 Y129.409 E.01039
G1 X83.465 Y129.45 E.00387
G1 X82.523 Y129.666 E.03599
G1 X81.558 Y129.709 E.03598
G1 X80.601 Y129.58 E.03599
G1 X79.682 Y129.282 E.03598
G1 X78.831 Y128.824 E.03599
G1 X78.076 Y128.222 E.03598
G1 X77.44 Y127.494 E.03599
G1 X76.944 Y126.665 E.03598
G1 X76.605 Y125.76 E.03599
G1 X76.433 Y124.81 E.03598
G1 X76.433 Y123.844 E.03598
G1 X76.606 Y122.893 E.03598
G1 X76.945 Y121.989 E.03597
G1 X77.441 Y121.16 E.03597
G1 X77.602 Y120.976 E.00913
G1 X89.168 Y120.976 E.43078
G1 X89.526 Y121.46 E.02243
G1 X89.685 Y126.366 F10800
G1 F1800
G1 X89.685 Y122.806 E.13259
G1 X89.602 Y122.517 E.0112
G1 X89.177 Y121.681 E.03493
G1 X89.177 Y126.902 E.19448
G1 X88.753 Y127.501 E.02734
G1 X88.67 Y127.582 E.00432
G1 X88.67 Y121.387 E.23073
G1 X88.162 Y121.387 E.01892
G1 X88.162 Y128.077 E.24918
G1 X87.654 Y128.432 E.02308
G1 X87.654 Y121.387 E.26241
G1 X87.146 Y121.387 E.01892
G1 X87.146 Y128.719 E.27307
G1 X86.638 Y128.939 E.02063
G1 X86.638 Y121.387 E.28129
G1 X86.13 Y121.387 E.01892
G1 X86.13 Y129.073 E.28627
G1 X85.622 Y129.178 E.01931
G1 X85.622 Y121.387 E.29017
G1 X85.115 Y121.387 E.01892
G1 X85.115 Y129.201 E.29104
G1 X84.802 Y129.215 E.01166
G1 X84.607 Y129.189 E.00734
G1 X84.607 Y121.387 E.29057
G1 X84.099 Y121.387 E.01892
G1 X84.099 Y129.119 E.28798
G1 X83.919 Y129.094 E.00677
G1 X83.591 Y128.986 E.01285
G1 X83.591 Y121.387 E.28303
G1 X83.083 Y121.387 E.01892
G1 X83.083 Y129.116 E.28786
G1 X82.575 Y129.232 E.0194
G1 X82.575 Y121.387 E.29218
G1 X82.067 Y121.387 E.01892
G1 X82.067 Y129.274 E.29378
G1 X81.56 Y129.294 E.01893
G1 X81.56 Y121.387 E.29452
G1 X81.052 Y121.387 E.01892
G1 X81.052 Y129.226 E.29196
G1 X80.693 Y129.177 E.01349
G1 X80.544 Y129.129 E.00583
G1 X80.544 Y121.387 E.28836
G1 X80.036 Y121.387 E.01892
G1 X80.036 Y128.964 E.28221
G1 X79.844 Y128.902 E.00751
G1 X79.528 Y128.732 E.01337
G1 X79.528 Y121.387 E.27356
G1 X79.02 Y121.387 E.01892
G1 X79.02 Y128.449 E.26302
G1 X78.512 Y128.044 E.02419
G1 X78.512 Y121.387 E.24794
G1 X78.004 Y121.387 E.01892
G1 X78.004 Y127.515 E.22824
G1 X77.774 Y127.251 E.01304
G1 X77.497 Y126.787 E.02015
G1 X77.497 Y121.869 E.18318
G1 X77.317 Y122.169 E.01301
G1 X77.004 Y123.003 E.03322
G1 X76.989 Y123.086 E.00315
G1 X76.989 Y126.197 E.11587
G10 ; retract
;WIPE_START
G1 X76.989 Y125.197 E-.24
;WIPE_END
G1 Z.6 F10800
G1 X113.859 Y121.487 Z.6
G1 Z.2
G11 ; unretract
G1 F1800
G1 X114.147 Y122.343 E.03363
G1 X114.243 Y123.241 E.03362
G1 X114.16 Y124.002 E.02854
G1 X114.553 Y124.544 E.02492
G1 X114.972 Y125.414 E.03597
G1 X115.229 Y126.344 E.03596
G1 X115.316 Y127.306 E.03596
G1 X115.229 Y128.268 E.03596
G1 X114.973 Y129.199 E.03597
G1 X114.554 Y130.069 E.03597
G1 X113.986 Y130.85 E.03597
G1 X113.288 Y131.517 E.03597
G1 X112.483 Y132.05 E.03597
G1 X111.595 Y132.429 E.03597
G1 X110.653 Y132.645 E.03597
G1 X109.688 Y132.688 E.03597
G1 X108.731 Y132.559 E.03597
G1 X107.812 Y132.26 E.03598
G1 X106.962 Y131.803 E.03598
G1 X106.207 Y131.201 E.03598
G1 X105.571 Y130.473 E.03598
G1 X105.076 Y129.644 E.03598
G1 X104.736 Y128.74 E.03598
G1 X104.564 Y127.789 E.03598
G1 X104.564 Y126.823 E.03598
G1 X104.736 Y125.873 E.03598
G1 X105.076 Y124.969 E.03597
G1 X105.571 Y124.14 E.03597
G1 X105.919 Y123.742 E.01968
G1 X105.918 Y122.789 E.03548
G1 X106.111 Y121.907 E.03363
G1 X106.49 Y121.087 E.03364
G1 X106.575 Y120.976 E.00521
G1 X113.552 Y120.976 E.25988
G1 X113.824 Y121.429 E.01968
G1 X114.571 Y129.559 F10800
G1 F1800
G1 X114.571 Y125.528 E.15013
G1 X114.199 Y124.755 E.03195
G1 X114.063 Y124.569 E.00859
G1 X114.063 Y130.044 E.20394
G1 X113.675 Y130.578 E.02458
G1 X113.555 Y130.693 E.00619
G1 X113.555 Y121.874 E.32847
G1 X113.483 Y121.661 E.00839
G1 X113.319 Y121.387 E.01189
G1 X113.047 Y121.387 E.01012
G1 X113.047 Y131.179 E.36471
G1 X112.539 Y131.519 E.02277
G1 X112.539 Y121.387 E.37738
G1 X112.031 Y121.387 E.01892
G1 X112.031 Y131.795 E.38766
G1 X111.524 Y132.012 E.02057
G1 X111.524 Y121.387 E.39575
G1 X111.016 Y121.387 E.01892
G1 X111.016 Y132.14 E.40049
G1 X110.598 Y132.235 E.01598
G1 X110.508 Y132.239 E.00334
G1 X110.508 Y121.387 E.4042
G1 X110 Y121.387 E.01892
G1 X110 Y132.262 E.40506
G1 X109.707 Y132.275 E.01094
G1 X109.492 Y132.246 E.00806
G1 X109.492 Y121.387 E.40447
G1 X108.984 Y121.387 E.01892
G1 X108.984 Y132.178 E.40191
G1 X108.823 Y132.156 E.00606
G1 X108.476 Y132.043 E.01357
G1 X108.476 Y121.387 E.39691
G1 X107.969 Y121.387 E.01892
G1 X107.969 Y131.877 E.39071
G1 X107.461 Y131.604 E.02148
G1 X107.461 Y121.387 E.38054
G1 X106.953 Y121.387 E.01892
G1 X106.953 Y131.269 E.36808
G1 X106.445 Y130.848 E.02458
G1 X106.445 Y122.307 E.31812
G1 X106.33 Y122.834 E.02007
G1 X106.331 Y123.896 E.03957
G1 X105.937 Y124.346 E.02227
G1 X105.937 Y130.267 E.22052
G1 X105.429 Y129.415 E.03692
G1 X105.429 Y124.778 E.17271
G10 ; retract
;WIPE_START
G1 X105.429 Y125.778 E-.24
;WIPE_END
G1 Z.6 F10800
G1 X142.722 Y121.749 Z.6
G1 Z.2
G11 ; unretract
G1 F1800
G1 X143.141 Y122.618 E.03596
G1 X143.399 Y123.549 E.03597
G1 X143.487 Y124.511 E.03597
G1 X143.401 Y125.473 E.03598
G1 X143.145 Y126.404 E.03598
G1 X142.726 Y127.275 E.03599
G1 X142.159 Y128.057 E.03599
G1 X141.461 Y128.725 E.03599
G1 X140.654 Y129.258 E.036
G1 X139.766 Y129.639 E.036
G1 X138.824 Y129.854 E.036
G1 X137.858 Y129.897 E.036
G1 X136.9 Y129.768 E.036
G1 X135.981 Y129.469 E.036
G1 X135.895 Y129.422 E.00364
G1 X135.26 Y129.568 E.02428
G1 X134.305 Y129.612 E.03561
G1 X133.357 Y129.485 E.03562
G1 X132.447 Y129.189 E.03562
G1 X131.605 Y128.736 E.03562
G1 X130.858 Y128.14 E.03562
G1 X130.229 Y127.419 E.03562
G1 X129.739 Y126.598 E.03561
G1 X129.405 Y125.702 E.03561
G1 X129.235 Y124.762 E.0356
G1 X129.237 Y123.806 E.03559
G1 X129.41 Y122.867 E.03557
G1 X129.747 Y121.974 E.03556
G1 X130.238 Y121.155 E.03555
G1 X130.396 Y120.976 E.0089
G1 X142.159 Y120.976 E.43815
G1 X142.681 Y121.693 E.03306
G1 X143.011 Y126.113 F10800
G1 F1800
G1 X143.011 Y123.826 E.08518
G1 X142.993 Y123.623 E.00761
G1 X142.755 Y122.764 E.03321
G1 X142.503 Y122.243 E.02155
G1 X142.503 Y126.789 E.16932
G1 X142.371 Y127.063 E.01135
G1 X141.996 Y127.582 E.02384
G1 X141.996 Y121.45 E.22838
G1 X141.95 Y121.387 E.0029
G1 X141.488 Y121.387 E.01721
G1 X141.488 Y128.13 E.25115
G1 X141.203 Y128.403 E.01468
G1 X140.98 Y128.55 E.00996
G1 X140.98 Y121.387 E.2668
G1 X140.472 Y121.387 E.01892
G1 X140.472 Y128.886 E.2793
G1 X139.964 Y129.106 E.02062
G1 X139.964 Y121.387 E.28751
G1 X139.456 Y121.387 E.01892
G1 X139.456 Y129.287 E.29426
G1 X138.948 Y129.403 E.0194
G1 X138.948 Y121.387 E.29858
G1 X138.44 Y121.387 E.01892
G1 X138.44 Y129.459 E.30066
G1 X137.933 Y129.482 E.01894
G1 X137.933 Y121.387 E.30151
G1 X137.425 Y121.387 E.01892
G1 X137.425 Y129.424 E.29933
G1 X136.992 Y129.365 E.01625
G1 X136.917 Y129.34 E.00296
G1 X136.917 Y121.387 E.29623
G1 X136.409 Y121.387 E.01892
G1 X136.409 Y129.175 E.29008
G1 X136.144 Y129.089 E.01039
G1 X135.954 Y128.987 E.00803
G1 X135.901 Y128.999 E.00202
G1 X135.901 Y121.387 E.28351
G1 X135.393 Y121.387 E.01892
G1 X135.393 Y129.116 E.28786
G1 X135.204 Y129.159 E.00723
G1 X134.885 Y129.174 E.01188
G1 X134.885 Y121.387 E.29002
G1 X134.378 Y121.387 E.01892
G1 X134.378 Y129.197 E.29089
G1 X133.87 Y129.138 E.01904
G1 X133.87 Y121.387 E.28871
G1 X133.362 Y121.387 E.01892
G1 X133.362 Y129.054 E.28555
G1 X132.854 Y128.889 E.01989
G1 X132.854 Y121.387 E.27941
G1 X132.346 Y121.387 E.01892
G1 X132.346 Y128.668 E.27117
G1 X131.838 Y128.394 E.02148
G1 X131.838 Y121.387 E.261
G1 X131.33 Y121.387 E.01892
G1 X131.33 Y127.991 E.24595
G1 X131.143 Y127.841 E.00892
G1 X130.823 Y127.474 E.01817
G1 X130.823 Y121.387 E.2267
G1 X130.582 Y121.387 E.00896
G1 X130.315 Y121.827 E.01918
G1 X130.315 Y126.759 E.18371
G1 X130.112 Y126.419 E.01476
G1 X129.807 Y125.603 E.03244
G1 X129.807 Y122.397 E.11941
G10 ; retract
;WIPE_START
G1 X129.807 Y123.397 E-.24
;WIPE_END
G1 Z.6 F10800
G1 X69.664 Y119.212 Z.6
M73 P0 R118
G1 Z.2
G11 ; unretract
;TYPE:Inner wall
;WIDTH:0.499999
G1 F1800
G1 X69.664 Y89.453 E1.1084
G1 X69.744 Y89.062 E.01486
G1 X69.916 Y88.792 E.01193
G1 X70.187 Y88.619 E.01195
G1 X70.576 Y88.54 E.01481
G1 X149.36 Y88.54 E2.93439
G1 X149.607 Y88.564 E.00923
G1 X149.913 Y88.661 E.01195
G1 X150.15 Y88.877 E.01195
G1 X150.298 Y89.162 E.01195
G1 X150.336 Y89.516 E.01326
G1 X150.336 Y119.212 E1.10605
G1 X69.704 Y119.212 E3.00322
G1 X69.207 Y119.669 F10800
G1 F1800
G1 X69.207 Y89.518 E1.12301
G1 X69.258 Y89.041 E.01786
G1 X69.386 Y88.732 E.01243
G1 X69.59 Y88.466 E.01251
G1 X69.857 Y88.261 E.01251
G1 X70.167 Y88.133 E.01251
G1 X70.546 Y88.083 E.01425
G1 X149.36 Y88.083 E2.93551
G1 X149.833 Y88.133 E.01771
G1 X150.143 Y88.261 E.01251
G1 X150.41 Y88.466 E.01251
G1 X150.614 Y88.732 E.01251
G1 X150.743 Y89.043 E.01251
G1 X150.793 Y89.516 E.01773
G1 X150.793 Y119.669 E1.12307
G1 X69.247 Y119.669 E3.03727
G1 X68.75 Y120.126 F10800
;TYPE:Outer wall
G1 F1800
G1 X68.75 Y89.518 E1.14004
G1 X68.813 Y88.921 E.02234
G1 X68.986 Y88.502 E.0169
G1 X69.264 Y88.14 E.01699
G1 X69.626 Y87.862 E.01699
G1 X70.048 Y87.687 E.01699
G1 X70.516 Y87.626 E.01761
G1 X149.363 Y87.626 E2.93671
G1 X149.952 Y87.687 E.02209
G1 X150.374 Y87.862 E.01699
G1 X150.736 Y88.14 E.01699
G1 X151.014 Y88.502 E.01699
G1 X151.188 Y88.923 E.01699
G1 X151.25 Y89.516 E.02219
G1 X151.25 Y120.126 E1.14009
G1 X68.79 Y120.126 E3.07132
G10 ; retract
;WIPE_START
G1 X68.789 Y119.126 E-.24
;WIPE_END
G1 Z.6 F10800
G1 X115.821 Y111.106 Z.6
G1 Z.2
G11 ; unretract
;TYPE:Inner wall
G1 F1800
G1 X115.058 Y111.712 E.0363
G1 X114.152 Y112.287 E.03997
G1 X113.352 Y112.692 E.0334
G1 X112.528 Y113.021 E.03302
G1 X111.485 Y113.324 E.04045
G1 X110.469 Y113.508 E.03848
G1 X109.577 Y113.583 E.03334
G1 X108.658 Y113.578 E.03421
G1 X107.64 Y113.475 E.03813
G1 X106.6 Y113.26 E.03956
G1 X105.586 Y112.937 E.03962
G1 X104.913 Y112.656 E.02717
G1 X103.962 Y112.153 E.04007
G1 X102.969 Y111.478 E.04473
G1 X102.278 Y110.895 E.03369
G1 X101.653 Y110.266 E.03302
G1 X100.986 Y109.45 E.03926
G1 X100.487 Y108.705 E.03338
G1 X99.987 Y107.777 E.03927
G1 X99.639 Y106.951 E.03338
G1 X99.326 Y105.944 E.03927
G1 X99.132 Y105.012 E.03547
G1 X99.027 Y104.02 E.03716
G1 X99.027 Y102.836 E.04409
G1 X99.126 Y101.897 E.03516
G1 X99.299 Y101.018 E.03339
G1 X99.602 Y100.008 E.03926
G1 X100.012 Y99.027 E.03963
G1 X100.367 Y98.353 E.02835
G1 X100.916 Y97.502 E.03774
G1 X101.58 Y96.672 E.03957
G1 X102.328 Y95.916 E.03962
G1 X103.151 Y95.241 E.03962
G1 X104.04 Y94.657 E.03963
G1 X104.861 Y94.225 E.03457
G1 X105.651 Y93.894 E.03189
G1 X106.656 Y93.582 E.0392
G1 X107.699 Y93.373 E.03962
G1 X108.758 Y93.274 E.03963
G1 X109.654 Y93.276 E.03338
G1 X110.703 Y93.381 E.03926
G1 X111.745 Y93.596 E.03962
G1 X112.759 Y93.919 E.03963
G1 X113.583 Y94.271 E.03338
G1 X114.534 Y94.795 E.04045
G1 X115.25 Y95.282 E.03225
G1 X116.06 Y95.955 E.03921
G1 X116.803 Y96.716 E.03961
G1 X117.463 Y97.55 E.03962
G1 X118.032 Y98.449 E.03962
G1 X118.437 Y99.249 E.03339
G1 X118.766 Y100.072 E.03302
G1 X119.061 Y101.084 E.03927
G1 X119.252 Y102.13 E.03961
G1 X119.328 Y103.023 E.0334
G1 X119.326 Y103.742 E.02677
G1 X119.219 Y104.959 E.04548
G1 X119.046 Y105.838 E.0334
G1 X118.743 Y106.847 E.03924
G1 X118.404 Y107.678 E.03339
G1 X117.914 Y108.611 E.03926
G1 X117.324 Y109.496 E.03963
G1 X116.646 Y110.315 E.03961
G1 X115.92 Y111.026 E.03784
G1 X115.852 Y111.081 E.00325
G1 X115.536 Y110.748 F10800
G1 F1800
G1 X114.773 Y111.355 E.0363
G1 X113.91 Y111.9 E.03805
G1 X113.148 Y112.283 E.03176
G1 X112.361 Y112.596 E.03154
G1 X111.36 Y112.884 E.03879
G1 X110.39 Y113.058 E.03671
G1 X109.541 Y113.127 E.03173
G1 X108.663 Y113.121 E.03269
G1 X107.689 Y113.02 E.0365
G1 X106.695 Y112.813 E.0378
G1 X105.728 Y112.502 E.03784
G1 X105.092 Y112.235 E.02568
G1 X104.178 Y111.75 E.03855
G1 X103.229 Y111.101 E.04281
G1 X102.575 Y110.547 E.03194
G1 X101.979 Y109.945 E.03153
G1 X101.341 Y109.162 E.03763
G1 X100.868 Y108.453 E.03175
G1 X100.391 Y107.562 E.03764
G1 X100.062 Y106.776 E.03175
G1 X99.763 Y105.811 E.03763
G1 X99.584 Y104.943 E.03301
G1 X99.481 Y103.972 E.03636
G1 X99.478 Y103.218 E.02808
G1 X99.58 Y101.945 E.04757
G1 X99.747 Y101.109 E.03176
G1 X100.039 Y100.142 E.03762
G1 X100.433 Y99.205 E.03785
G1 X100.77 Y98.568 E.02683
G1 X101.299 Y97.751 E.03627
G1 X101.935 Y96.96 E.03781
G1 X102.651 Y96.239 E.03784
G1 X103.438 Y95.597 E.03784
G1 X104.288 Y95.04 E.03785
G1 X105.071 Y94.631 E.0329
G1 X105.825 Y94.317 E.03042
G1 X106.789 Y94.019 E.03759
G1 X107.786 Y93.821 E.03784
G1 X108.798 Y93.729 E.03785
G1 X109.65 Y93.733 E.03175
G1 X110.655 Y93.836 E.03763
G1 X111.65 Y94.043 E.03784
G1 X112.617 Y94.354 E.03785
G1 X113.4 Y94.691 E.03175
G1 X114.312 Y95.194 E.03878
G1 X114.991 Y95.658 E.03063
G1 X115.766 Y96.305 E.0376
G1 X116.474 Y97.033 E.03783
G1 X117.103 Y97.831 E.03784
G1 X117.644 Y98.691 E.03784
G1 X118.028 Y99.453 E.03176
G1 X118.34 Y100.239 E.03153
G1 X118.622 Y101.21 E.03764
G1 X118.802 Y102.209 E.03783
G1 X118.872 Y103.059 E.03176
G1 X118.869 Y103.738 E.02528
G1 X118.765 Y104.911 E.04385
G1 X118.598 Y105.747 E.03177
G1 X118.306 Y106.714 E.03761
G1 X117.982 Y107.503 E.03176
G1 X117.511 Y108.396 E.03763
G1 X116.946 Y109.241 E.03785
G1 X116.296 Y110.021 E.03783
G1 X115.636 Y110.669 E.03443
G1 X115.568 Y110.723 E.00325
G1 X115.252 Y110.39 F10800
;TYPE:Outer wall
G1 F1800
G1 X114.489 Y110.997 E.0363
G1 X113.667 Y111.512 E.03612
G1 X112.944 Y111.874 E.03013
G1 X112.193 Y112.17 E.03005
G1 X111.235 Y112.444 E.03712
G1 X110.311 Y112.607 E.03494
G1 X109.505 Y112.672 E.03012
G1 X108.668 Y112.664 E.03118
G1 X107.737 Y112.566 E.03488
G1 X106.79 Y112.366 E.03605
G1 X105.869 Y112.068 E.03606
G1 X105.271 Y111.815 E.0242
G1 X104.371 Y111.333 E.038
G1 X103.488 Y110.725 E.03992
G1 X102.871 Y110.2 E.03018
G1 X102.305 Y109.625 E.03005
G1 X101.696 Y108.874 E.036
G1 X101.249 Y108.201 E.03011
G1 X100.794 Y107.348 E.036
G1 X100.484 Y106.601 E.03011
G1 X100.2 Y105.677 E.036
G1 X100.036 Y104.874 E.03054
G1 X99.936 Y103.924 E.03556
G1 X99.935 Y103.218 E.0263
G1 X100.035 Y101.993 E.04579
G1 X100.195 Y101.2 E.03013
G1 X100.476 Y100.276 E.03599
G1 X100.854 Y99.384 E.03607
G1 X101.173 Y98.784 E.02532
G1 X101.682 Y98.001 E.03479
