; HEADER_BLOCK_START
; generated by OrcaSlicer 1.9.0 on 2024-02-11 at 22:54:12
; total layer number: 40
; filament_density: 1.24
; filament_diameter: 1.75
; max_z_height: 8.00
; HEADER_BLOCK_END

; THUMBNAIL_BLOCK_START

;
; THUMBNAIL_BLOCK_END

; external perimeters extrusion width = 0.40mm
; perimeters extrusion width = 0.45mm
; infill extrusion width = 0.45mm
; solid infill extrusion width = 0.40mm
; top infill extrusion width = 0.40mm
; first layer extrusion width = 0.50mm

; EXECUTABLE_BLOCK_START
EXCLUDE_OBJECT_DEFINE NAME=LEFT.obj_id_0_copy_0 CENTER=110,110 POLYGON=[[45.2,73.8125],[174.8,73.8125],[174.8,144.688],[174.777,144.948],[174.71,145.201],[174.599,145.438],[174.449,145.652],[174.264,145.837],[174.05,145.987],[173.813,146.097],[173.56,146.165],[173.3,146.188],[46.7,146.188],[46.4395,146.165],[46.187,146.097],[45.95,145.987],[45.7358,145.837],[45.5509,145.652],[45.401,145.438],[45.2905,145.201],[45.2228,144.948],[45.2,144.688],[45.2,73.8125]]
M73 P0 R95
;TYPE:Custom
M190 S60
M109 S210
PRINT_START EXTRUDER=210 BED=60
START_PRINT
G90
G21
M83 ; use relative distances for extrusion
; filament start gcode
M106 S0
;LAYER_CHANGE
;Z:0.2
;HEIGHT:0.2
;BEFORE_LAYER_CHANGE
;0.2
G92 E0

G10 ; retract
;AFTER_LAYER_CHANGE
;0.2
;_SET_FAN_SPEED_CHANGING_LAYER
SET_VELOCITY_LIMIT ACCEL=500 ACCEL_TO_DECEL=250
; printing object LEFT.obj id:0 copy 0
EXCLUDE_OBJECT_START NAME=LEFT.obj_id_0_copy_0
G1 Z.4 F10800
G1 X46.364 Y77.211
G1 Z.2
G11 ; unretract
;TYPE:Inner wall
;WIDTH:0.499999
G1 F1800
G1 X48.904 Y77.211 E.0946
;WIDTH:0.543112
G1 X48.99 Y77.233 E.0036
;WIDTH:0.586224
G1 X49.075 Y77.254 E.00391
;WIDTH:0.629336
G1 X49.161 Y77.276 E.00422
;WIDTH:0.672448
G1 X49.246 Y77.298 E.00453
;WIDTH:0.71556
G1 X49.332 Y77.319 E.00484
G1 X49.606 Y77.313 E.01503
;WIDTH:0.703626
G1 X68.011 Y77.313 E.99091
G1 X68.166 Y77.293 E.00843
;WIDTH:0.662901
G1 X68.321 Y77.272 E.00791
;WIDTH:0.622176
G1 X68.477 Y77.252 E.00739
;WIDTH:0.58145
G1 X68.632 Y77.232 E.00687
;WIDTH:0.540725
G1 X68.787 Y77.211 E.00635
;WIDTH:0.499999
G1 X73.446 Y77.211 E.17352
;WIDTH:0.543112
G1 X73.547 Y77.233 E.00419
;WIDTH:0.586224
G1 X73.647 Y77.254 E.00455
;WIDTH:0.629336
G1 X73.748 Y77.276 E.00491
;WIDTH:0.672448
G1 X73.848 Y77.298 E.00527
;WIDTH:0.71556
G1 X73.949 Y77.319 E.00563
G1 X74.223 Y77.313 E.01503
;WIDTH:0.703626
G1 X94.428 Y77.313 E1.08781
G1 X94.583 Y77.293 E.00843
;WIDTH:0.662901
G1 X94.738 Y77.272 E.00791
;WIDTH:0.622176
G1 X94.893 Y77.252 E.00739
;WIDTH:0.58145
G1 X95.049 Y77.232 E.00687
;WIDTH:0.540725
G1 X95.204 Y77.211 E.00635
;WIDTH:0.499999
G1 X99.863 Y77.211 E.17352
;WIDTH:0.543112
G1 X99.963 Y77.233 E.00419
;WIDTH:0.586224
G1 X100.064 Y77.254 E.00455
;WIDTH:0.629336
G1 X100.164 Y77.276 E.00491
;WIDTH:0.672448
G1 X100.265 Y77.298 E.00527
;WIDTH:0.71556
G1 X100.365 Y77.319 E.00563
G1 X100.639 Y77.313 E.01503
;WIDTH:0.703626
G1 X120.844 Y77.313 E1.08781
G1 X121 Y77.293 E.00843
;WIDTH:0.662901
G1 X121.155 Y77.272 E.00791
;WIDTH:0.622176
G1 X121.31 Y77.252 E.00739
;WIDTH:0.58145
G1 X121.465 Y77.232 E.00687
;WIDTH:0.540725
G1 X121.621 Y77.211 E.00635
;WIDTH:0.499999
G1 X126.28 Y77.211 E.17352
;WIDTH:0.543112
G1 X126.38 Y77.233 E.00419
;WIDTH:0.586224
G1 X126.48 Y77.254 E.00455
;WIDTH:0.629336
G1 X126.581 Y77.276 E.00491
;WIDTH:0.672448
G1 X126.681 Y77.298 E.00527
;WIDTH:0.71556
G1 X126.782 Y77.319 E.00563
G1 X127.056 Y77.313 E.01503
;WIDTH:0.703627
G1 X147.244 Y77.313 E1.08691
G1 X147.399 Y77.293 E.00843
;WIDTH:0.662902
G1 X147.555 Y77.272 E.00791
;WIDTH:0.622176
G1 X147.71 Y77.252 E.00739
;WIDTH:0.581451
G1 X147.865 Y77.232 E.00687
;WIDTH:0.540725
G1 X148.021 Y77.211 E.00635
;WIDTH:0.499999
G1 X152.679 Y77.211 E.17352
;WIDTH:0.543112
G1 X152.78 Y77.233 E.00419
;WIDTH:0.586224
G1 X152.88 Y77.254 E.00455
;WIDTH:0.629336
G1 X152.981 Y77.276 E.00491
;WIDTH:0.672448
G1 X153.081 Y77.298 E.00527
;WIDTH:0.71556
G1 X153.182 Y77.319 E.00563
G1 X153.456 Y77.313 E.01503
;WIDTH:0.703626
G1 X170.394 Y77.313 E.91194
G1 X170.534 Y77.293 E.00764
;WIDTH:0.662901
G1 X170.675 Y77.272 E.00717
;WIDTH:0.622176
G1 X170.815 Y77.252 E.0067
;WIDTH:0.58145
G1 X170.956 Y77.232 E.00622
;WIDTH:0.540725
G1 X171.096 Y77.211 E.00575
;WIDTH:0.499999
G1 X173.636 Y77.211 E.0946
G1 X173.636 Y78.347 E.04231
G1 X173.636 Y144.545 E2.4656
G1 X173.599 Y144.795 E.0094
G1 X173.46 Y144.963 E.00814
G1 X173.249 Y145.023 E.00816
G1 X171.123 Y145.023 E.07917
;WIDTH:0.539037
G1 X170.95 Y145.004 E.00708
;WIDTH:0.578075
G1 X170.776 Y144.984 E.00763
;WIDTH:0.617112
G1 X170.602 Y144.965 E.00819
G1 X170.746 Y144.886 E.00767
;WIDTH:0.578075
G1 X170.889 Y144.807 E.00715
;WIDTH:0.539037
G1 X171.033 Y144.729 E.00663
;WIDTH:0.499999
G1 X171.411 Y144.302 E.02124
G1 X171.537 Y143.782 E.01993
G1 X171.537 Y79.218 E2.40473
G1 X171.45 Y78.782 E.01659
G1 X171.244 Y78.454 E.0144
G1 X170.879 Y78.184 E.01691
;WIDTH:0.540725
G1 X170.782 Y78.142 E.00429
;WIDTH:0.58145
G1 X170.685 Y78.1 E.00464
;WIDTH:0.622176
G1 X170.588 Y78.058 E.00499
;WIDTH:0.662901
G1 X170.491 Y78.016 E.00534
;WIDTH:0.703626
G1 X170.394 Y77.974 E.00569
G1 X153.456 Y77.974 E.91194
;WIDTH:0.71556
G1 X153.24 Y77.987 E.01186
G1 X153.102 Y78.094 E.00958
;WIDTH:0.672448
G1 X152.964 Y78.201 E.00897
;WIDTH:0.629336
G1 X152.826 Y78.308 E.00835
;WIDTH:0.586224
G1 X152.688 Y78.415 E.00774
;WIDTH:0.543112
G1 X152.549 Y78.523 E.00712
;WIDTH:0.499999
G1 X152.363 Y78.884 E.01513
G1 X152.313 Y79.218 E.0126
G1 X152.313 Y143.782 E2.40473
G1 X152.401 Y144.221 E.01669
G1 X152.77 Y144.696 E.0224
;WIDTH:0.549523
G1 X153.113 Y144.835 E.01527
;WIDTH:0.599046
G1 X153.456 Y144.974 E.01676
G1 X153.058 Y144.999 E.01804
;WIDTH:0.549523
G1 X152.661 Y145.023 E.01644
;WIDTH:0.499999
G1 X148.039 Y145.023 E.17216
;WIDTH:0.539037
G1 X147.843 Y145.004 E.00795
;WIDTH:0.578075
G1 X147.647 Y144.984 E.00858
;WIDTH:0.617112
G1 X147.452 Y144.965 E.0092
G1 X147.611 Y144.875 E.00856
;WIDTH:0.578075
G1 X147.77 Y144.785 E.00797
;WIDTH:0.539037
G1 X147.93 Y144.696 E.00739
;WIDTH:0.499999
G1 X148.299 Y144.221 E.0224
G1 X148.387 Y143.782 E.01669
G1 X148.387 Y79.218 E2.40473
G1 X148.337 Y78.884 E.0126
G1 X148.151 Y78.523 E.01513
G1 X147.775 Y78.207 E.01827
;WIDTH:0.540725
G1 X147.669 Y78.16 E.0047
;WIDTH:0.581451
G1 X147.563 Y78.114 E.00509
;WIDTH:0.622176
G1 X147.457 Y78.067 E.00547
;WIDTH:0.662902
G1 X147.35 Y78.02 E.00586
;WIDTH:0.703627
G1 X147.244 Y77.974 E.00624
G1 X127.056 Y77.974 E1.08691
;WIDTH:0.71556
G1 X126.84 Y77.987 E.01186
G1 X126.702 Y78.094 E.00958
;WIDTH:0.672448
G1 X126.564 Y78.201 E.00897
;WIDTH:0.629336
G1 X126.426 Y78.308 E.00835
;WIDTH:0.586224
G1 X126.288 Y78.415 E.00774
;WIDTH:0.543112
G1 X126.15 Y78.523 E.00712
;WIDTH:0.499999
G1 X125.963 Y78.884 E.01513
G1 X125.913 Y79.218 E.0126
G1 X125.913 Y143.782 E2.40473
G1 X126.001 Y144.221 E.01669
G1 X126.37 Y144.696 E.0224
;WIDTH:0.549523
G1 X126.713 Y144.835 E.01527
;WIDTH:0.599046
G1 X127.056 Y144.974 E.01676
G1 X126.659 Y144.999 E.01804
;WIDTH:0.549523
G1 X126.261 Y145.023 E.01644
;WIDTH:0.499999
G1 X121.639 Y145.023 E.17216
;WIDTH:0.539037
G1 X121.443 Y145.004 E.00795
;WIDTH:0.578075
G1 X121.248 Y144.984 E.00858
;WIDTH:0.617112
G1 X121.052 Y144.965 E.0092
G1 X121.211 Y144.875 E.00856
;WIDTH:0.578075
G1 X121.37 Y144.785 E.00797
;WIDTH:0.539037
G1 X121.53 Y144.696 E.00739
;WIDTH:0.499999
G1 X121.899 Y144.221 E.0224
G1 X121.987 Y143.782 E.01669
G1 X121.987 Y79.218 E2.40473
G1 X121.937 Y78.884 E.0126
G1 X121.751 Y78.523 E.01513
G1 X121.375 Y78.207 E.01827
;WIDTH:0.540725
G1 X121.269 Y78.16 E.0047
;WIDTH:0.58145
G1 X121.163 Y78.114 E.00509
;WIDTH:0.622176
G1 X121.057 Y78.067 E.00547
;WIDTH:0.662901
G1 X120.95 Y78.02 E.00586
;WIDTH:0.703627
G1 X120.844 Y77.974 E.00624
G1 X100.639 Y77.974 E1.08781
;WIDTH:0.71556
G1 X100.423 Y77.987 E.01186
G1 X100.285 Y78.094 E.00958
;WIDTH:0.672448
G1 X100.147 Y78.201 E.00897
;WIDTH:0.629336
G1 X100.009 Y78.308 E.00835
;WIDTH:0.586224
G1 X99.871 Y78.415 E.00774
;WIDTH:0.543112
G1 X99.733 Y78.523 E.00712
;WIDTH:0.499999
G1 X99.547 Y78.884 E.01513
G1 X99.497 Y79.218 E.0126
G1 X99.497 Y143.782 E2.40473
G1 X99.585 Y144.221 E.01669
G1 X99.954 Y144.696 E.0224
;WIDTH:0.549523
G1 X100.297 Y144.835 E.01527
;WIDTH:0.599046
G1 X100.639 Y144.974 E.01676
G1 X100.242 Y144.999 E.01804
;WIDTH:0.549523
G1 X99.845 Y145.023 E.01644
;WIDTH:0.499999
G1 X95.222 Y145.023 E.17216
;WIDTH:0.539037
G1 X95.027 Y145.004 E.00795
;WIDTH:0.578075
G1 X94.831 Y144.984 E.00858
;WIDTH:0.617112
G1 X94.635 Y144.965 E.0092
G1 X94.794 Y144.875 E.00856
;WIDTH:0.578075
G1 X94.954 Y144.785 E.00797
;WIDTH:0.539037
G1 X95.113 Y144.696 E.00739
;WIDTH:0.499999
G1 X95.482 Y144.221 E.0224
G1 X95.57 Y143.782 E.01669
G1 X95.57 Y79.218 E2.40473
G1 X95.52 Y78.884 E.0126
G1 X95.334 Y78.523 E.01513
G1 X94.959 Y78.207 E.01827
;WIDTH:0.540725
G1 X94.852 Y78.16 E.0047
;WIDTH:0.58145
G1 X94.746 Y78.114 E.00509
;WIDTH:0.622176
G1 X94.64 Y78.067 E.00547
;WIDTH:0.662901
G1 X94.534 Y78.02 E.00586
;WIDTH:0.703627
G1 X94.428 Y77.974 E.00624
G1 X74.223 Y77.974 E1.08781
;WIDTH:0.71556
G1 X74.007 Y77.987 E.01186
G1 X73.869 Y78.094 E.00958
;WIDTH:0.672448
G1 X73.73 Y78.201 E.00897
;WIDTH:0.629336
G1 X73.592 Y78.308 E.00835
;WIDTH:0.586224
G1 X73.454 Y78.415 E.00774
;WIDTH:0.543112
G1 X73.316 Y78.523 E.00712
;WIDTH:0.499999
G1 X73.13 Y78.884 E.01513
G1 X73.08 Y79.218 E.0126
G1 X73.08 Y143.782 E2.40473
G1 X73.168 Y144.221 E.01669
G1 X73.537 Y144.696 E.0224
;WIDTH:0.549523
G1 X73.88 Y144.835 E.01527
;WIDTH:0.599046
G1 X74.223 Y144.974 E.01676
G1 X73.825 Y144.999 E.01804
;WIDTH:0.549523
G1 X73.428 Y145.023 E.01644
;WIDTH:0.499999
G1 X68.806 Y145.023 E.17216
;WIDTH:0.539037
G1 X68.61 Y145.004 E.00795
;WIDTH:0.578075
G1 X68.414 Y144.984 E.00858
;WIDTH:0.617112
G1 X68.218 Y144.965 E.0092
G1 X68.378 Y144.875 E.00856
;WIDTH:0.578075
G1 X68.537 Y144.785 E.00797
;WIDTH:0.539037
G1 X68.696 Y144.696 E.00739
;WIDTH:0.499999
G1 X69.066 Y144.221 E.0224
G1 X69.154 Y143.782 E.01669
G1 X69.154 Y79.218 E2.40473
G1 X69.103 Y78.884 E.0126
G1 X68.917 Y78.523 E.01513
G1 X68.542 Y78.207 E.01827
;WIDTH:0.540725
G1 X68.436 Y78.16 E.0047
;WIDTH:0.58145
G1 X68.33 Y78.114 E.00509
;WIDTH:0.622176
G1 X68.223 Y78.067 E.00547
;WIDTH:0.662901
G1 X68.117 Y78.02 E.00586
;WIDTH:0.703626
G1 X68.011 Y77.974 E.00624
G1 X49.606 Y77.974 E.99091
;WIDTH:0.71556
G1 X49.39 Y77.987 E.01186
G1 X49.263 Y78.08 E.00863
;WIDTH:0.672448
G1 X49.136 Y78.174 E.00808
;WIDTH:0.629336
G1 X49.01 Y78.267 E.00753
;WIDTH:0.586224
G1 X48.883 Y78.361 E.00697
;WIDTH:0.543112
G1 X48.756 Y78.454 E.00642
;WIDTH:0.499999
G1 X48.55 Y78.782 E.0144
G1 X48.463 Y79.218 E.01659
G1 X48.463 Y143.782 E2.40473
G1 X48.589 Y144.302 E.01993
G1 X48.967 Y144.729 E.02124
;WIDTH:0.549523
G1 X49.286 Y144.851 E.01413
;WIDTH:0.599046
G1 X49.606 Y144.974 E.01551
G1 X49.241 Y144.999 E.01657
;WIDTH:0.549523
G1 X48.877 Y145.023 E.01509
;WIDTH:0.499999
G1 X46.843 Y145.023 E.07575
G1 X46.591 Y144.986 E.00947
G1 X46.424 Y144.847 E.0081
G1 X46.364 Y144.637 E.00813
G1 X46.364 Y77.251 E2.50984
G1 X45.907 Y76.754 F10800
G1 F1800
G1 X174.093 Y76.754 E4.77443
G1 X174.093 Y78.347 E.05934
G1 X174.093 Y144.545 E2.4656
G1 X174.035 Y144.954 E.01539
G1 X173.896 Y145.194 E.01034
G1 X173.692 Y145.365 E.00992
G1 X173.269 Y145.48 E.01631
G1 X46.843 Y145.48 E4.7089
G1 X46.432 Y145.423 E.01543
G1 X46.197 Y145.287 E.01012
G1 X46.023 Y145.079 E.01012
G1 X45.907 Y144.657 E.0163
G1 X45.907 Y76.794 E2.52761
M73 P0 R94
G1 X45.45 Y76.297 F10800
;TYPE:Outer wall
G1 F1800
G1 X174.55 Y76.297 E4.80848
G1 X174.55 Y78.347 E.07636
G1 X174.55 Y144.545 E2.4656
G1 X174.471 Y145.113 E.02138
G1 X174.251 Y145.493 E.01635
G1 X173.923 Y145.767 E.0159
G1 X173.661 Y145.862 E.01039
G1 X173.289 Y145.938 E.01414
G1 X46.843 Y145.938 E4.70964
M73 P1 R94
G1 X46.274 Y145.859 E.02139
G1 X45.899 Y145.642 E.01612
G1 X45.621 Y145.311 E.01612
G1 X45.525 Y145.049 E.01039
G1 X45.45 Y144.677 E.01414
G1 X45.45 Y76.337 E2.54538
G10 ; retract
;WIPE_START
G1 X46.45 Y76.337 E-.24
;WIPE_END
G1 Z.6 F10800
G1 X170.225 Y144.467 Z.6
G1 Z.2
G11 ; unretract
;TYPE:Inner wall
G1 F1800
G1 X153.456 Y144.467 E.62457
G1 X153.045 Y144.33 E.01615
G1 X152.823 Y144.045 E.01344
G1 X152.77 Y143.782 E.01002
G1 X152.77 Y79.218 E2.40473
G1 X152.8 Y79.018 E.00756
G1 X152.912 Y78.801 E.00908
G1 X153.137 Y78.611 E.01096
G1 X153.456 Y78.533 E.01222
G1 X170.394 Y78.533 E.63088
G1 X170.685 Y78.598 E.01111
G1 X170.904 Y78.76 E.01015
G1 X171.028 Y78.956 E.00864
G1 X171.08 Y79.218 E.00995
G1 X171.08 Y143.782 E2.40473
G1 X171.005 Y144.094 E.01196
G1 X170.778 Y144.35 E.01274
G1 X170.394 Y144.467 E.01494
G1 X170.265 Y144.467 E.00482
G1 X170.225 Y144.01 F10800
;TYPE:Outer wall
G1 F1800
G1 X153.456 Y144.01 E.62457
G1 X153.319 Y143.964 E.00538
G1 X153.227 Y143.782 E.00761
G1 X153.227 Y79.215 E2.40485
G1 X153.275 Y79.079 E.00536
G1 X153.416 Y78.993 E.00618
G1 X170.394 Y78.99 E.63235
G1 X170.564 Y79.066 E.00693
G1 X170.623 Y79.218 E.00609
G1 X170.623 Y143.782 E2.40473
G1 X170.598 Y143.886 E.00399
G1 X170.434 Y144.007 E.00759
G1 X170.394 Y144.01 E.00148
G1 X170.265 Y144.01 E.00482
G10 ; retract
;WIPE_START
G1 X169.265 Y144.01 E-.24
;WIPE_END
G1 Z.6 F10800
G1 X170.602 Y144.965 Z.6
G1 Z.2
G11 ; unretract
;TYPE:Inner wall
;WIDTH:0.617112
G1 F1800
G1 X170.394 Y144.974 E.00972
;WIDTH:0.599046
G1 X153.456 Y144.974 E.76759
G10 ; retract
;WIPE_START
G1 X154.456 Y144.974 E-.24
;WIPE_END
G1 Z.6 F10800
G1 X147.284 Y144.464 Z.6
G1 Z.2
G11 ; unretract
;WIDTH:0.499999
G1 F1800
G1 X147.244 Y144.467 E.00148
G1 X127.056 Y144.467 E.75193
G1 X126.645 Y144.33 E.01615
G1 X126.423 Y144.045 E.01344
G1 X126.37 Y143.782 E.01002
G1 X126.37 Y79.218 E2.40473
G1 X126.4 Y79.018 E.00756
G1 X126.512 Y78.801 E.00908
G1 X126.737 Y78.611 E.01096
G1 X127.056 Y78.533 E.01222
G1 X147.244 Y78.533 E.75193
G1 X147.563 Y78.611 E.01222
G1 X147.788 Y78.801 E.01096
G1 X147.9 Y79.018 E.00908
G1 X147.93 Y79.218 E.00756
G1 X147.93 Y143.782 E2.40473
G1 X147.877 Y144.045 E.01002
G1 X147.655 Y144.33 E.01344
G1 X147.363 Y144.457 E.01189
G1 X147.323 Y144.46 E.00146
G1 X147.244 Y144.01 F10800
;TYPE:Outer wall
G1 F1800
G1 X127.056 Y144.01 E.75193
G1 X126.919 Y143.964 E.00538
G1 X126.827 Y143.782 E.00761
G1 X126.827 Y79.215 E2.40485
G1 X126.875 Y79.079 E.00536
G1 X127.017 Y78.993 E.00618
G1 X127.056 Y78.99 E.00148
G1 X147.244 Y78.99 E.75193
G1 X147.425 Y79.079 E.00753
G1 X147.473 Y79.218 E.00547
G1 X147.473 Y143.782 E2.40473
G1 X147.381 Y143.964 E.00761
G1 X147.282 Y143.997 E.00389
G1 X147.452 Y144.965 F10800
;TYPE:Inner wall
;WIDTH:0.617112
G1 F1800
G1 X147.244 Y144.974 E.00972
;WIDTH:0.599046
G1 X127.056 Y144.974 E.91487
G10 ; retract
;WIPE_START
G1 X128.056 Y144.974 E-.24
;WIPE_END
G1 Z.6 F10800
G1 X121.512 Y143.869 Z.6
G1 Z.2
G11 ; unretract
;WIDTH:0.499999
G1 F1800
G1 X121.477 Y144.045 E.00668
G1 X121.256 Y144.33 E.01344
G1 X120.963 Y144.457 E.01189
G1 X100.639 Y144.467 E.75697
G1 X100.228 Y144.33 E.01615
G1 X100.006 Y144.045 E.01344
G1 X99.954 Y143.782 E.01002
G1 X99.954 Y79.218 E2.40473
G1 X99.984 Y79.018 E.00756
G1 X100.095 Y78.801 E.00908
G1 X100.321 Y78.611 E.01096
G1 X100.521 Y78.543 E.00788
G1 X120.844 Y78.533 E.75697
G1 X121.163 Y78.611 E.01222
G1 X121.388 Y78.801 E.01096
G1 X121.5 Y79.018 E.00908
G1 X121.53 Y79.218 E.00756
G1 X121.53 Y143.782 E2.40473
G1 X121.52 Y143.83 E.00185
G1 X121.073 Y143.782 F10800
;TYPE:Outer wall
G1 F1800
G1 X120.981 Y143.964 E.00761
G1 X120.844 Y144.01 E.00538
G1 X100.639 Y144.01 E.75255
G1 X100.502 Y143.964 E.00538
G1 X100.411 Y143.782 E.00761
G1 X100.411 Y79.215 E2.40485
G1 X100.458 Y79.079 E.00536
G1 X100.6 Y78.993 E.00618
G1 X120.844 Y78.99 E.75402
G1 X121.026 Y79.079 E.00753
G1 X121.073 Y79.218 E.00547
G1 X121.073 Y143.742 E2.40324
G10 ; retract
;WIPE_START
G1 X120.981 Y143.964 E-.05781
G1 X120.844 Y144.01 E-.03469
G1 X120.23 Y144.01 E-.14751
;WIPE_END
G1 Z.6 F10800
G1 X73.555 Y143.869 Z.6
G1 Z.2
G11 ; unretract
;TYPE:Inner wall
G1 F1800
G1 X73.537 Y143.782 E.00334
G1 X73.537 Y79.218 E2.40473
G1 X73.567 Y79.018 E.00756
G1 X73.679 Y78.801 E.00908
G1 X73.904 Y78.611 E.01096
G1 X74.223 Y78.533 E.01222
G1 X94.428 Y78.533 E.75255
G1 X94.746 Y78.611 E.01222
G1 X94.971 Y78.801 E.01096
G1 X95.083 Y79.018 E.00908
G1 X95.113 Y79.218 E.00756
