; HEADER_BLOCK_START
; generated by OrcaSlicer 1.9.0 on 2024-02-11 at 22:49:51
; total layer number: 40
; filament_density: 1.24
; filament_diameter: 1.75
; max_z_height: 8.00
; HEADER_BLOCK_END

; THUMBNAIL_BLOCK_START

;
; THUMBNAIL_BLOCK_END

; external perimeters extrusion width = 0.40mm
; perimeters extrusion width = 0.45mm
; infill extrusion width = 0.45mm
; solid infill extrusion width = 0.40mm
; top infill extrusion width = 0.40mm
; first layer extrusion width = 0.50mm

; EXECUTABLE_BLOCK_START
EXCLUDE_OBJECT_DEFINE NAME=RIGHT.obj_id_0_copy_0 CENTER=110,110 POLYGON=[[45.2,73.8125],[174.8,73.8125],[174.8,144.688],[174.777,144.948],[174.71,145.201],[174.599,145.438],[174.449,145.652],[174.264,145.837],[174.05,145.987],[173.813,146.097],[173.56,146.165],[173.3,146.188],[46.7,146.188],[46.4395,146.165],[46.187,146.097],[45.95,145.987],[45.7358,145.837],[45.5509,145.652],[45.401,145.438],[45.2905,145.201],[45.2228,144.948],[45.2,144.688],[45.2,73.8125]]
M73 P0 R95
;TYPE:Custom
M190 S60
M109 S210
PRINT_START EXTRUDER=210 BED=60
START_PRINT
G90
G21
M83 ; use relative distances for extrusion
; filament start gcode
M106 S0
;LAYER_CHANGE
;Z:0.2
;HEIGHT:0.2
;BEFORE_LAYER_CHANGE
;0.2
G92 E0

G10 ; retract
;AFTER_LAYER_CHANGE
;0.2
;_SET_FAN_SPEED_CHANGING_LAYER
SET_VELOCITY_LIMIT ACCEL=500 ACCEL_TO_DECEL=250
; printing object RIGHT.obj id:0 copy 0
EXCLUDE_OBJECT_START NAME=RIGHT.obj_id_0_copy_0
G1 Z.4 F10800
G1 X46.364 Y77.211
G1 Z.2
G11 ; unretract
;TYPE:Inner wall
;WIDTH:0.499999
G1 F1800
G1 X48.904 Y77.211 E.0946
;WIDTH:0.543112
G1 X48.99 Y77.233 E.0036
;WIDTH:0.586224
G1 X49.075 Y77.254 E.00391
;WIDTH:0.629336
G1 X49.161 Y77.276 E.00422
;WIDTH:0.672448
G1 X49.246 Y77.298 E.00453
;WIDTH:0.71556
G1 X49.332 Y77.319 E.00484
G1 X49.606 Y77.313 E.01503
;WIDTH:0.703626
G1 X66.544 Y77.313 E.91194
G1 X66.699 Y77.293 E.00843
;WIDTH:0.662901
G1 X66.855 Y77.272 E.00791
;WIDTH:0.622176
G1 X67.01 Y77.252 E.00739
;WIDTH:0.58145
G1 X67.165 Y77.232 E.00687
;WIDTH:0.540725
G1 X67.321 Y77.211 E.00635
;WIDTH:0.499999
G1 X71.979 Y77.211 E.17352
;WIDTH:0.543112
G1 X72.08 Y77.233 E.00419
;WIDTH:0.586224
G1 X72.18 Y77.254 E.00455
;WIDTH:0.629336
G1 X72.281 Y77.276 E.00491
;WIDTH:0.672448
G1 X72.381 Y77.298 E.00527
;WIDTH:0.71556
G1 X72.482 Y77.319 E.00563
G1 X72.756 Y77.313 E.01503
;WIDTH:0.703627
G1 X92.944 Y77.313 E1.08691
G1 X93.099 Y77.293 E.00843
;WIDTH:0.662902
G1 X93.255 Y77.272 E.00791
;WIDTH:0.622176
G1 X93.41 Y77.252 E.00739
;WIDTH:0.581451
G1 X93.565 Y77.232 E.00687
;WIDTH:0.540725
G1 X93.72 Y77.211 E.00635
;WIDTH:0.499999
G1 X98.379 Y77.211 E.17352
;WIDTH:0.543112
G1 X98.48 Y77.233 E.00419
;WIDTH:0.586224
G1 X98.58 Y77.254 E.00455
;WIDTH:0.629336
G1 X98.681 Y77.276 E.00491
;WIDTH:0.672448
G1 X98.781 Y77.298 E.00527
;WIDTH:0.71556
G1 X98.882 Y77.319 E.00563
G1 X99.156 Y77.313 E.01503
;WIDTH:0.703626
G1 X119.361 Y77.313 E1.08781
G1 X119.516 Y77.293 E.00843
;WIDTH:0.662901
G1 X119.671 Y77.272 E.00791
;WIDTH:0.622176
G1 X119.827 Y77.252 E.00739
;WIDTH:0.58145
G1 X119.982 Y77.232 E.00687
;WIDTH:0.540725
G1 X120.137 Y77.211 E.00635
;WIDTH:0.499999
G1 X124.796 Y77.211 E.17352
;WIDTH:0.543112
G1 X124.896 Y77.233 E.00419
;WIDTH:0.586224
G1 X124.997 Y77.254 E.00455
;WIDTH:0.629336
G1 X125.097 Y77.276 E.00491
;WIDTH:0.672448
G1 X125.198 Y77.298 E.00527
;WIDTH:0.71556
G1 X125.298 Y77.319 E.00563
G1 X125.572 Y77.313 E.01503
;WIDTH:0.703626
G1 X145.777 Y77.313 E1.08781
G1 X145.933 Y77.293 E.00843
;WIDTH:0.662901
G1 X146.088 Y77.272 E.00791
;WIDTH:0.622176
G1 X146.243 Y77.252 E.00739
;WIDTH:0.58145
G1 X146.398 Y77.232 E.00687
;WIDTH:0.540725
G1 X146.554 Y77.211 E.00635
;WIDTH:0.499999
G1 X151.213 Y77.211 E.17352
;WIDTH:0.543112
G1 X151.313 Y77.233 E.00419
;WIDTH:0.586224
G1 X151.414 Y77.254 E.00455
;WIDTH:0.629336
G1 X151.514 Y77.276 E.00491
;WIDTH:0.672448
G1 X151.614 Y77.298 E.00527
;WIDTH:0.71556
G1 X151.715 Y77.319 E.00563
G1 X151.989 Y77.313 E.01503
;WIDTH:0.703626
G1 X170.394 Y77.313 E.99091
G1 X170.534 Y77.293 E.00764
;WIDTH:0.662901
G1 X170.675 Y77.272 E.00717
;WIDTH:0.622176
G1 X170.815 Y77.252 E.0067
;WIDTH:0.58145
G1 X170.956 Y77.232 E.00622
;WIDTH:0.540725
G1 X171.096 Y77.211 E.00575
;WIDTH:0.499999
G1 X173.636 Y77.211 E.0946
G1 X173.636 Y78.347 E.04231
G1 X173.636 Y144.545 E2.4656
G1 X173.599 Y144.796 E.00947
G1 X173.459 Y144.963 E.0081
G1 X173.249 Y145.023 E.00813
G1 X171.123 Y145.023 E.07917
;WIDTH:0.539037
G1 X170.95 Y145.004 E.00708
;WIDTH:0.578075
G1 X170.776 Y144.984 E.00763
;WIDTH:0.617112
G1 X170.602 Y144.965 E.00819
G1 X170.746 Y144.886 E.00767
;WIDTH:0.578075
G1 X170.889 Y144.807 E.00715
;WIDTH:0.539037
G1 X171.033 Y144.729 E.00663
;WIDTH:0.499999
G1 X171.411 Y144.302 E.02124
G1 X171.537 Y143.782 E.01993
G1 X171.537 Y79.218 E2.40473
G1 X171.45 Y78.782 E.01659
G1 X171.244 Y78.454 E.0144
G1 X170.879 Y78.184 E.01691
;WIDTH:0.540725
G1 X170.782 Y78.142 E.00429
;WIDTH:0.58145
G1 X170.685 Y78.1 E.00464
;WIDTH:0.622176
G1 X170.588 Y78.058 E.00499
;WIDTH:0.662901
G1 X170.491 Y78.016 E.00534
;WIDTH:0.703626
G1 X170.394 Y77.974 E.00569
G1 X151.989 Y77.974 E.99091
;WIDTH:0.71556
G1 X151.773 Y77.987 E.01186
G1 X151.635 Y78.094 E.00958
;WIDTH:0.672448
G1 X151.497 Y78.201 E.00897
;WIDTH:0.629336
G1 X151.359 Y78.308 E.00835
;WIDTH:0.586224
G1 X151.221 Y78.415 E.00774
;WIDTH:0.543112
G1 X151.083 Y78.523 E.00712
;WIDTH:0.499999
G1 X150.897 Y78.884 E.01513
G1 X150.846 Y79.218 E.0126
G1 X150.846 Y143.782 E2.40473
G1 X150.934 Y144.221 E.01669
G1 X151.304 Y144.696 E.0224
;WIDTH:0.549523
G1 X151.646 Y144.835 E.01527
;WIDTH:0.599046
G1 X151.989 Y144.974 E.01676
G1 X151.592 Y144.999 E.01804
;WIDTH:0.549523
G1 X151.194 Y145.023 E.01644
;WIDTH:0.499999
G1 X146.572 Y145.023 E.17216
;WIDTH:0.539037
G1 X146.376 Y145.004 E.00795
;WIDTH:0.578075
G1 X146.181 Y144.984 E.00858
;WIDTH:0.617112
G1 X145.985 Y144.965 E.0092
G1 X146.144 Y144.875 E.00856
;WIDTH:0.578075
G1 X146.304 Y144.785 E.00797
;WIDTH:0.539037
G1 X146.463 Y144.696 E.00739
;WIDTH:0.499999
G1 X146.832 Y144.221 E.0224
G1 X146.92 Y143.782 E.01669
G1 X146.92 Y79.218 E2.40473
G1 X146.87 Y78.884 E.0126
G1 X146.684 Y78.523 E.01513
G1 X146.308 Y78.207 E.01827
;WIDTH:0.540725
G1 X146.202 Y78.16 E.0047
;WIDTH:0.58145
G1 X146.096 Y78.114 E.00509
;WIDTH:0.622176
G1 X145.99 Y78.067 E.00547
;WIDTH:0.662901
G1 X145.884 Y78.02 E.00586
;WIDTH:0.703627
G1 X145.777 Y77.974 E.00624
G1 X125.572 Y77.974 E1.08781
;WIDTH:0.71556
G1 X125.356 Y77.987 E.01186
G1 X125.218 Y78.094 E.00958
;WIDTH:0.672448
G1 X125.08 Y78.201 E.00897
;WIDTH:0.629336
G1 X124.942 Y78.308 E.00835
;WIDTH:0.586224
G1 X124.804 Y78.415 E.00774
;WIDTH:0.543112
G1 X124.666 Y78.523 E.00712
;WIDTH:0.499999
G1 X124.48 Y78.884 E.01513
G1 X124.43 Y79.218 E.0126
G1 X124.43 Y143.782 E2.40473
M73 P0 R94
G1 X124.518 Y144.221 E.01669
G1 X124.887 Y144.696 E.0224
;WIDTH:0.549523
G1 X125.23 Y144.835 E.01527
;WIDTH:0.599046
G1 X125.572 Y144.974 E.01676
G1 X125.175 Y144.999 E.01804
;WIDTH:0.549523
G1 X124.778 Y145.023 E.01644
;WIDTH:0.499999
G1 X120.155 Y145.023 E.17216
;WIDTH:0.539037
G1 X119.96 Y145.004 E.00795
;WIDTH:0.578075
G1 X119.764 Y144.984 E.00858
;WIDTH:0.617112
G1 X119.568 Y144.965 E.0092
G1 X119.728 Y144.875 E.00856
;WIDTH:0.578075
G1 X119.887 Y144.785 E.00797
;WIDTH:0.539037
G1 X120.046 Y144.696 E.00739
;WIDTH:0.499999
G1 X120.415 Y144.221 E.0224
G1 X120.503 Y143.782 E.01669
G1 X120.503 Y79.218 E2.40473
G1 X120.453 Y78.884 E.0126
G1 X120.267 Y78.523 E.01513
G1 X119.892 Y78.207 E.01827
;WIDTH:0.540725
G1 X119.786 Y78.16 E.0047
;WIDTH:0.58145
G1 X119.679 Y78.114 E.00509
;WIDTH:0.622176
G1 X119.573 Y78.067 E.00547
;WIDTH:0.662901
G1 X119.467 Y78.02 E.00586
;WIDTH:0.703627
G1 X119.361 Y77.974 E.00624
G1 X99.156 Y77.974 E1.08781
;WIDTH:0.71556
G1 X98.94 Y77.987 E.01186
G1 X98.802 Y78.094 E.00958
;WIDTH:0.672448
G1 X98.664 Y78.201 E.00897
;WIDTH:0.629336
G1 X98.525 Y78.308 E.00835
;WIDTH:0.586224
G1 X98.387 Y78.415 E.00774
;WIDTH:0.543112
G1 X98.249 Y78.523 E.00712
;WIDTH:0.499999
G1 X98.063 Y78.884 E.01513
G1 X98.013 Y79.218 E.0126
G1 X98.013 Y143.782 E2.40473
G1 X98.101 Y144.221 E.01669
G1 X98.47 Y144.696 E.0224
;WIDTH:0.549523
G1 X98.813 Y144.835 E.01527
;WIDTH:0.599046
G1 X99.156 Y144.974 E.01676
G1 X98.758 Y144.999 E.01804
;WIDTH:0.549523
G1 X98.361 Y145.023 E.01644
;WIDTH:0.499999
G1 X93.739 Y145.023 E.17216
;WIDTH:0.539037
G1 X93.543 Y145.004 E.00795
;WIDTH:0.578075
G1 X93.347 Y144.984 E.00858
;WIDTH:0.617112
G1 X93.152 Y144.965 E.0092
G1 X93.311 Y144.875 E.00856
;WIDTH:0.578075
G1 X93.47 Y144.785 E.00797
;WIDTH:0.539037
G1 X93.63 Y144.696 E.00739
;WIDTH:0.499999
G1 X93.999 Y144.221 E.0224
G1 X94.087 Y143.782 E.01669
G1 X94.087 Y79.218 E2.40473
G1 X94.037 Y78.884 E.0126
G1 X93.85 Y78.523 E.01513
G1 X93.475 Y78.207 E.01827
;WIDTH:0.540725
G1 X93.369 Y78.16 E.0047
;WIDTH:0.581451
G1 X93.263 Y78.114 E.00509
;WIDTH:0.622176
G1 X93.156 Y78.067 E.00547
;WIDTH:0.662902
G1 X93.05 Y78.02 E.00586
;WIDTH:0.703627
G1 X92.944 Y77.974 E.00624
G1 X72.756 Y77.974 E1.08691
;WIDTH:0.71556
G1 X72.54 Y77.987 E.01186
G1 X72.402 Y78.094 E.00958
;WIDTH:0.672448
G1 X72.264 Y78.201 E.00897
;WIDTH:0.629336
G1 X72.126 Y78.308 E.00835
;WIDTH:0.586224
G1 X71.988 Y78.415 E.00774
;WIDTH:0.543112
G1 X71.849 Y78.523 E.00712
;WIDTH:0.499999
G1 X71.663 Y78.884 E.01513
G1 X71.613 Y79.218 E.0126
G1 X71.613 Y143.782 E2.40473
G1 X71.701 Y144.221 E.01669
G1 X72.07 Y144.696 E.0224
;WIDTH:0.549523
G1 X72.413 Y144.835 E.01527
;WIDTH:0.599046
G1 X72.756 Y144.974 E.01676
G1 X72.358 Y144.999 E.01804
;WIDTH:0.549523
G1 X71.961 Y145.023 E.01644
;WIDTH:0.499999
G1 X67.339 Y145.023 E.17216
;WIDTH:0.539037
G1 X67.143 Y145.004 E.00795
;WIDTH:0.578075
G1 X66.947 Y144.984 E.00858
;WIDTH:0.617112
G1 X66.752 Y144.965 E.0092
G1 X66.911 Y144.875 E.00856
;WIDTH:0.578075
G1 X67.07 Y144.785 E.00797
;WIDTH:0.539037
G1 X67.23 Y144.696 E.00739
;WIDTH:0.499999
G1 X67.599 Y144.221 E.0224
G1 X67.687 Y143.782 E.01669
G1 X67.687 Y79.218 E2.40473
G1 X67.637 Y78.884 E.0126
G1 X67.451 Y78.523 E.01513
G1 X67.075 Y78.207 E.01827
;WIDTH:0.540725
G1 X66.969 Y78.16 E.0047
;WIDTH:0.58145
G1 X66.863 Y78.114 E.00509
;WIDTH:0.622176
G1 X66.757 Y78.067 E.00547
;WIDTH:0.662901
G1 X66.65 Y78.02 E.00586
;WIDTH:0.703626
G1 X66.544 Y77.974 E.00624
G1 X49.606 Y77.974 E.91194
;WIDTH:0.71556
G1 X49.39 Y77.987 E.01186
G1 X49.263 Y78.08 E.00863
;WIDTH:0.672448
G1 X49.136 Y78.174 E.00808
;WIDTH:0.629336
G1 X49.01 Y78.267 E.00753
;WIDTH:0.586224
G1 X48.883 Y78.361 E.00697
;WIDTH:0.543112
G1 X48.756 Y78.454 E.00642
;WIDTH:0.499999
G1 X48.55 Y78.782 E.0144
G1 X48.463 Y79.218 E.01659
G1 X48.463 Y143.782 E2.40473
G1 X48.589 Y144.302 E.01993
G1 X48.967 Y144.729 E.02124
;WIDTH:0.549523
G1 X49.286 Y144.851 E.01413
;WIDTH:0.599046
G1 X49.606 Y144.974 E.01551
G1 X49.241 Y144.999 E.01657
;WIDTH:0.549523
G1 X48.877 Y145.023 E.01509
;WIDTH:0.499999
G1 X46.843 Y145.023 E.07575
G1 X46.591 Y144.986 E.00947
G1 X46.425 Y144.847 E.0081
G1 X46.364 Y144.637 E.00814
G1 X46.364 Y77.251 E2.50984
G1 X45.907 Y76.754 F10800
G1 F1800
G1 X174.093 Y76.754 E4.77443
G1 X174.093 Y78.347 E.05934
G1 X174.093 Y144.545 E2.4656
G1 X174.035 Y144.955 E.01543
G1 X173.899 Y145.19 E.01012
G1 X173.691 Y145.365 E.01012
G1 X173.269 Y145.48 E.0163
G1 X46.843 Y145.48 E4.7089
G1 X46.432 Y145.423 E.01543
G1 X46.197 Y145.287 E.01012
G1 X46.023 Y145.079 E.01012
G1 X45.907 Y144.657 E.0163
G1 X45.907 Y76.794 E2.52761
G1 X45.45 Y76.297 F10800
;TYPE:Outer wall
G1 F1800
G1 X174.55 Y76.297 E4.80848
G1 X174.55 Y78.347 E.07636
G1 X174.55 Y144.545 E2.4656
M73 P1 R94
G1 X174.471 Y145.114 E.02139
G1 X174.255 Y145.489 E.01612
G1 X173.923 Y145.767 E.01612
G1 X173.661 Y145.862 E.01039
G1 X173.289 Y145.938 E.01414
G1 X46.843 Y145.938 E4.70964
G1 X46.274 Y145.859 E.02139
G1 X45.899 Y145.642 E.01612
G1 X45.621 Y145.311 E.01612
G1 X45.525 Y145.049 E.01039
G1 X45.45 Y144.677 E.01414
G1 X45.45 Y76.337 E2.54538
G10 ; retract
;WIPE_START
G1 X46.45 Y76.337 E-.24
;WIPE_END
G1 Z.6 F10800
G1 X170.225 Y144.467 Z.6
G1 Z.2
G11 ; unretract
;TYPE:Inner wall
G1 F1800
G1 X151.989 Y144.467 E.6792
G1 X151.578 Y144.33 E.01615
G1 X151.356 Y144.045 E.01344
G1 X151.304 Y143.782 E.01002
G1 X151.304 Y79.218 E2.40473
G1 X151.334 Y79.018 E.00756
G1 X151.445 Y78.801 E.00908
G1 X151.67 Y78.611 E.01096
G1 X151.989 Y78.533 E.01222
G1 X170.394 Y78.533 E.68551
G1 X170.685 Y78.598 E.01111
G1 X170.904 Y78.76 E.01015
G1 X171.028 Y78.956 E.00864
G1 X171.08 Y79.218 E.00995
G1 X171.08 Y143.782 E2.40473
G1 X171.005 Y144.094 E.01196
G1 X170.778 Y144.35 E.01274
G1 X170.394 Y144.467 E.01494
G1 X170.265 Y144.467 E.00482
G1 X170.225 Y144.01 F10800
;TYPE:Outer wall
G1 F1800
G1 X151.989 Y144.01 E.6792
G1 X151.852 Y143.964 E.00538
G1 X151.761 Y143.782 E.00761
G1 X151.761 Y79.215 E2.40485
G1 X151.808 Y79.079 E.00536
G1 X151.95 Y78.993 E.00618
G1 X170.394 Y78.99 E.68699
G1 X170.564 Y79.066 E.00693
G1 X170.623 Y79.218 E.00609
G1 X170.623 Y143.782 E2.40473
G1 X170.598 Y143.886 E.00399
G1 X170.434 Y144.007 E.00759
G1 X170.394 Y144.01 E.00148
G1 X170.265 Y144.01 E.00482
G10 ; retract
;WIPE_START
G1 X169.265 Y144.01 E-.24
;WIPE_END
G1 Z.6 F10800
G1 X170.602 Y144.965 Z.6
G1 Z.2
G11 ; unretract
;TYPE:Inner wall
;WIDTH:0.617112
G1 F1800
G1 X170.394 Y144.974 E.00972
;WIDTH:0.599046
G1 X151.989 Y144.974 E.83406
G10 ; retract
;WIPE_START
G1 X152.989 Y144.974 E-.24
;WIPE_END
G1 Z.6 F10800
G1 X125.298 Y144.376 Z.6
M73 P1 R93
G1 Z.2
G11 ; unretract
;WIDTH:0.499999
G1 F1800
G1 X125.161 Y144.33 E.00538
G1 X124.94 Y144.045 E.01344
G1 X124.887 Y143.782 E.01002
G1 X124.887 Y79.218 E2.40473
G1 X124.917 Y79.018 E.00756
G1 X125.029 Y78.801 E.00908
G1 X125.254 Y78.611 E.01096
G1 X125.572 Y78.533 E.01222
G1 X145.777 Y78.533 E.75255
G1 X146.096 Y78.611 E.01222
G1 X146.321 Y78.801 E.01096
G1 X146.433 Y79.018 E.00908
G1 X146.463 Y79.218 E.00756
G1 X146.463 Y143.782 E2.40473
G1 X146.41 Y144.045 E.01002
G1 X146.189 Y144.33 E.01344
G1 X145.896 Y144.457 E.01189
G1 X145.777 Y144.467 E.00443
G1 X125.572 Y144.467 E.75255
G1 X125.336 Y144.388 E.00928
G1 X125.435 Y143.964 F10800
;TYPE:Outer wall
G1 F1800
G1 X125.344 Y143.782 E.00761
G1 X125.344 Y79.215 E2.40485
G1 X125.391 Y79.079 E.00536
G1 X125.533 Y78.993 E.00618
G1 X125.572 Y78.99 E.00148
G1 X145.777 Y78.99 E.75255
G1 X145.959 Y79.079 E.00753
G1 X146.006 Y79.218 E.00547
G1 X146.006 Y143.782 E2.40473
G1 X145.914 Y143.964 E.00761
G1 X145.777 Y144.01 E.00538
G1 X125.572 Y144.01 E.75255
G1 X125.473 Y143.977 E.00389
G10 ; retract
;WIPE_START
G1 X125.344 Y143.782 E-.05626
G1 X125.344 Y143.016 E-.18374
;WIPE_END
G1 Z.6 F10800
G1 X145.985 Y144.965 Z.6
G1 Z.2
G11 ; unretract
;TYPE:Inner wall
;WIDTH:0.617112
G1 F1800
G1 X145.777 Y144.974 E.00972
;WIDTH:0.599046
G1 X125.572 Y144.974 E.91563
G10 ; retract
;WIPE_START
G1 X126.572 Y144.974 E-.24
;WIPE_END
G1 Z.6 F10800
G1 X119.361 Y144.457 Z.6
G1 Z.2
G11 ; unretract
;WIDTH:0.499999
G1 F1800
G1 X99.156 Y144.467 E.75256
G1 X98.744 Y144.33 E.01615
G1 X98.523 Y144.045 E.01344
G1 X98.47 Y143.782 E.01002
G1 X98.47 Y79.218 E2.40473
G1 X98.5 Y79.018 E.00756
G1 X98.612 Y78.801 E.00908
G1 X98.837 Y78.611 E.01096
G1 X99.037 Y78.543 E.00788
G1 X119.361 Y78.533 E.75697
G1 X119.679 Y78.611 E.01222
G1 X119.905 Y78.801 E.01096
G1 X120.016 Y79.018 E.00908
G1 X120.046 Y79.218 E.00756
G1 X120.046 Y143.782 E2.40473
G1 X119.994 Y144.045 E.01002
G1 X119.772 Y144.33 E.01344
G1 X119.479 Y144.457 E.01189
G1 X119.401 Y144.457 E.00291
G1 X119.361 Y144.01 F10800
;TYPE:Outer wall
G1 F1800
G1 X99.156 Y144.01 E.75255
G1 X99.019 Y143.964 E.00538
G1 X98.927 Y143.782 E.00761
G1 X98.927 Y79.215 E2.40485
G1 X98.974 Y79.079 E.00536
G1 X99.116 Y78.993 E.00618
G1 X119.361 Y78.99 E.75402
G1 X119.542 Y79.079 E.00753
G1 X119.589 Y79.218 E.00547
G1 X119.589 Y143.782 E2.40473
G1 X119.498 Y143.964 E.00761
G1 X119.399 Y143.997 E.00389
G10 ; retract
;WIPE_START
G1 X118.399 Y143.998 E-.24
;WIPE_END
G1 Z.6 F10800
G1 X72.65 Y78.559 Z.6
G1 Z.2
G11 ; unretract
;TYPE:Inner wall
G1 F1800
G1 X72.756 Y78.533 E.00407
G1 X92.944 Y78.533 E.75193
G1 X93.263 Y78.611 E.01222
G1 X93.488 Y78.801 E.01096
G1 X93.6 Y79.018 E.00908
G1 X93.63 Y79.218 E.00756
G1 X93.63 Y143.782 E2.40473
G1 X93.577 Y144.045 E.01002
G1 X93.355 Y144.33 E.01344
