; HEADER_BLOCK_START
; generated by OrcaSlicer 1.9.0 on 2024-02-08 at 23:11:02
; total layer number: 177
; filament_density: 1.24
; filament_diameter: 1.75
; max_z_height: 35.40
; HEADER_BLOCK_END

; THUMBNAIL_BLOCK_START

;
; THUMBNAIL_BLOCK_END

; external perimeters extrusion width = 0.40mm
; perimeters extrusion width = 0.45mm
; infill extrusion width = 0.45mm
; solid infill extrusion width = 0.40mm
; top infill extrusion width = 0.40mm
; support material extrusion width = 0.40mm
; first layer extrusion width = 0.50mm

; EXECUTABLE_BLOCK_START
EXCLUDE_OBJECT_DEFINE NAME=testbox_v3.obj_id_0_copy_0 CENTER=110,110 POLYGON=[[73.5,87.1257],[73.5852,86.4787],[73.8349,85.8757],[74.2322,85.358],[74.75,84.9607],[75.353,84.7109],[76,84.6257],[144,84.6257],[144.647,84.7109],[145.25,84.9607],[145.768,85.358],[146.165,85.8757],[146.415,86.4787],[146.5,87.1257],[146.5,122.626],[137.571,134.106],[137.216,134.538],[136.784,134.893],[136.291,135.157],[135.755,135.319],[135.199,135.374],[84.2845,135.374],[83.7285,135.319],[83.1925,135.157],[82.6995,134.893],[82.2675,134.538],[81.9125,134.106],[73.5,122.626],[73.5,87.1257]]
M73 P0 R116
;TYPE:Custom
M190 S60
M109 S220
PRINT_START EXTRUDER=220 BED=60
START_PRINT
G90
G21
M83 ; use relative distances for extrusion
; filament start gcode
M106 S0
;LAYER_CHANGE
;Z:0.2
;HEIGHT:0.2
;BEFORE_LAYER_CHANGE
;0.2
G92 E0

G10 ; retract
;AFTER_LAYER_CHANGE
;0.2
;_SET_FAN_SPEED_CHANGING_LAYER
SET_VELOCITY_LIMIT ACCEL=500 ACCEL_TO_DECEL=250
; printing object testbox v3.obj id:0 copy 0
EXCLUDE_OBJECT_START NAME=testbox_v3.obj_id_0_copy_0
G1 Z.4 F10800
G1 X86.885 Y128.384
G1 Z.2
G11 ; unretract
;TYPE:Support
;WIDTH:0.5
G1 F1800
G1 X87.681 Y128.91 E.03555
G1 X88.371 Y129.569 E.03555
G1 X88.932 Y130.342 E.03555
G1 X89.346 Y131.202 E.03555
G1 X89.6 Y132.122 E.03555
G1 X89.686 Y133.072 E.03555
G1 X89.6 Y134.023 E.03555
G1 X89.346 Y134.943 E.03555
G1 X88.932 Y135.803 E.03555
G1 X88.371 Y136.575 E.03555
G1 X87.681 Y137.235 E.03555
G1 X86.885 Y137.76 E.03555
G1 X86.526 Y137.914 E.01453
G1 X86.007 Y138.136 E.02102
G1 X85.076 Y138.348 E.03555
G1 X84.123 Y138.391 E.03555
G1 X83.177 Y138.263 E.03555
G1 X82.269 Y137.968 E.03555
G1 X81.429 Y137.515 E.03555
G1 X80.683 Y136.92 E.03555
G1 X80.055 Y136.202 E.03555
G1 X79.565 Y135.382 E.03555
G1 X79.23 Y134.489 E.03555
G1 X79.059 Y133.549 E.03555
G1 X79.059 Y132.595 E.03555
G1 X79.23 Y131.656 E.03555
G1 X79.565 Y130.762 E.03555
G1 X80.055 Y129.943 E.03555
G1 X80.683 Y129.224 E.03555
G1 X81.429 Y128.629 E.03555
G1 X82.452 Y128.079 E.04327
G1 X82.535 Y128.17 E.00461
G1 X82.234 Y128.466 E.01573
G1 X81.92 Y128.941 E.02122
G1 X82.26 Y129.572 E.0267
G1 X86.308 Y129.572 E.15078
G1 X86.649 Y128.945 E.02657
G1 X86.344 Y128.475 E.02086
G1 X85.963 Y128.085 E.02034
G1 X86.021 Y128.015 E.0034
G1 X86.822 Y128.357 E.03241
G1 X89.177 Y134.781 F10800
G1 F1800
G1 X89.177 Y132.137 E.09849
G1 X88.959 Y131.347 E.03052
G1 X88.67 Y130.745 E.02488
G1 X88.67 Y135.4 E.17337
G1 X88.577 Y135.591 E.00791
G1 X88.162 Y136.163 E.02634
G1 X88.162 Y129.981 E.23025
G1 X88.06 Y129.841 E.00645
G1 X87.654 Y129.453 E.02093
G1 X87.654 Y136.692 E.26961
G1 X87.424 Y136.912 E.01187
G1 X87.146 Y137.095 E.01239
G1 X87.146 Y129.05 E.29966
G1 X87.083 Y129.008 E.00281
G1 X86.638 Y129.826 E.03469
G1 X86.638 Y137.418 E.28277
G1 X86.13 Y137.635 E.02057
G1 X86.13 Y129.984 E.285
G1 X85.622 Y129.984 E.01892
G1 X85.622 Y137.801 E.29118
G1 X85.115 Y137.917 E.0194
G1 X85.115 Y129.984 E.2955
G1 X84.607 Y129.984 E.01892
G1 X84.607 Y137.957 E.29699
G1 X84.099 Y137.972 E.01892
G1 X84.099 Y129.984 E.29755
G1 X83.591 Y129.984 E.01892
G1 X83.591 Y137.904 E.29499
G1 X83.269 Y137.86 E.0121
G1 X83.083 Y137.8 E.00728
G1 X83.083 Y129.984 E.29111
G1 X82.575 Y129.984 E.01892
G1 X82.575 Y137.635 E.28497
G1 X82.432 Y137.588 E.00562
G1 X82.067 Y137.392 E.01541
G1 X82.067 Y129.984 E.27593
G1 X82.014 Y129.984 E.00199
G1 X81.56 Y129.139 E.03572
G1 X81.56 Y137.093 E.29627
G1 X81.052 Y136.688 E.02419
G1 X81.052 Y129.456 E.26938
G1 X80.968 Y129.523 E.00398
G1 X80.544 Y130.008 E.02402
G1 X80.544 Y136.136 E.22824
G1 X80.389 Y135.959 E.00877
G1 X80.036 Y135.368 E.02563
G1 X80.036 Y130.776 E.17102
G1 X79.937 Y130.942 E.00716
G1 X79.628 Y131.766 E.03279
G1 X79.528 Y132.316 E.02083
G1 X79.528 Y134.698 E.08872
G10 ; retract
;WIPE_START
G1 X79.528 Y133.698 E-.24
;WIPE_END
G1 Z.6 F10800
G1 X112.354 Y128.384 Z.6
G1 Z.2
G11 ; unretract
G1 F1800
G1 X113.15 Y128.91 E.03555
G1 X113.84 Y129.569 E.03555
G1 X114.401 Y130.342 E.03555
G1 X114.815 Y131.202 E.03555
G1 X115.069 Y132.122 E.03555
G1 X115.155 Y133.072 E.03555
G1 X115.069 Y134.023 E.03555
G1 X114.815 Y134.943 E.03555
G1 X114.401 Y135.803 E.03555
G1 X113.84 Y136.575 E.03555
G1 X113.15 Y137.235 E.03555
G1 X112.354 Y137.76 E.03555
G1 X111.476 Y138.136 E.03555
G1 X110.546 Y138.348 E.03555
G1 X109.592 Y138.391 E.03555
G1 X108.646 Y138.263 E.03555
G1 X107.739 Y137.968 E.03555
G1 X106.898 Y137.515 E.03555
G1 X106.152 Y136.92 E.03555
G1 X105.524 Y136.202 E.03555
G1 X105.034 Y135.382 E.03555
G1 X104.699 Y134.489 E.03555
G1 X104.529 Y133.549 E.03555
G1 X104.529 Y132.595 E.03555
G1 X104.699 Y131.656 E.03555
G1 X105.034 Y130.762 E.03555
G1 X105.524 Y129.943 E.03555
G1 X106.152 Y129.224 E.03555
G1 X106.898 Y128.629 E.03555
G1 X107.929 Y128.074 E.04363
G1 X107.992 Y128.152 E.00374
G1 X107.374 Y128.874 E.03539
G1 X107.695 Y129.572 E.02864
G1 X111.808 Y129.572 E.1532
G1 X112.149 Y128.945 E.02657
G1 X111.844 Y128.475 E.02086
G1 X111.477 Y128.1 E.01957
G1 X111.533 Y128.033 E.00323
G1 X112.291 Y128.357 E.03069
G1 X114.571 Y134.977 F10800
G1 F1800
G1 X114.571 Y131.862 E.11603
G1 X114.429 Y131.347 E.0199
G1 X114.063 Y130.587 E.0314
G1 X114.063 Y135.557 E.18512
G1 X113.555 Y136.268 E.03253
G1 X113.555 Y129.877 E.23803
G1 X113.047 Y129.38 E.02645
G1 X113.047 Y136.764 E.27502
G1 X112.893 Y136.912 E.00795
G1 X112.539 Y137.145 E.01578
G1 X112.539 Y129.089 E.30007
G1 X112.053 Y129.984 E.03795
G1 X112.031 Y129.984 E.00079
G1 X112.031 Y137.451 E.27813
G1 X111.524 Y137.668 E.02057
G1 X111.524 Y129.984 E.28621
G1 X111.016 Y129.984 E.01892
G1 X111.016 Y137.819 E.29183
G1 X110.508 Y137.935 E.0194
G1 X110.508 Y129.984 E.29614
G1 X110 Y129.984 E.01892
G1 X110 Y137.961 E.29711
G1 X109.611 Y137.978 E.01452
G1 X109.492 Y137.962 E.00446
G1 X109.492 Y129.984 E.29717
G1 X108.984 Y129.984 E.01892
G1 X108.984 Y137.893 E.29461
G1 X108.738 Y137.86 E.00925
G1 X108.476 Y137.775 E.01025
G1 X108.476 Y129.984 E.2902
G1 X107.969 Y129.984 E.01892
G1 X107.969 Y137.61 E.28405
G1 X107.901 Y137.588 E.00265
G1 X107.461 Y137.351 E.01862
G1 X107.461 Y129.984 E.27441
G1 X107.431 Y129.984 E.00109
G1 X107.01 Y129.066 E.0376
G1 X106.953 Y129.112 E.00271
G1 X106.953 Y137.033 E.29504
G1 X106.445 Y136.628 E.02419
G1 X106.445 Y129.517 E.26487
G1 X105.937 Y130.095 E.02868
G1 X105.937 Y136.049 E.22176
G1 X105.858 Y135.959 E.00447
G1 X105.429 Y135.241 E.03114
G1 X105.429 Y130.502 E.17649
G10 ; retract
;WIPE_START
G1 X105.429 Y131.502 E-.24
;WIPE_END
G1 Z.6 F10800
G1 X133.736 Y127.876 Z.6
G1 Z.2
G11 ; unretract
G1 F1800
G1 X133.736 Y127.908 E.0012
G1 X133.611 Y128.014 E.00611
G1 X132.874 Y128.874 E.04217
G1 X133.195 Y129.572 E.02864
G1 X137.309 Y129.572 E.15323
G1 X137.644 Y128.924 E.02719
G1 X137.253 Y128.371 E.02522
G1 X137.101 Y128.233 E.00765
G1 X137.139 Y128.161 E.00303
G1 X138.273 Y128.91 E.05062
G1 X138.963 Y129.569 E.03555
G1 X139.524 Y130.342 E.03555
G1 X139.938 Y131.202 E.03555
G1 X140.192 Y132.122 E.03555
G1 X140.277 Y133.072 E.03555
G1 X140.192 Y134.023 E.03555
G1 X139.938 Y134.943 E.03555
G1 X139.524 Y135.803 E.03555
G1 X138.963 Y136.575 E.03555
G1 X138.273 Y137.235 E.03555
G1 X137.476 Y137.76 E.03555
G1 X136.599 Y138.136 E.03555
G1 X135.668 Y138.348 E.03555
G1 X134.715 Y138.391 E.03555
G1 X133.769 Y138.263 E.03555
G1 X132.861 Y137.968 E.03555
G1 X132.021 Y137.515 E.03555
G1 X131.274 Y136.92 E.03555
G1 X130.646 Y136.202 E.03555
G1 X130.157 Y135.382 E.03555
G1 X129.821 Y134.489 E.03555
G1 X129.651 Y133.549 E.03555
G1 X129.651 Y132.595 E.03555
G1 X129.821 Y131.656 E.03555
G1 X130.157 Y130.762 E.03555
G1 X130.646 Y129.943 E.03555
G1 X131.274 Y129.224 E.03555
G1 X132.021 Y128.629 E.03555
G1 X133.673 Y127.74 E.0699
G1 X133.707 Y127.814 E.00302
G10 ; retract
;WIPE_START
G1 X133.673 Y127.74 E-.01948
G1 X132.864 Y128.175 E-.22052
;WIPE_END
G1 Z.6 F10800
G1 X139.456 Y135.469 Z.6
G1 Z.2
G11 ; unretract
G1 F1800
G1 X139.456 Y131.15 E.16088
G1 X139.169 Y130.554 E.02464
G1 X138.948 Y130.25 E.01399
G1 X138.948 Y135.895 E.21027
G1 X138.652 Y136.303 E.0188
G1 X138.44 Y136.505 E.01088
G1 X138.44 Y129.639 E.25573
G1 X137.965 Y129.2 E.02412
G1 X137.933 Y129.262 E.00262
G1 X137.933 Y136.966 E.28695
G1 X137.425 Y137.302 E.02267
G1 X137.425 Y129.984 E.27256
G1 X136.917 Y129.984 E.01892
G1 X136.917 Y137.552 E.2819
G1 X136.409 Y137.757 E.0204
G1 X136.409 Y129.984 E.28952
G1 X135.901 Y129.984 E.01892
G1 X135.901 Y137.873 E.29384
G1 X135.613 Y137.939 E.01102
G1 X135.393 Y137.949 E.00818
G1 X135.393 Y129.984 E.29666
G1 X134.885 Y129.984 E.01892
G1 X134.885 Y137.971 E.29751
G1 X134.733 Y137.978 E.00568
G1 X134.378 Y137.93 E.01336
G1 X134.378 Y129.984 E.29597
G1 X133.87 Y129.984 E.01892
G1 X133.87 Y137.861 E.29341
G1 X133.362 Y137.698 E.01987
G1 X133.362 Y129.984 E.28733
G1 X132.931 Y129.984 E.01603
G1 X132.854 Y129.815 E.0069
G1 X132.854 Y137.497 E.2861
G1 X132.346 Y137.223 E.02148
G1 X132.346 Y128.921 E.30923
G1 X132.248 Y128.974 E.00415
G1 X131.838 Y129.301 E.01953
G1 X131.838 Y136.844 E.28096
G1 X131.56 Y136.622 E.01327
G1 X131.33 Y136.359 E.01299
G1 X131.33 Y129.785 E.24485
G1 X130.981 Y130.186 E.01981
G1 X130.823 Y130.45 E.01147
G1 X130.823 Y135.694 E.19532
G1 X130.529 Y135.203 E.02132
G1 X130.315 Y134.632 E.02272
G1 X130.315 Y130.927 E.13799
G10 ; retract
;WIPE_START
G1 X130.315 Y131.927 E-.24
;WIPE_END
G1 Z.6 F10800
G1 X109.751 Y121.671 Z.6
G1 Z.2
G11 ; unretract
;TYPE:Inner wall
;WIDTH:0.499999
G1 F1800
G1 X109.411 Y121.502 E.01416
G1 X109.111 Y121.462 E.01127
G1 X84.892 Y121.462 E.90208
G1 X84.606 Y121.498 E.01074
G1 X84.299 Y121.641 E.01259
G1 X83.993 Y121.498 E.01259
G1 X83.707 Y121.462 E.01074
G1 X74.664 Y121.462 E.33681
G1 X74.664 Y87.301 E1.27235
G1 X74.719 Y86.783 E.01942
G1 X74.852 Y86.463 E.01289
G1 X75.063 Y86.188 E.01289
G1 X75.337 Y85.978 E.01289
G1 X75.657 Y85.845 E.01289
G1 X76.076 Y85.79 E.01576
G1 X143.832 Y85.791 E2.52364
G1 X144.343 Y85.845 E.01914
G1 X144.663 Y85.978 E.01289
G1 X144.937 Y86.188 E.01289
G1 X145.148 Y86.463 E.01289
G1 X145.281 Y86.783 E.01289
G1 X145.336 Y87.301 E.01942
G1 X145.336 Y121.462 E1.27235
G1 X135.796 Y121.462 E.35534
G1 X135.522 Y121.495 E.01028
G1 X135.203 Y121.639 E.01302
G1 X135.01 Y121.533 E.00823
G1 X134.611 Y121.462 E.01508
G1 X110.392 Y121.462 E.90208
G1 X110.092 Y121.502 E.01127
G1 X109.787 Y121.653 E.01267
G1 X109.708 Y122.507 F10800
;WIDTH:0.45502
G1 F1800
G1 X109.65 Y122.351 E.00558
;WIDTH:0.499999
G1 X109.549 Y122.077 E.01089
G1 X109.371 Y121.97 E.00775
G1 X109.111 Y121.919 E.00987
G1 X84.892 Y121.919 E.90208
G1 X84.787 Y121.927 E.00391
G1 X84.467 Y122.066 E.013
G1 X84.299 Y122.427 E.01481
G1 X84.132 Y122.066 E.01481
G1 X83.956 Y121.965 E.00755
G1 X83.707 Y121.919 E.00943
G1 X74.207 Y121.919 E.35384
G1 X74.207 Y87.172 E1.29418
G1 X74.274 Y86.663 E.01911
G1 X74.453 Y86.232 E.01737
G1 X74.737 Y85.862 E.01737
G1 X75.107 Y85.578 E.01737
G1 X75.538 Y85.4 E.01737
G1 X76.046 Y85.333 E.01911
G1 X143.961 Y85.334 E2.52954
G1 X144.462 Y85.4 E.01886
G1 X144.893 Y85.578 E.01737
G1 X145.263 Y85.862 E.01737
G1 X145.547 Y86.232 E.01737
G1 X145.726 Y86.663 E.01737
G1 X145.793 Y87.301 E.02388
G1 X145.793 Y121.919 E1.28937
G1 X135.796 Y121.919 E.37236
G1 X135.695 Y121.926 E.00374
G1 X135.383 Y122.057 E.01261
G1 X135.203 Y122.433 E.01552
G1 X135.024 Y122.057 E.01552
G1 X134.85 Y121.962 E.00737
G1 X134.611 Y121.919 E.00905
G1 X110.392 Y121.919 E.90208
G1 X110.255 Y121.932 E.00512
G1 X109.953 Y122.077 E.01246
G1 X109.852 Y122.351 E.01089
;WIDTH:0.45502
G1 X109.751 Y122.626 E.00981
G1 X109.722 Y122.545 E.00289
G10 ; retract
;WIPE_START
G1 X109.65 Y122.351 E-.04946
G1 X109.549 Y122.077 E-.07015
G1 X109.371 Y121.97 E-.04991
G1 X109.111 Y121.919 E-.06363
G1 X109.083 Y121.919 E-.00685
;WIPE_END
G1 Z.6 F10800
G1 X135.137 Y126.595 Z.6
G1 Z.2
G11 ; unretract
;WIDTH:0.559961
G1 F1800
G1 X135.162 Y126.539 E.00257
;WIDTH:0.60007
G1 X135.204 Y126.444 E.00472
G1 X135.233 Y126.54 E.00455
;WIDTH:0.559961
G1 X135.262 Y126.636 E.00423
;WIDTH:0.519851
G1 X135.291 Y126.732 E.0039
;WIDTH:0.479742
G1 X135.32 Y126.828 E.00357
;WIDTH:0.439632
G1 X135.348 Y126.924 E.00324
;WIDTH:0.425664
G1 X135.388 Y127.495 E.01785
;WIDTH:0.451805
G1 X135.447 Y128.289 E.02653
G1 X135.002 Y128.289 E.01483
G1 X135.019 Y128.085 E.00683
G1 X135.006 Y127.513 E.01907
;WIDTH:0.425664
G1 X134.993 Y126.94 E.01785
;WIDTH:0.399522
G1 X134.993 Y126.919 E.00063
;WIDTH:0.439632
G1 X135.035 Y126.824 E.00336
;WIDTH:0.479742
G1 X135.077 Y126.729 E.0037
;WIDTH:0.519851
G1 X135.119 Y126.634 E.00404
;WIDTH:0.559961
G1 X135.12 Y126.631 E.00012
G10 ; retract
;WIPE_START
G1 X135.162 Y126.539 E-.02424
G1 X135.204 Y126.444 E-.02494
G1 X135.233 Y126.54 E-.02407
G1 X135.262 Y126.636 E-.02407
G1 X135.291 Y126.732 E-.02407
G1 X135.32 Y126.828 E-.02407
G1 X135.348 Y126.924 E-.02408
G1 X135.369 Y127.217 E-.07045
;WIPE_END
G1 Z.6 F10800
G1 X109.745 Y125.95 Z.6
G1 Z.2
G11 ; unretract
;WIDTH:0.644482
G1 F1800
G1 X109.773 Y126.025 E.0039
;WIDTH:0.598232
G1 X109.801 Y126.099 E.0036
;WIDTH:0.551982
G1 X109.829 Y126.174 E.0033
;WIDTH:0.505732
G1 X109.857 Y126.248 E.003
;WIDTH:0.459482
G1 X109.885 Y126.323 E.0027
;WIDTH:0.413231
G1 X109.913 Y126.398 E.0024
;WIDTH:0.407336
G1 X109.917 Y126.663 E.00787
;WIDTH:0.447691
G1 X109.921 Y126.928 E.00875
;WIDTH:0.497613
G1 X110.018 Y128.266 E.04973
G1 X109.549 Y128.266 E.01739
G1 X109.517 Y126.946 E.04893
;WIDTH:0.447691
G1 X109.553 Y126.664 E.00939
;WIDTH:0.407336
G1 X109.589 Y126.406 E.00773
;WIDTH:0.413231
G1 X109.615 Y126.33 E.00242
;WIDTH:0.459482
G1 X109.641 Y126.254 E.00273
;WIDTH:0.505732
G1 X109.667 Y126.178 E.00303
;WIDTH:0.551982
G1 X109.693 Y126.102 E.00333
;WIDTH:0.598232
G1 X109.719 Y126.026 E.00364
;WIDTH:0.644482
G1 X109.732 Y125.988 E.00198
G10 ; retract
;WIPE_START
G1 X109.773 Y126.025 E-.01318
G1 X109.801 Y126.099 E-.01911
G1 X109.829 Y126.174 E-.01911
G1 X109.857 Y126.248 E-.01911
G1 X109.885 Y126.323 E-.01911
G1 X109.913 Y126.398 E-.01911
G1 X109.917 Y126.663 E-.06363
G1 X109.921 Y126.928 E-.06363
G1 X109.922 Y126.944 E-.00399
;WIPE_END
G1 Z.6 F10800
G1 X84.445 Y126.924 Z.6
G1 Z.2
G11 ; unretract
;WIDTH:0.425292
G1 F1800
G1 X84.484 Y127.495 E.01784
;WIDTH:0.451444
G1 X84.543 Y128.289 E.02651
G1 X84.098 Y128.289 E.01484
G1 X84.115 Y128.085 E.00683
G1 X84.102 Y127.513 E.01906
;WIDTH:0.425292
G1 X84.089 Y126.94 E.01784
;WIDTH:0.39914
G1 X84.089 Y126.919 E.00063
;WIDTH:0.439188
G1 X84.131 Y126.824 E.00335
;WIDTH:0.479236
G1 X84.174 Y126.729 E.00369
;WIDTH:0.519283
G1 X84.216 Y126.634 E.00403
;WIDTH:0.559331
G1 X84.258 Y126.539 E.00437
;WIDTH:0.599378
G1 X84.3 Y126.444 E.00471
G1 X84.329 Y126.54 E.00455
;WIDTH:0.559331
G1 X84.358 Y126.636 E.00422
;WIDTH:0.519283
G1 X84.387 Y126.732 E.00389
;WIDTH:0.479236
G1 X84.416 Y126.828 E.00357
;WIDTH:0.439188
G1 X84.433 Y126.886 E.00195
G10 ; retract
;WIPE_START
G1 X84.484 Y127.495 E-.14681
G1 X84.513 Y127.882 E-.09319
;WIPE_END
G1 Z.6 F10800
G1 X109.339 Y122.613 Z.6
G1 Z.2
G11 ; unretract
;TYPE:Outer wall
;WIDTH:0.499999
G1 F1800
G1 X109.257 Y122.429 E.00751
G1 X109.111 Y122.376 E.00579
G1 X84.892 Y122.376 E.90208
G1 X84.809 Y122.391 E.00314
;WIDTH:0.545175
G1 X84.738 Y122.466 E.00421
;WIDTH:0.59035
G1 X84.667 Y122.54 E.00459
;WIDTH:0.635525
G1 X84.596 Y122.614 E.00496
;WIDTH:0.650903
G1 X84.602 Y123.051 E.02165
G1 X84.625 Y123.15 E.00504
;WIDTH:0.613177
G1 X84.647 Y123.25 E.00473
;WIDTH:0.575451
G1 X84.669 Y123.349 E.00441
;WIDTH:0.537725
G1 X84.691 Y123.448 E.0041
;WIDTH:0.499999
G1 X84.781 Y126.131 E.09999
G1 X84.977 Y128.278 E.08028
G1 X85.073 Y128.444 E.00714
G1 X85.398 Y128.722 E.01594
G1 X83.188 Y128.722 E.0823
G1 X83.319 Y128.598 E.00671
G1 X83.565 Y128.459 E.01053
G1 X83.683 Y128.259 E.00862
