; HEADER_BLOCK_START
; generated by OrcaSlicer 1.9.0 on 2024-02-03 at 19:04:02
; total layer number: 7
; filament_density: 1.24
; filament_diameter: 1.75
; max_z_height: 1.40
; HEADER_BLOCK_END

; THUMBNAIL_BLOCK_START

;
; THUMBNAIL_BLOCK_END

; external perimeters extrusion width = 0.45mm
; perimeters extrusion width = 0.45mm
; infill extrusion width = 0.45mm
; solid infill extrusion width = 0.48mm
; top infill extrusion width = 0.48mm
; first layer extrusion width = 0.45mm

; external perimeters extrusion width = 0.45mm
; perimeters extrusion width = 0.45mm
; infill extrusion width = 0.45mm
; solid infill extrusion width = 0.48mm
; top infill extrusion width = 0.48mm
; first layer extrusion width = 0.45mm

; external perimeters extrusion width = 0.45mm
; perimeters extrusion width = 0.45mm
; infill extrusion width = 0.45mm
; solid infill extrusion width = 0.48mm
; top infill extrusion width = 0.48mm
; first layer extrusion width = 0.45mm

; external perimeters extrusion width = 0.45mm
; perimeters extrusion width = 0.45mm
; infill extrusion width = 0.45mm
; solid infill extrusion width = 0.48mm
; top infill extrusion width = 0.48mm
; first layer extrusion width = 0.45mm

; external perimeters extrusion width = 0.45mm
; perimeters extrusion width = 0.45mm
; infill extrusion width = 0.45mm
; solid infill extrusion width = 0.48mm
; top infill extrusion width = 0.48mm
; first layer extrusion width = 0.45mm

; external perimeters extrusion width = 0.45mm
; perimeters extrusion width = 0.45mm
; infill extrusion width = 0.45mm
; solid infill extrusion width = 0.48mm
; top infill extrusion width = 0.48mm
; first layer extrusion width = 0.45mm

; external perimeters extrusion width = 0.45mm
; perimeters extrusion width = 0.45mm
; infill extrusion width = 0.45mm
; solid infill extrusion width = 0.48mm
; top infill extrusion width = 0.48mm
; first layer extrusion width = 0.45mm

; external perimeters extrusion width = 0.45mm
; perimeters extrusion width = 0.45mm
; infill extrusion width = 0.45mm
; solid infill extrusion width = 0.48mm
; top infill extrusion width = 0.48mm
; first layer extrusion width = 0.45mm

; external perimeters extrusion width = 0.45mm
; perimeters extrusion width = 0.45mm
; infill extrusion width = 0.45mm
; solid infill extrusion width = 0.48mm
; top infill extrusion width = 0.48mm
; first layer extrusion width = 0.45mm

; external perimeters extrusion width = 0.45mm
; perimeters extrusion width = 0.45mm
; infill extrusion width = 0.45mm
; solid infill extrusion width = 0.48mm
; top infill extrusion width = 0.48mm
; first layer extrusion width = 0.45mm

; EXECUTABLE_BLOCK_START
M73 P0 R73
;TYPE:Custom
START_PRINT
G90
G21
M83 ; use relative distances for extrusion
; filament start gcode
M106 S0
;LAYER_CHANGE
;Z:0.2
;HEIGHT:0.2
;BEFORE_LAYER_CHANGE
;0.2
G92 E0

G1 E-3 F1800
;AFTER_LAYER_CHANGE
;0.2
;_SET_FAN_SPEED_CHANGING_LAYER
SET_VELOCITY_LIMIT ACCEL=800 ACCEL_TO_DECEL=400
G1 Z.4 F9000
G1 X37.567 Y49.306
G1 Z.4
G1 Z.2
G1 E3 F2400
;TYPE:Skirt
;WIDTH:0.45
G1 F3000
G1 X13.524 Y67.625 E1.0528
G1 X11.605 Y68.588 E.07479
G1 X10 Y68.814 E.05644
G1 X-10 Y68.814 E.69661
G1 X-12.11 Y68.418 E.07479
G1 X-13.524 Y67.625 E.05644
G1 X-55.524 Y35.625 E1.8391
G1 X-66.111 Y25.111 E.5197
G1 X-67.323 Y23.338 E.07479
G1 X-67.814 Y21 E.08323
G1 X-67.814 Y-63 E2.92576
G1 X-67.418 Y-65.11 E.07479
G1 X-66.282 Y-66.933 E.07479
G1 X-64.562 Y-68.219 E.07479
G1 X-62 Y-68.814 E.09162
G1 X62 Y-68.814 E4.31897
G1 X64.11 Y-68.418 E.07479
G1 X65.933 Y-67.282 E.07479
G1 X67.219 Y-65.562 E.07479
G1 X67.814 Y-63 E.09162
G1 X67.814 Y21 E2.92576
M73 P0 R72
G1 X67.418 Y23.11 E.07479
G1 X66.111 Y25.111 E.08323
G1 X55.524 Y35.625 E.5197
G1 X37.598 Y49.282 E.78491
G1 X37.352 Y48.958 F9000
G1 F3000
G1 X13.277 Y67.301 E1.05419
G1 X11.421 Y68.217 E.07211
G1 X10 Y68.407 E.04992
G1 X-10 Y68.407 E.69661
G1 X-12.032 Y68.011 E.07211
G1 X-13.277 Y67.301 E.04992
G1 X-55.277 Y35.301 E1.8391
G1 X-65.823 Y24.823 E.5178
G1 X-66.98 Y23.106 E.07211
G1 X-67.407 Y21 E.07486
G1 X-67.407 Y-63 E2.92576
G1 X-67.011 Y-65.032 E.07211
G1 X-65.88 Y-66.766 E.07211
G1 X-64.18 Y-67.948 E.07211
G1 X-62 Y-68.407 E.07761
G1 X62 Y-68.407 E4.31897
G1 X64.032 Y-68.011 E.07211
G1 X65.766 Y-66.88 E.07211
G1 X66.948 Y-65.18 E.07211
G1 X67.407 Y-63 E.07761
G1 X67.407 Y21 E2.92576
G1 X67.011 Y23.032 E.07211
G1 X65.823 Y24.823 E.07486
G1 X55.277 Y35.301 E.5178
G1 X37.384 Y48.934 E.78351
; printing object flowrate_m3 id:0 copy 0
G1 E-2.4 F1800
;WIPE_START
G1 F3000
G1 X36.588 Y49.54 E-.6
;WIPE_END
G1 Z.6 F9000
G1 X33.228 Y20.728 Z.6
G1 Z.2
G1 E3 F2400
;TYPE:Inner wall
;WIDTH:0.449999
G1 F2700
G1 X33.228 Y20.628 E.0034
G1 X33.123 Y20.305 E.01145
G1 X32.891 Y20.012 E.01264
G1 X32.552 Y19.816 E.01323
G1 X32.221 Y19.761 E.01131
G1 X23.239 Y19.761 E.30347
G1 X23.239 Y2.239 E.59198
G1 X60.761 Y2.239 E1.26769
G1 X60.761 Y11 E.29599
G1 X60.761 Y19.761 E.29599
G1 X52 Y19.761 E.29599
G1 X51.61 Y19.775 E.01318
G1 X51.3 Y19.881 E.01108
G1 X51.008 Y20.114 E.01263
G1 X50.826 Y20.421 E.01206
G1 X50.761 Y20.779 E.01227
G1 X50.761 Y29.761 E.30347
G1 X33.239 Y29.761 E.59198
G1 X33.228 Y20.768 E.30382
G1 X32.827 Y20.748 F9000
G1 F2700
G1 X32.825 Y20.688 E.00203
G1 X32.728 Y20.437 E.0091
G1 X32.509 Y20.24 E.00995
G1 X32.221 Y20.168 E.01001
G1 X22.832 Y20.168 E.31722
G1 X22.832 Y1.832 E.61948
G1 X61.168 Y1.832 E1.29519
G1 X61.168 Y11 E.30974
G1 X61.168 Y20.168 E.30974
G1 X51.677 Y20.176 E.32064
G1 X51.412 Y20.29 E.00975
G1 X51.238 Y20.495 E.00908
G1 X51.168 Y20.779 E.00988
G1 X51.168 Y30.168 E.31722
G1 X32.832 Y30.168 E.61948
G1 X32.832 Y21 E.30974
G1 X32.827 Y20.788 E.00717
G1 X32.425 Y20.779 F9000
;TYPE:Outer wall
G1 F2700
G1 X32.376 Y20.646 E.00479
G1 X32.221 Y20.575 E.00573
G1 X22.425 Y20.575 E.33098
G1 X22.425 Y1.425 E.64699
G1 X61.575 Y1.425 E1.3227
G1 X61.575 Y11 E.3235
G1 X61.575 Y20.575 E.3235
G1 X51.779 Y20.575 E.33098
G1 X51.645 Y20.625 E.00483
G1 X51.575 Y20.779 E.00569
G1 X51.575 Y30.575 E.33098
G1 X32.425 Y30.575 E.64699
G1 X32.425 Y20.819 E.32963
G1 E-3 F1800
G1 Z.6 F9000
G1 X59.808 Y2.361 Z.6
G1 Z.2
G1 E3 F2400
;TYPE:Bottom surface
;WIDTH:0.453916
G1 F2100
G1 X60.456 Y3.009 E.03126
G1 X60.456 Y3.591 E.01983
G1 X59.409 Y2.544 E.05046
G1 X58.828 Y2.544 E.01983
G1 X60.456 Y4.172 E.0785
G1 X60.456 Y4.753 E.01983
G1 X58.247 Y2.544 E.10654
G1 X57.666 Y2.544 E.01983
G1 X60.456 Y5.334 E.13458
G1 X60.456 Y5.915 E.01983
G1 X57.085 Y2.544 E.16262
G1 X56.503 Y2.544 E.01983
G1 X60.456 Y6.497 E.19066
G1 X60.456 Y7.078 E.01983
G1 X55.922 Y2.544 E.21869
G1 X55.341 Y2.544 E.01983
G1 X60.456 Y7.659 E.24673
G1 X60.456 Y8.24 E.01983
G1 X54.76 Y2.544 E.27477
G1 X54.178 Y2.544 E.01983
G1 X60.456 Y8.822 E.30281
G1 X60.456 Y9.403 E.01983
G1 X53.597 Y2.544 E.33085
G1 X53.016 Y2.544 E.01983
G1 X60.456 Y9.984 E.35889
G1 X60.456 Y10.565 E.01983
G1 X52.435 Y2.544 E.38693
G1 X51.853 Y2.544 E.01983
G1 X60.456 Y11.147 E.41496
G1 X60.456 Y11.728 E.01983
G1 X51.272 Y2.544 E.443
G1 X50.691 Y2.544 E.01983
G1 X60.456 Y12.309 E.47104
G1 X60.456 Y12.89 E.01983
G1 X50.11 Y2.544 E.49908
G1 X49.528 Y2.544 E.01983
G1 X60.456 Y13.472 E.52712
G1 X60.456 Y14.053 E.01983
G1 X48.947 Y2.544 E.55516
G1 X48.366 Y2.544 E.01983
G1 X60.456 Y14.634 E.5832
G1 X60.456 Y15.215 E.01983
G1 X47.785 Y2.544 E.61123
G1 X47.203 Y2.544 E.01983
G1 X60.456 Y15.797 E.63927
G1 X60.456 Y16.378 E.01983
G1 X46.622 Y2.544 E.66731
G1 X46.041 Y2.544 E.01983
G1 X60.456 Y16.959 E.69535
G1 X60.456 Y17.54 E.01983
G1 X45.46 Y2.544 E.72339
G1 X44.879 Y2.544 E.01983
G1 X60.456 Y18.121 E.75143
G1 X60.456 Y18.703 E.01983
G1 X44.297 Y2.544 E.77947
M73 P1 R72
G1 X43.716 Y2.544 E.01983
G1 X60.456 Y19.284 E.8075
G1 X60.456 Y19.456 E.00585
G1 X60.046 Y19.456 E.01397
G1 X43.135 Y2.544 E.81578
G1 X42.554 Y2.544 E.01983
G1 X59.465 Y19.456 E.81578
G1 X58.883 Y19.456 E.01983
G1 X41.972 Y2.544 E.81578
G1 X41.391 Y2.544 E.01983
G1 X58.302 Y19.456 E.81578
G1 X57.721 Y19.456 E.01983
G1 X40.81 Y2.544 E.81578
G1 X40.229 Y2.544 E.01983
G1 X57.14 Y19.456 E.81578
G1 X56.558 Y19.456 E.01983
G1 X39.647 Y2.544 E.81578
G1 X39.066 Y2.544 E.01983
G1 X55.977 Y19.456 E.81578
G1 X55.396 Y19.456 E.01983
G1 X38.485 Y2.544 E.81578
G1 X37.904 Y2.544 E.01983
G1 X54.815 Y19.456 E.81578
G1 X54.234 Y19.456 E.01983
G1 X37.322 Y2.544 E.81578
G1 X36.741 Y2.544 E.01983
G1 X53.652 Y19.456 E.81578
G1 X53.071 Y19.456 E.01983
G1 X36.16 Y2.544 E.81578
G1 X35.579 Y2.544 E.01983
G1 X52.49 Y19.456 E.81578
G1 X51.909 Y19.456 E.01983
G1 X34.998 Y2.544 E.81578
G1 X34.416 Y2.544 E.01983
G1 X51.394 Y19.522 E.81898
G1 X51.252 Y19.564 E.00505
G1 X51.004 Y19.713 E.00987
G1 X33.835 Y2.544 E.82822
G1 X33.254 Y2.544 E.01983
G1 X50.711 Y20.002 E.84214
G1 X50.539 Y20.313 E.01213
G1 X50.519 Y20.391 E.00275
G1 X32.673 Y2.544 E.86091
G1 X32.091 Y2.544 E.01983
G1 X50.456 Y20.909 E.88588
G1 X50.456 Y21.49 E.01983
G1 X31.51 Y2.544 E.91392
G1 X30.929 Y2.544 E.01983
G1 X50.456 Y22.071 E.94196
G1 X50.456 Y22.652 E.01983
G1 X30.348 Y2.544 E.97
G1 X29.766 Y2.544 E.01983
G1 X50.456 Y23.234 E.99804
G1 X50.456 Y23.815 E.01983
G1 X29.185 Y2.544 E1.02607
G1 X28.604 Y2.544 E.01983
G1 X50.456 Y24.396 E1.05411
G1 X50.456 Y24.977 E.01983
G1 X28.023 Y2.544 E1.08215
G1 X27.441 Y2.544 E.01983
G1 X50.456 Y25.559 E1.11019
G1 X50.456 Y26.14 E.01983
G1 X26.86 Y2.544 E1.13823
G1 X26.279 Y2.544 E.01983
G1 X50.456 Y26.721 E1.16627
M73 P1 R71
G1 X50.456 Y27.302 E.01983
G1 X25.698 Y2.544 E1.19431
G1 X25.117 Y2.544 E.01983
G1 X50.456 Y27.883 E1.22234
G1 X50.456 Y28.465 E.01983
G1 X24.535 Y2.544 E1.25038
G1 X23.954 Y2.544 E.01983
G1 X50.456 Y29.046 E1.27842
G1 X50.456 Y29.456 E.01397
G1 X50.284 Y29.456 E.00586
G1 X23.544 Y2.716 E1.2899
G1 X23.544 Y3.297 E.01983
G1 X49.703 Y29.456 E1.26186
G1 X49.121 Y29.456 E.01983
G1 X23.544 Y3.879 E1.23382
G1 X23.544 Y4.46 E.01983
G1 X48.54 Y29.456 E1.20578
G1 X47.959 Y29.456 E.01983
G1 X23.544 Y5.041 E1.17774
G1 X23.544 Y5.622 E.01983
G1 X47.378 Y29.456 E1.14971
G1 X46.796 Y29.456 E.01983
G1 X23.544 Y6.204 E1.12167
G1 X23.544 Y6.785 E.01983
G1 X46.215 Y29.456 E1.09363
G1 X45.634 Y29.456 E.01983
G1 X23.544 Y7.366 E1.06559
G1 X23.544 Y7.947 E.01983
G1 X45.053 Y29.456 E1.03755
G1 X44.472 Y29.456 E.01983
G1 X23.544 Y8.528 E1.00951
G1 X23.544 Y9.11 E.01983
G1 X43.89 Y29.456 E.98147
G1 X43.309 Y29.456 E.01983
G1 X23.544 Y9.691 E.95344
G1 X23.544 Y10.272 E.01983
G1 X42.728 Y29.456 E.9254
G1 X42.147 Y29.456 E.01983
M73 P2 R71
G1 X33.544 Y20.853 E.41496
G1 X33.544 Y21.435 E.01983
G1 X41.565 Y29.456 E.38692
G1 X40.984 Y29.456 E.01983
G1 X33.544 Y22.016 E.35889
G1 X33.544 Y22.597 E.01983
G1 X40.403 Y29.456 E.33085
G1 X39.822 Y29.456 E.01983
G1 X33.544 Y23.178 E.30281
G1 X33.544 Y23.76 E.01983
G1 X39.24 Y29.456 E.27477
G1 X38.659 Y29.456 E.01983
G1 X33.544 Y24.341 E.24673
G1 X33.544 Y24.922 E.01983
G1 X38.078 Y29.456 E.21869
G1 X37.497 Y29.456 E.01983
G1 X33.544 Y25.503 E.19065
G1 X33.544 Y26.085 E.01983
G1 X36.915 Y29.456 E.16262
G1 X36.334 Y29.456 E.01983
G1 X33.544 Y26.666 E.13458
G1 X33.544 Y27.247 E.01983
G1 X35.753 Y29.456 E.10654
G1 X35.172 Y29.456 E.01983
G1 X33.544 Y27.828 E.0785
G1 X33.544 Y28.409 E.01983
G1 X34.591 Y29.456 E.05046
G1 X34.009 Y29.456 E.01983
G1 X33.361 Y28.808 E.03126
G1 E-3 F1800
G1 Z.6 F9000
G1 X32.34 Y19.649 Z.6
G1 Z.2
G1 E3 F2400
G1 F2100
G1 X23.544 Y10.853 E.42431
G1 X23.544 Y11.435 E.01983
G1 X31.565 Y19.456 E.38692
G1 X30.984 Y19.456 E.01983
G1 X23.544 Y12.016 E.35889
G1 X23.544 Y12.597 E.01983
G1 X30.403 Y19.456 E.33085
G1 X29.822 Y19.456 E.01983
G1 X23.544 Y13.178 E.30281
G1 X23.544 Y13.76 E.01983
G1 X29.24 Y19.456 E.27477
G1 X28.659 Y19.456 E.01983
G1 X23.544 Y14.341 E.24673
G1 X23.544 Y14.922 E.01983
G1 X28.078 Y19.456 E.21869
G1 X27.497 Y19.456 E.01983
G1 X23.544 Y15.503 E.19065
G1 X23.544 Y16.085 E.01983
G1 X26.915 Y19.456 E.16262
G1 X26.334 Y19.456 E.01983
G1 X23.544 Y16.666 E.13458
G1 X23.544 Y17.247 E.01983
G1 X25.753 Y19.456 E.10654
G1 X25.172 Y19.456 E.01983
G1 X23.544 Y17.828 E.0785
G1 X23.544 Y18.409 E.01983
G1 X24.591 Y19.456 E.05046
G1 X24.009 Y19.456 E.01983
G1 X23.361 Y18.808 E.03126
; stop printing object flowrate_m3 id:0 copy 0
; printing object flowrate_m6 id:3048266381024 copy 0
G1 E-2.14286 F1800
;WIPE_START
G1 F2100
G1 X24.009 Y19.456 E-.78549
G1 X24.093 Y19.456 E-.07166
;WIPE_END
G1 Z.6 F9000
G1 X33.221 Y-11.362 Z.6
G1 Z.2
G1 E3 F2400
;TYPE:Inner wall
;WIDTH:0.449999
G1 F2700
G1 X33.198 Y-11.49 E.00424
G1 X32.977 Y-11.903 E.01536
G1 X32.552 Y-12.182 E.01663
G1 X32.221 Y-12.239 E.01097
G1 X23.239 Y-12.239 E.29409
G1 X23.239 Y-29.761 E.57367
G1 X60.761 Y-29.761 E1.22848
G1 X60.761 Y-20.999 E.28686
G1 X60.761 Y-12.239 E.28682
G1 X51.689 Y-12.235 E.29703
G1 X51.317 Y-12.118 E.01275
G1 X51.122 Y-11.998 E.0075
G1 X50.832 Y-11.594 E.01628
G1 X50.761 Y-11.221 E.01242
G1 X50.761 Y-2.239 E.29409
G1 X33.239 Y-2.239 E.57368
G1 X33.235 Y-11.282 E.29607
G1 X33.227 Y-11.323 E.00136
G1 X32.804 Y-11.341 F9000
G1 F2700
G1 X32.711 Y-11.581 E.00843
G1 X32.429 Y-11.789 E.01147
G1 X32.221 Y-11.832 E.00693
G1 X22.832 Y-11.832 E.30741
G1 X22.832 Y-30.168 E.60033
G1 X61.168 Y-30.168 E1.25514
G1 X61.168 Y-20.999 E.30019
G1 X61.168 Y-11.832 E.30014
G1 X51.745 Y-11.831 E.30852
G1 X51.462 Y-11.737 E.00975
G1 X51.234 Y-11.486 E.01109
G1 X51.168 Y-11.221 E.00895
G1 X51.168 Y-1.832 E.30741
G1 X32.832 Y-1.832 E.60033
G1 X32.828 Y-11.282 E.30939
G1 X32.819 Y-11.304 E.00077
G1 X32.425 Y-11.221 F9000
;TYPE:Outer wall
G1 F2700
G1 X32.376 Y-11.354 E.00464
G1 X32.221 Y-11.425 E.00555
G1 X22.425 Y-11.425 E.32074
G1 X22.425 Y-30.575 E.62698
G1 X61.575 Y-30.575 E1.28179
G1 X61.575 Y-21 E.31349
G1 X61.575 Y-11.425 E.31349
G1 X51.779 Y-11.425 E.32074
G1 X51.645 Y-11.375 E.00468
G1 X51.575 Y-11.221 E.00552
G1 X51.575 Y-1.425 E.32074
G1 X32.425 Y-1.425 E.62698
G1 X32.425 Y-11.181 E.31943
G1 E-3 F1800
G1 Z.6 F9000
G1 X39.993 Y-8.077 Z.6
G1 Z.2
G1 E3 F2400
;TYPE:Inner wall
G1 F2700
G1 X40.193 Y-8.31 E.01005
G1 X40.471 Y-8.416 E.00973
G1 X42.85 Y-8.698 E.07843
G1 X43.141 Y-8.661 E.00961
G1 X43.385 Y-8.489 E.00977
G1 X43.508 Y-8.26 E.00851
G1 X43.845 Y-7.089 E.03991
G1 X44.445 Y-5.739 E.04837
G1 X44.497 Y-5.472 E.00892
G1 X44.412 Y-5.18 E.00996
G1 X44.285 Y-5.028 E.0065
G1 X44.089 Y-4.915 E.00737
G1 X40.648 Y-3.706 E.11944
G1 X40.445 Y-3.671 E.00672
G1 X40.293 Y-3.69 E.00502
G1 X40.006 Y-3.857 E.01085
G1 X39.866 Y-4.089 E.00887
G1 X39.835 Y-4.293 E.00675
G1 X39.875 Y-6.548 E.07385
G1 X39.932 Y-7.837 E.04224
G1 X39.984 Y-8.038 E.0068
G1 X40.405 Y-7.959 F9000
G1 F2700
G1 X40.518 Y-8.012 E.0041
G1 X42.897 Y-8.294 E.07843
G1 X43.05 Y-8.249 E.00519
G1 X43.117 Y-8.148 E.00399
G1 X43.462 Y-6.949 E.04083
G1 X44.073 Y-5.574 E.04929
G1 X44.084 Y-5.439 E.00443
G1 X44.02 Y-5.337 E.00395
G1 X43.954 Y-5.299 E.00246
G1 X40.513 Y-4.09 E.11944
G1 X40.394 Y-4.085 E.00387
G1 X40.252 Y-4.217 E.00637
G1 X40.242 Y-4.285 E.00225
G1 X40.282 Y-6.53 E.0735
G1 X40.339 Y-7.819 E.04224
G1 X40.388 Y-7.923 E.00377
G1 E-3 F1800
G1 Z.6 F9000
G1 X43.336 Y-6.946 Z.6
G1 Z.2
G1 E3 F2400
;TYPE:Bottom surface
;WIDTH:0.474899
G1 F2100
G1 X42.359 Y-7.922 E.048
G1 X41.813 Y-7.858 E.01911
G1 X43.453 Y-6.218 E.08058
G1 X43.749 Y-5.55 E.02537
G1 X43.572 Y-5.488 E.00654
G1 X41.267 Y-7.793 E.11325
G1 X40.72 Y-7.728 E.01911
G1 X43.12 Y-5.329 E.11788
G1 X42.667 Y-5.17 E.01665
G1 X40.618 Y-7.22 E.1007
G1 X40.592 Y-6.635 E.02034
G1 X42.215 Y-5.012 E.07977
G1 X41.763 Y-4.853 E.01665
G1 X40.578 Y-6.038 E.05823
G1 X40.568 Y-5.438 E.02086
G1 X41.311 Y-4.694 E.03654
G1 X40.859 Y-4.535 E.01665
G1 X40.377 Y-5.017 E.0237
G1 E-3 F1800
G1 Z.6 F9000
G1 X59.808 Y-29.639 Z.6
G1 Z.2
G1 E3 F2400
;WIDTH:0.453919
G1 F2100
G1 X60.456 Y-28.991 E.03029
G1 X60.456 Y-28.409 E.01921
G1 X59.409 Y-29.456 E.0489
G1 X58.828 Y-29.456 E.01921
G1 X60.456 Y-27.828 E.07607
G1 X60.456 Y-27.247 E.01921
G1 X58.247 Y-29.456 E.10325
G1 X57.666 Y-29.456 E.01921
G1 X60.456 Y-26.666 E.13042
G1 X60.456 Y-26.084 E.01921
G1 X57.084 Y-29.456 E.15759
G1 X56.503 Y-29.456 E.01921
G1 X60.456 Y-25.503 E.18476
G1 X60.456 Y-24.922 E.01921
G1 X55.922 Y-29.456 E.21193
G1 X55.341 Y-29.456 E.01921
G1 X60.456 Y-24.341 E.23911
G1 X60.456 Y-23.76 E.01921
G1 X54.76 Y-29.456 E.26628
G1 X54.178 Y-29.456 E.01921
