; HEADER_BLOCK_START
; generated by OrcaSlicer 1.9.0 on 2024-02-03 at 18:43:58
; total layer number: 7
; filament_density: 1.24
; filament_diameter: 1.75
; max_z_height: 1.40
; HEADER_BLOCK_END

; THUMBNAIL_BLOCK_START

;
; THUMBNAIL_BLOCK_END

; external perimeters extrusion width = 0.45mm
; perimeters extrusion width = 0.45mm
; infill extrusion width = 0.45mm
; solid infill extrusion width = 0.48mm
; top infill extrusion width = 0.48mm
; first layer extrusion width = 0.45mm

; external perimeters extrusion width = 0.45mm
; perimeters extrusion width = 0.45mm
; infill extrusion width = 0.45mm
; solid infill extrusion width = 0.48mm
; top infill extrusion width = 0.48mm
; first layer extrusion width = 0.45mm

; external perimeters extrusion width = 0.45mm
; perimeters extrusion width = 0.45mm
; infill extrusion width = 0.45mm
; solid infill extrusion width = 0.48mm
; top infill extrusion width = 0.48mm
; first layer extrusion width = 0.45mm

; external perimeters extrusion width = 0.45mm
; perimeters extrusion width = 0.45mm
; infill extrusion width = 0.45mm
; solid infill extrusion width = 0.48mm
; top infill extrusion width = 0.48mm
; first layer extrusion width = 0.45mm

; external perimeters extrusion width = 0.45mm
; perimeters extrusion width = 0.45mm
; infill extrusion width = 0.45mm
; solid infill extrusion width = 0.48mm
; top infill extrusion width = 0.48mm
; first layer extrusion width = 0.45mm

; external perimeters extrusion width = 0.45mm
; perimeters extrusion width = 0.45mm
; infill extrusion width = 0.45mm
; solid infill extrusion width = 0.48mm
; top infill extrusion width = 0.48mm
; first layer extrusion width = 0.45mm

; external perimeters extrusion width = 0.45mm
; perimeters extrusion width = 0.45mm
; infill extrusion width = 0.45mm
; solid infill extrusion width = 0.48mm
; top infill extrusion width = 0.48mm
; first layer extrusion width = 0.45mm

; external perimeters extrusion width = 0.45mm
; perimeters extrusion width = 0.45mm
; infill extrusion width = 0.45mm
; solid infill extrusion width = 0.48mm
; top infill extrusion width = 0.48mm
; first layer extrusion width = 0.45mm

; external perimeters extrusion width = 0.45mm
; perimeters extrusion width = 0.45mm
; infill extrusion width = 0.45mm
; solid infill extrusion width = 0.48mm
; top infill extrusion width = 0.48mm
; first layer extrusion width = 0.45mm

; EXECUTABLE_BLOCK_START
M73 P0 R65
;TYPE:Custom
START_PRINT
G90
G21
M83 ; use relative distances for extrusion
; filament start gcode
M106 S0
;LAYER_CHANGE
;Z:0.2
;HEIGHT:0.2
;BEFORE_LAYER_CHANGE
;0.2
G92 E0

G1 E-3 F1800
;AFTER_LAYER_CHANGE
;0.2
;_SET_FAN_SPEED_CHANGING_LAYER
SET_VELOCITY_LIMIT ACCEL=800 ACCEL_TO_DECEL=400
G1 Z.4 F9000
G1 X0 Y52.814
G1 Z.4
G1 Z.2
G1 E3 F2400
;TYPE:Skirt
;WIDTH:0.45
G1 F3000
G1 X-52 Y52.814 E1.72494
G1 X-54.11 Y52.418 E.07123
G1 X-56.111 Y51.111 E.07926
G1 X-66.111 Y41.111 E.46912
G1 X-67.323 Y39.338 E.07123
G1 X-67.814 Y37 E.07926
G1 X-67.814 Y-47 E2.78643
G1 X-67.418 Y-49.11 E.07123
G1 X-66.282 Y-50.933 E.07123
G1 X-64.562 Y-52.219 E.07123
G1 X-62 Y-52.814 E.08726
G1 X62 Y-52.814 E4.11331
G1 X64.11 Y-52.418 E.07123
G1 X65.933 Y-51.282 E.07123
G1 X67.219 Y-49.562 E.07123
G1 X67.814 Y-47 E.08726
G1 X67.814 Y37 E2.78643
G1 X67.418 Y39.11 E.07123
G1 X66.111 Y41.111 E.07926
G1 X56.111 Y51.111 E.46912
G1 X54.338 Y52.323 E.07123
G1 X52 Y52.814 E.07926
G1 X.04 Y52.814 E1.72361
G1 X.04 Y52.407 F9000
G1 F3000
G1 X-52 Y52.407 E1.72626
G1 X-54.032 Y52.011 E.06867
G1 X-55.823 Y50.823 E.07129
G1 X-65.823 Y40.823 E.46912
G1 X-66.98 Y39.106 E.06867
G1 X-67.407 Y37 E.07129
G1 X-67.407 Y-47 E2.78643
G1 X-67.011 Y-49.032 E.06867
G1 X-65.88 Y-50.766 E.06867
G1 X-64.18 Y-51.948 E.06867
G1 X-62 Y-52.407 E.07391
G1 X62 Y-52.407 E4.11331
G1 X64.032 Y-52.011 E.06867
G1 X65.766 Y-50.88 E.06867
G1 X66.948 Y-49.18 E.06867
G1 X67.407 Y-47 E.07391
G1 X67.407 Y37 E2.78643
G1 X67.011 Y39.032 E.06867
G1 X65.823 Y40.823 E.07129
G1 X55.823 Y50.823 E.46912
G1 X54.106 Y51.98 E.06867
G1 X52 Y52.407 E.07129
G1 X.08 Y52.407 E1.72228
; printing object flowrate_m20 id:381404408917329224 copy 0
G1 E-2.4 F1800
;WIPE_START
G1 F3000
G1 X-.92 Y52.407 E-.6
;WIPE_END
G1 Z.6 F9000
G1 X-50.772 Y-27.272 Z.6
G1 Z.2
G1 E3 F2400
;TYPE:Inner wall
;WIDTH:0.449999
G1 F2700
G1 X-50.772 Y-27.372 E.00267
G1 X-50.877 Y-27.695 E.00899
G1 X-51.109 Y-27.988 E.00993
G1 X-51.448 Y-28.184 E.01039
G1 X-51.779 Y-28.239 E.00888
G1 X-60.761 Y-28.239 E.23837
G1 X-60.761 Y-45.761 E.46498
G1 X-23.239 Y-45.761 E.99573
G1 X-23.239 Y-37 E.23249
G1 X-23.239 Y-28.239 E.23249
G1 X-32 Y-28.239 E.23249
G1 X-32.39 Y-28.225 E.01035
G1 X-32.7 Y-28.119 E.0087
G1 X-32.992 Y-27.886 E.00992
G1 X-33.174 Y-27.579 E.00947
G1 X-33.239 Y-27.221 E.00964
G1 X-33.239 Y-18.239 E.23837
G1 X-50.761 Y-18.239 E.46498
G1 X-50.772 Y-27.232 E.23864
G1 X-51.173 Y-27.252 F9000
G1 F2700
G1 X-51.175 Y-27.312 E.00159
G1 X-51.272 Y-27.563 E.00715
G1 X-51.491 Y-27.76 E.00782
G1 X-51.779 Y-27.832 E.00786
G1 X-61.168 Y-27.832 E.24917
G1 X-61.168 Y-46.168 E.48659
G1 X-22.832 Y-46.168 E1.01733
G1 X-22.832 Y-37 E.24329
G1 X-22.832 Y-27.832 E.24329
G1 X-32.323 Y-27.824 E.25185
G1 X-32.588 Y-27.71 E.00766
G1 X-32.762 Y-27.505 E.00713
G1 X-32.832 Y-27.221 E.00776
G1 X-32.832 Y-17.832 E.24917
G1 X-51.168 Y-17.832 E.48659
G1 X-51.168 Y-27 E.24329
G1 X-51.173 Y-27.212 E.00563
G1 X-51.575 Y-27.221 F9000
;TYPE:Outer wall
G1 F2700
G1 X-51.624 Y-27.354 E.00376
G1 X-51.779 Y-27.425 E.0045
G1 X-61.575 Y-27.425 E.25997
G1 X-61.575 Y-46.575 E.50819
G1 X-22.425 Y-46.575 E1.03894
G1 X-22.425 Y-37 E.2541
G1 X-22.425 Y-27.425 E.2541
G1 X-32.221 Y-27.425 E.25997
G1 X-32.355 Y-27.375 E.00379
G1 X-32.425 Y-27.221 E.00447
G1 X-32.425 Y-17.425 E.25997
G1 X-51.575 Y-17.425 E.50819
G1 X-51.575 Y-27.181 E.25891
G1 E-3 F1800
G1 Z.6 F9000
G1 X-24.192 Y-45.639 Z.6
G1 Z.2
G1 E3 F2400
;TYPE:Bottom surface
;WIDTH:0.453916
G1 F2100
G1 X-23.544 Y-44.991 E.02455
G1 X-23.544 Y-44.409 E.01557
G1 X-24.591 Y-45.456 E.03964
G1 X-25.172 Y-45.456 E.01557
G1 X-23.544 Y-43.828 E.06166
G1 X-23.544 Y-43.247 E.01557
G1 X-25.753 Y-45.456 E.08368
G1 X-26.334 Y-45.456 E.01557
G1 X-23.544 Y-42.666 E.10571
G1 X-23.544 Y-42.085 E.01557
G1 X-26.915 Y-45.456 E.12773
G1 X-27.497 Y-45.456 E.01557
G1 X-23.544 Y-41.503 E.14975
G1 X-23.544 Y-40.922 E.01557
G1 X-28.078 Y-45.456 E.17178
G1 X-28.659 Y-45.456 E.01557
G1 X-23.544 Y-40.341 E.1938
G1 X-23.544 Y-39.76 E.01557
G1 X-29.24 Y-45.456 E.21582
G1 X-29.822 Y-45.456 E.01557
G1 X-23.544 Y-39.178 E.23785
G1 X-23.544 Y-38.597 E.01557
G1 X-30.403 Y-45.456 E.25987
G1 X-30.984 Y-45.456 E.01557
G1 X-23.544 Y-38.016 E.28189
G1 X-23.544 Y-37.435 E.01557
G1 X-31.565 Y-45.456 E.30392
G1 X-32.147 Y-45.456 E.01557
G1 X-23.544 Y-36.853 E.32594
G1 X-23.544 Y-36.272 E.01557
G1 X-32.728 Y-45.456 E.34797
G1 X-33.309 Y-45.456 E.01557
G1 X-23.544 Y-35.691 E.36999
G1 X-23.544 Y-35.11 E.01557
G1 X-33.89 Y-45.456 E.39201
G1 X-34.472 Y-45.456 E.01557
G1 X-23.544 Y-34.528 E.41404
G1 X-23.544 Y-33.947 E.01557
G1 X-35.053 Y-45.456 E.43606
G1 X-35.634 Y-45.456 E.01557
G1 X-23.544 Y-33.366 E.45808
G1 X-23.544 Y-32.785 E.01557
G1 X-36.215 Y-45.456 E.48011
G1 X-36.797 Y-45.456 E.01557
G1 X-23.544 Y-32.203 E.50213
M73 P1 R65
G1 X-23.544 Y-31.622 E.01557
G1 X-37.378 Y-45.456 E.52415
G1 X-37.959 Y-45.456 E.01557
G1 X-23.544 Y-31.041 E.54618
G1 X-23.544 Y-30.46 E.01557
G1 X-38.54 Y-45.456 E.5682
G1 X-39.121 Y-45.456 E.01557
G1 X-23.544 Y-29.879 E.59022
G1 X-23.544 Y-29.297 E.01557
G1 X-39.703 Y-45.456 E.61225
G1 X-40.284 Y-45.456 E.01557
G1 X-23.544 Y-28.716 E.63427
G1 X-23.544 Y-28.544 E.0046
G1 X-23.954 Y-28.544 E.01097
G1 X-40.865 Y-45.456 E.64077
G1 X-41.446 Y-45.456 E.01557
G1 X-24.535 Y-28.544 E.64077
G1 X-25.117 Y-28.544 E.01557
G1 X-42.028 Y-45.456 E.64077
G1 X-42.609 Y-45.456 E.01557
G1 X-25.698 Y-28.544 E.64077
G1 X-26.279 Y-28.544 E.01557
G1 X-43.19 Y-45.456 E.64077
G1 X-43.771 Y-45.456 E.01557
G1 X-26.86 Y-28.544 E.64077
G1 X-27.442 Y-28.544 E.01557
G1 X-44.353 Y-45.456 E.64077
G1 X-44.934 Y-45.456 E.01557
G1 X-28.023 Y-28.544 E.64077
G1 X-28.604 Y-28.544 E.01557
G1 X-45.515 Y-45.456 E.64077
G1 X-46.096 Y-45.456 E.01557
G1 X-29.185 Y-28.544 E.64077
G1 X-29.766 Y-28.544 E.01557
G1 X-46.678 Y-45.456 E.64077
G1 X-47.259 Y-45.456 E.01557
G1 X-30.348 Y-28.544 E.64077
G1 X-30.929 Y-28.544 E.01557
G1 X-47.84 Y-45.456 E.64077
G1 X-48.421 Y-45.456 E.01557
G1 X-31.51 Y-28.544 E.64077
G1 X-32.091 Y-28.544 E.01557
G1 X-49.002 Y-45.456 E.64077
G1 X-49.584 Y-45.456 E.01557
G1 X-32.606 Y-28.478 E.64328
M73 P1 R64
G1 X-32.748 Y-28.436 E.00396
G1 X-32.996 Y-28.287 E.00775
G1 X-50.165 Y-45.456 E.65054
G1 X-50.746 Y-45.456 E.01557
G1 X-33.289 Y-27.998 E.66148
G1 X-33.461 Y-27.687 E.00953
G1 X-33.481 Y-27.609 E.00216
G1 X-51.327 Y-45.456 E.67622
G1 X-51.909 Y-45.456 E.01557
G1 X-33.544 Y-27.091 E.69583
G1 X-33.544 Y-26.51 E.01557
G1 X-52.49 Y-45.456 E.71786
G1 X-53.071 Y-45.456 E.01557
G1 X-33.544 Y-25.929 E.73988
G1 X-33.544 Y-25.348 E.01557
G1 X-53.652 Y-45.456 E.7619
G1 X-54.234 Y-45.456 E.01557
G1 X-33.544 Y-24.766 E.78393
G1 X-33.544 Y-24.185 E.01557
G1 X-54.815 Y-45.456 E.80595
G1 X-55.396 Y-45.456 E.01557
G1 X-33.544 Y-23.604 E.82797
G1 X-33.544 Y-23.023 E.01557
G1 X-55.977 Y-45.456 E.85
G1 X-56.559 Y-45.456 E.01557
G1 X-33.544 Y-22.441 E.87202
G1 X-33.544 Y-21.86 E.01557
G1 X-57.14 Y-45.456 E.89404
G1 X-57.721 Y-45.456 E.01557
G1 X-33.544 Y-21.279 E.91607
G1 X-33.544 Y-20.698 E.01557
G1 X-58.302 Y-45.456 E.93809
G1 X-58.883 Y-45.456 E.01557
G1 X-33.544 Y-20.117 E.96011
G1 X-33.544 Y-19.535 E.01557
G1 X-59.465 Y-45.456 E.98214
G1 X-60.046 Y-45.456 E.01557
G1 X-33.544 Y-18.954 E1.00416
G1 X-33.544 Y-18.544 E.01097
G1 X-33.716 Y-18.544 E.0046
G1 X-60.456 Y-45.284 E1.01318
G1 X-60.456 Y-44.703 E.01557
G1 X-34.297 Y-18.544 E.99115
G1 X-34.879 Y-18.544 E.01557
G1 X-60.456 Y-44.121 E.96913
G1 X-60.456 Y-43.54 E.01557
G1 X-35.46 Y-18.544 E.9471
G1 X-36.041 Y-18.544 E.01557
G1 X-60.456 Y-42.959 E.92508
G1 X-60.456 Y-42.378 E.01557
G1 X-36.622 Y-18.544 E.90306
M73 P2 R64
G1 X-37.204 Y-18.544 E.01557
G1 X-60.456 Y-41.796 E.88103
G1 X-60.456 Y-41.215 E.01557
G1 X-37.785 Y-18.544 E.85901
G1 X-38.366 Y-18.544 E.01557
G1 X-60.456 Y-40.634 E.83699
G1 X-60.456 Y-40.053 E.01557
G1 X-38.947 Y-18.544 E.81496
G1 X-39.528 Y-18.544 E.01557
G1 X-60.456 Y-39.472 E.79294
G1 X-60.456 Y-38.89 E.01557
G1 X-40.11 Y-18.544 E.77092
G1 X-40.691 Y-18.544 E.01557
G1 X-60.456 Y-38.309 E.74889
G1 X-60.456 Y-37.728 E.01557
G1 X-41.272 Y-18.544 E.72687
G1 X-41.853 Y-18.544 E.01557
G1 X-50.456 Y-27.147 E.32594
G1 X-50.456 Y-26.565 E.01557
G1 X-42.435 Y-18.544 E.30392
G1 X-43.016 Y-18.544 E.01557
G1 X-50.456 Y-25.984 E.28189
G1 X-50.456 Y-25.403 E.01557
G1 X-43.597 Y-18.544 E.25987
G1 X-44.178 Y-18.544 E.01557
G1 X-50.456 Y-24.822 E.23785
G1 X-50.456 Y-24.24 E.01557
G1 X-44.76 Y-18.544 E.21582
G1 X-45.341 Y-18.544 E.01557
G1 X-50.456 Y-23.659 E.1938
G1 X-50.456 Y-23.078 E.01557
G1 X-45.922 Y-18.544 E.17178
G1 X-46.503 Y-18.544 E.01557
G1 X-50.456 Y-22.497 E.14975
G1 X-50.456 Y-21.915 E.01557
G1 X-47.085 Y-18.544 E.12773
G1 X-47.666 Y-18.544 E.01557
G1 X-50.456 Y-21.334 E.10571
G1 X-50.456 Y-20.753 E.01557
G1 X-48.247 Y-18.544 E.08368
G1 X-48.828 Y-18.544 E.01557
G1 X-50.456 Y-20.172 E.06166
G1 X-50.456 Y-19.591 E.01557
G1 X-49.409 Y-18.544 E.03964
G1 X-49.991 Y-18.544 E.01557
G1 X-50.639 Y-19.192 E.02455
G1 E-3 F1800
G1 Z.6 F9000
G1 X-51.66 Y-28.351 Z.6
G1 Z.2
G1 E3 F2400
G1 F2100
G1 X-60.456 Y-37.147 E.33329
G1 X-60.456 Y-36.565 E.01557
G1 X-52.435 Y-28.544 E.30392
G1 X-53.016 Y-28.544 E.01557
G1 X-60.456 Y-35.984 E.28189
G1 X-60.456 Y-35.403 E.01557
G1 X-53.597 Y-28.544 E.25987
G1 X-54.178 Y-28.544 E.01557
G1 X-60.456 Y-34.822 E.23785
G1 X-60.456 Y-34.24 E.01557
G1 X-54.76 Y-28.544 E.21582
G1 X-55.341 Y-28.544 E.01557
G1 X-60.456 Y-33.659 E.1938
G1 X-60.456 Y-33.078 E.01557
G1 X-55.922 Y-28.544 E.17178
G1 X-56.503 Y-28.544 E.01557
G1 X-60.456 Y-32.497 E.14975
G1 X-60.456 Y-31.915 E.01557
G1 X-57.085 Y-28.544 E.12773
G1 X-57.666 Y-28.544 E.01557
G1 X-60.456 Y-31.334 E.10571
G1 X-60.456 Y-30.753 E.01557
G1 X-58.247 Y-28.544 E.08368
G1 X-58.828 Y-28.544 E.01557
G1 X-60.456 Y-30.172 E.06166
G1 X-60.456 Y-29.591 E.01557
G1 X-59.409 Y-28.544 E.03964
G1 X-59.991 Y-28.544 E.01557
G1 X-60.639 Y-29.192 E.02455
; stop printing object flowrate_m20 id:381404408917329224 copy 0
; printing object flowrate_5 id:0 copy 0
G1 E-2.14286 F1800
;WIPE_START
G1 F2100
G1 X-59.991 Y-28.544 E-.78549
G1 X-59.907 Y-28.544 E-.07166
;WIPE_END
G1 Z.6 F9000
G1 X-50.772 Y4.728 Z.6
G1 Z.2
G1 E3 F2400
;TYPE:Inner wall
;WIDTH:0.449999
G1 F2700
G1 X-50.772 Y4.628 E.0035
G1 X-50.877 Y4.305 E.0118
G1 X-51.109 Y4.012 E.01303
G1 X-51.448 Y3.816 E.01364
G1 X-51.779 Y3.761 E.01165
G1 X-60.761 Y3.761 E.31286
G1 X-60.761 Y-13.761 E.61029
G1 X-23.239 Y-13.761 E1.30689
G1 X-23.239 Y-5 E.30514
G1 X-23.239 Y3.761 E.30514
G1 X-32 Y3.761 E.30514
G1 X-32.39 Y3.775 E.01359
G1 X-32.7 Y3.881 E.01142
G1 X-32.992 Y4.114 E.01303
G1 X-33.174 Y4.421 E.01243
G1 X-33.239 Y4.779 E.01265
G1 X-33.239 Y13.761 E.31286
G1 X-50.761 Y13.761 E.61029
G1 X-50.772 Y4.768 E.31322
G1 X-51.173 Y4.748 F9000
G1 F2700
G1 X-51.175 Y4.688 E.00209
G1 X-51.272 Y4.437 E.00938
G1 X-51.491 Y4.24 E.01026
G1 X-51.779 Y4.168 E.01032
G1 X-61.168 Y4.168 E.32704
G1 X-61.168 Y-14.168 E.63864
G1 X-22.832 Y-14.168 E1.33525
G1 X-22.832 Y-5 E.31932
G1 X-22.832 Y4.168 E.31932
G1 X-32.323 Y4.176 E.33056
G1 X-32.588 Y4.29 E.01005
G1 X-32.762 Y4.495 E.00936
G1 X-32.832 Y4.779 E.01018
G1 X-32.832 Y14.168 E.32704
G1 X-51.168 Y14.168 E.63864
G1 X-51.168 Y5 E.31932
G1 X-51.173 Y4.788 E.00739
G1 X-51.575 Y4.779 F9000
;TYPE:Outer wall
G1 F2700
G1 X-51.624 Y4.646 E.00494
G1 X-51.779 Y4.575 E.00591
G1 X-61.575 Y4.575 E.34121
G1 X-61.575 Y-14.575 E.667
G1 X-22.425 Y-14.575 E1.36361
G1 X-22.425 Y-5 E.3335
G1 X-22.425 Y4.575 E.3335
G1 X-32.221 Y4.575 E.34121
G1 X-32.355 Y4.625 E.00498
G1 X-32.425 Y4.779 E.00587
G1 X-32.425 Y14.575 E.34121
G1 X-51.575 Y14.575 E.667
G1 X-51.575 Y4.819 E.33982
G1 E-3 F1800
G1 Z.6 F9000
G1 X-24.192 Y-13.639 Z.6
G1 Z.2
G1 E3 F2400
;TYPE:Bottom surface
;WIDTH:0.453916
G1 F2100
G1 X-23.544 Y-12.991 E.03223
G1 X-23.544 Y-12.409 E.02044
G1 X-24.591 Y-13.456 E.05202
G1 X-25.172 Y-13.456 E.02044
G1 X-23.544 Y-11.828 E.08093
G1 X-23.544 Y-11.247 E.02044
G1 X-25.753 Y-13.456 E.10983
G1 X-26.334 Y-13.456 E.02044
G1 X-23.544 Y-10.666 E.13874
G1 X-23.544 Y-10.085 E.02044
G1 X-26.915 Y-13.456 E.16765
G1 X-27.497 Y-13.456 E.02044
G1 X-23.544 Y-9.503 E.19655
G1 X-23.544 Y-8.922 E.02044
G1 X-28.078 Y-13.456 E.22546
G1 X-28.659 Y-13.456 E.02044
G1 X-23.544 Y-8.341 E.25436
G1 X-23.544 Y-7.76 E.02044
G1 X-29.24 Y-13.456 E.28327
G1 X-29.822 Y-13.456 E.02044
G1 X-23.544 Y-7.178 E.31218
G1 X-23.544 Y-6.597 E.02044
G1 X-30.403 Y-13.456 E.34108
G1 X-30.984 Y-13.456 E.02044
G1 X-23.544 Y-6.016 E.36999
G1 X-23.544 Y-5.435 E.02044
G1 X-31.565 Y-13.456 E.39889
G1 X-32.147 Y-13.456 E.02044
G1 X-23.544 Y-4.853 E.4278
G1 X-23.544 Y-4.272 E.02044
G1 X-32.728 Y-13.456 E.4567
G1 X-33.309 Y-13.456 E.02044
G1 X-23.544 Y-3.691 E.48561
G1 X-23.544 Y-3.11 E.02044
G1 X-33.89 Y-13.456 E.51452
G1 X-34.472 Y-13.456 E.02044
G1 X-23.544 Y-2.528 E.54342
G1 X-23.544 Y-1.947 E.02044
G1 X-35.053 Y-13.456 E.57233
G1 X-35.634 Y-13.456 E.02044
G1 X-23.544 Y-1.366 E.60123
G1 X-23.544 Y-.785 E.02044
G1 X-36.215 Y-13.456 E.63014
G1 X-36.797 Y-13.456 E.02044
G1 X-23.544 Y-.203 E.65904
G1 X-23.544 Y.378 E.02044
G1 X-37.378 Y-13.456 E.68795
G1 X-37.959 Y-13.456 E.02044
G1 X-23.544 Y.959 E.71686
M73 P2 R63
G1 X-23.544 Y1.54 E.02044
G1 X-38.54 Y-13.456 E.74576
G1 X-39.121 Y-13.456 E.02044
G1 X-23.544 Y2.121 E.77467
G1 X-23.544 Y2.703 E.02044
G1 X-39.703 Y-13.456 E.80357
G1 X-40.284 Y-13.456 E.02044
G1 X-23.544 Y3.284 E.83248
M73 P3 R63
G1 X-23.544 Y3.456 E.00603
G1 X-23.954 Y3.456 E.0144
G1 X-40.865 Y-13.456 E.84101
G1 X-41.446 Y-13.456 E.02044
G1 X-24.535 Y3.456 E.84101
G1 X-25.117 Y3.456 E.02044
G1 X-42.028 Y-13.456 E.84101
G1 X-42.609 Y-13.456 E.02044
G1 X-25.698 Y3.456 E.84101
G1 X-26.279 Y3.456 E.02044
G1 X-43.19 Y-13.456 E.84101
