; generated by SuperSlicer 2.4 on 2024-02-03 at 18:31:50 UTC


;
;

;
;
; 

; external perimeters extrusion width = 0.42mm
; perimeters extrusion width = 0.44mm
; infill extrusion width = 0.44mm
; solid infill extrusion width = 0.44mm
; top infill extrusion width = 0.44mm
; first layer extrusion width = 0.56mm

; external perimeters extrusion width = 0.42mm
; perimeters extrusion width = 0.44mm
; infill extrusion width = 0.44mm
; solid infill extrusion width = 0.44mm
; top infill extrusion width = 0.44mm
; first layer extrusion width = 0.56mm

; external perimeters extrusion width = 0.42mm
; perimeters extrusion width = 0.44mm
; infill extrusion width = 0.44mm
; solid infill extrusion width = 0.44mm
; top infill extrusion width = 0.44mm
; first layer extrusion width = 0.56mm

; external perimeters extrusion width = 0.42mm
; perimeters extrusion width = 0.44mm
; infill extrusion width = 0.44mm
; solid infill extrusion width = 0.44mm
; top infill extrusion width = 0.44mm
; first layer extrusion width = 0.56mm

; external perimeters extrusion width = 0.42mm
; perimeters extrusion width = 0.44mm
; infill extrusion width = 0.44mm
; solid infill extrusion width = 0.44mm
; top infill extrusion width = 0.44mm
; first layer extrusion width = 0.56mm

; object:{"name":"filament_flow_test","id":"filament_flow_test id:0 copy 0","object_center":[-17.200001,-44.400002,0.000000],"boundingbox_center":[-17.200001,-44.400002,0.750000],"boundingbox_size":[20.000000,20.000000,1.500000]}
; object:{"name":"filament_flow_test","id":"filament_flow_test id:1 copy 0","object_center":[-17.200001,0.000000,0.000000],"boundingbox_center":[-17.200001,0.000000,0.750000],"boundingbox_size":[20.000000,20.000000,1.500000]}
; object:{"name":"filament_flow_test","id":"filament_flow_test id:2 copy 0","object_center":[-17.200001,44.400002,0.000000],"boundingbox_center":[-17.200001,44.400002,0.750000],"boundingbox_size":[20.000000,20.000000,1.500000]}
; object:{"name":"filament_flow_test","id":"filament_flow_test id:3 copy 0","object_center":[27.200001,-44.400002,0.000000],"boundingbox_center":[27.200001,-44.400002,0.750000],"boundingbox_size":[20.000000,20.000000,1.500000]}
; object:{"name":"filament_flow_test","id":"filament_flow_test id:4 copy 0","object_center":[27.200001,44.400002,0.000000],"boundingbox_center":[27.200001,44.400002,0.750000],"boundingbox_size":[20.000000,20.000000,1.500000]}
; plater:{"center":[5.000000,0.000000,0.000000],"boundingbox_center":[5.000000,0.000000,0.750000],"boundingbox_size":[64.400002,108.800003,1.500000]}

;TYPE:Custom
M109 S0
M190 S0
start_print BED_TEMP=55 EXTRUDER_TEMP=215 CHAMBER_TEMP=0
M107
G21 ; set units to millimeters
G90 ; use absolute coordinates
M82 ; use absolute distances for extrusion
G92 E0
M900 K30; Filament gcode
;_TOOLCHANGE 0
M107
;LAYER_CHANGE
;Z:0.3
;HEIGHT:0.3
;BEFORE_LAYER_CHANGE
;0.3


G1 E-8 F3600
G1 Z0.6 F10800
;AFTER_LAYER_CHANGE
;0.3
G92 E0
G1 Z0.9
M204 S1000
G1 X-7.049 Y-36.207
G1 Z0.3
G1 E8 F2400
;TYPE:Skirt
;WIDTH:0.56
G1 F1800
G1 X-16.507 Y-36.207 E8.58465
G1 X-16.507 Y-34.249 E8.70567
G1 X-16.582 Y-34.067 E8.71786
G1 X-16.867 Y-33.782 E8.74274
G1 X-17.049 Y-33.707 E8.75493
G1 X-27.351 Y-33.707 E9.39179
G1 X-27.533 Y-33.782 E9.40398
G1 X-27.818 Y-34.067 E9.42886
G1 X-27.893 Y-34.249 E9.44104
G1 X-27.893 Y-54.551 E10.69607
G1 X-27.818 Y-54.733 E10.70826
G1 X-27.533 Y-55.018 E10.73314
G1 X-27.351 Y-55.093 E10.74533
G1 X-17.049 Y-55.093 E11.38219
G1 X-16.867 Y-55.018 E11.39438
G1 X-16.582 Y-54.733 E11.41926
G1 X-16.507 Y-54.551 E11.43144
G1 X-16.507 Y-52.593 E11.55247
G1 X-7.049 Y-52.593 E12.13712
G1 X-6.867 Y-52.518 E12.1493
G1 X-6.582 Y-52.233 E12.17418
G1 X-6.507 Y-52.051 E12.18637
G1 X-6.507 Y-36.749 E13.13231
G1 X-6.582 Y-36.567 E13.1445
G1 X-6.867 Y-36.282 E13.16938
G1 X-6.993 Y-36.23 E13.17786
G1 X-7.147 Y-36.702 F10800
G1 F1800
G1 X-17.002 Y-36.702 E13.78705
G1 X-17.002 Y-34.347 E13.93262
G1 X-17.147 Y-34.202 E13.94531
G1 X-27.253 Y-34.202 E14.56998
G1 X-27.398 Y-34.347 E14.58267
G1 X-27.398 Y-54.453 E15.82551
G1 X-27.253 Y-54.598 E15.8382
G1 X-17.147 Y-54.598 E16.46288
G1 X-17.002 Y-54.453 E16.47557
G1 X-17.002 Y-52.098 E16.62113
G1 X-7.147 Y-52.098 E17.23032
G1 X-7.002 Y-51.953 E17.24301
G1 X-7.002 Y-36.847 E18.17677
G1 X-7.105 Y-36.745 E18.18575
M104 S215 ; set temperature
; printing object filament_flow_test id:0 copy 0
M204 S800
G1 X-7.53 Y-37.23 F10800
;TYPE:External perimeter
G1 F1800
G1 X-17.53 Y-37.23 E18.68028
G1 X-17.53 Y-34.73 E18.80392
G1 X-26.87 Y-34.73 E19.26581
G1 X-26.87 Y-54.07 E20.22223
G1 X-17.53 Y-54.07 E20.68412
G1 X-17.53 Y-51.57 E20.80776
G1 X-7.53 Y-51.57 E21.30229
G1 X-7.53 Y-37.29 E22.00848
;WIPE_START
M204 S1000
G1 X-7.876 Y-37.43 F10800
;WIPE_END
M204 S800
G1 X-8.026 Y-37.726
;TYPE:Internal perimeter
G1 F1800
G1 X-18.026 Y-37.726 E22.50301
G1 X-18.026 Y-35.226 E22.62664
G1 X-26.374 Y-35.226 E23.03951
G1 X-26.374 Y-53.574 E23.94692
G1 X-18.026 Y-53.574 E24.35979
G1 X-18.026 Y-51.074 E24.48342
G1 X-8.026 Y-51.074 E24.97795
G1 X-8.026 Y-37.786 E25.63512
G1 X-8.521 Y-38.221 F10800
G1 F1800
G1 X-18.521 Y-38.221 E26.12966
G1 X-18.521 Y-35.721 E26.25329
G1 X-25.879 Y-35.721 E26.61714
G1 X-25.879 Y-53.079 E27.47552
G1 X-18.521 Y-53.079 E27.83938
G1 X-18.521 Y-50.579 E27.96301
G1 X-8.521 Y-50.579 E28.45754
G1 X-8.521 Y-38.281 E29.06569
M204 S1000
G1 X-8.893 Y-38.593 F10800
;TYPE:Solid infill
G1 F1800
G1 X-18.893 Y-38.593 E29.56022
G1 X-18.893 Y-36.093 E29.68386
G1 X-25.507 Y-36.093 E30.01095
G1 X-25.507 Y-52.707 E30.83257
G1 X-18.893 Y-52.707 E31.15966
G1 X-18.893 Y-50.207 E31.28329
G1 X-8.893 Y-50.207 E31.77782
G1 X-8.893 Y-38.653 E32.34921
G1 X-9.389 Y-39.089 F10800
G1 F1800
G1 X-19.389 Y-39.089 E32.84374
G1 X-19.389 Y-36.589 E32.96737
G1 X-25.011 Y-36.589 E33.24544
G1 X-25.011 Y-52.211 E34.01804
G1 X-19.389 Y-52.211 E34.29611
G1 X-19.389 Y-49.711 E34.41975
G1 X-9.389 Y-49.711 E34.91428
G1 X-9.389 Y-39.149 E35.43664
G1 X-9.884 Y-39.584 F10800
G1 F1800
G1 X-19.884 Y-39.584 E35.93118
G1 X-19.884 Y-37.084 E36.05481
G1 X-24.516 Y-37.084 E36.28386
G1 X-24.516 Y-51.716 E37.00744
G1 X-19.884 Y-51.716 E37.23649
G1 X-19.884 Y-49.216 E37.36012
G1 X-9.884 Y-49.216 E37.85465
G1 X-9.884 Y-39.644 E38.328
G1 X-10.38 Y-40.08 F10800
G1 F1800
G1 X-20.38 Y-40.08 E38.82253
G1 X-20.38 Y-37.58 E38.94617
G1 X-24.02 Y-37.58 E39.1262
G1 X-24.02 Y-51.22 E39.80076
G1 X-20.38 Y-51.22 E39.98079
G1 X-20.38 Y-48.72 E40.10442
G1 X-10.38 Y-48.72 E40.59895
G1 X-10.38 Y-40.14 E41.02328
G1 X-10.875 Y-40.575 F10800
G1 F1800
G1 X-20.875 Y-40.575 E41.51781
G1 X-20.875 Y-38.075 E41.64144
G1 X-23.525 Y-38.075 E41.77246
G1 X-23.525 Y-50.725 E42.398
G1 X-20.875 Y-50.725 E42.52901
G1 X-20.875 Y-48.225 E42.65264
G1 X-10.875 Y-48.225 E43.14717
G1 X-10.875 Y-40.635 E43.52248
G1 X-11.371 Y-41.071 F10800
G1 F1800
G1 X-21.371 Y-41.071 E44.01701
G1 X-21.371 Y-38.571 E44.14064
G1 X-23.029 Y-38.571 E44.22263
G1 X-23.029 Y-50.229 E44.79916
G1 X-21.371 Y-50.229 E44.88115
G1 X-21.371 Y-47.729 E45.00478
G1 X-11.371 Y-47.729 E45.49931
G1 X-11.371 Y-41.131 E45.8256
G1 X-11.867 Y-41.567 F10800
G1 F1800
G1 X-21.867 Y-41.567 E46.32013
G1 X-21.867 Y-39.067 E46.44376
G1 X-22.533 Y-39.067 E46.47674
G1 X-22.533 Y-49.733 E47.00424
G1 X-21.867 Y-49.733 E47.03721
G1 X-21.867 Y-47.233 E47.16084
G1 X-11.867 Y-47.233 E47.65537
G1 X-11.867 Y-41.627 E47.93264
G1 X-12.362 Y-42.062 F10800
G1 F1800
G1 X-22.038 Y-42.062 E48.41112
G1 X-22.038 Y-46.738 E48.64234
G1 X-12.362 Y-46.738 E49.12082
G1 X-12.362 Y-42.122 E49.34907
G1 X-12.858 Y-42.558 F10800
G1 F1800
G1 X-21.542 Y-42.558 E49.77853
G1 X-21.542 Y-46.242 E49.96073
G1 X-12.858 Y-46.242 E50.39019
G1 X-12.858 Y-42.618 E50.56942
G1 X-13.354 Y-43.054 F10800
G1 F1800
G1 X-21.046 Y-43.054 E50.94987
G1 X-21.046 Y-45.746 E51.08304
G1 X-13.354 Y-45.746 E51.46349
G1 X-13.354 Y-43.114 E51.5937
G1 X-13.849 Y-43.549 F10800
G1 F1800
G1 X-20.551 Y-43.549 E51.92512
G1 X-20.551 Y-45.251 E52.00928
G1 X-13.849 Y-45.251 E52.3407
G1 X-13.849 Y-43.609 E52.42189
G1 X-14.345 Y-44.045 F10800
G1 F1800
G1 X-20.055 Y-44.045 E52.70429
G1 X-20.055 Y-44.755 E52.73943
G1 X-14.345 Y-44.755 E53.02183
G1 X-14.345 Y-44.105 E53.054
G92 E0
;WIPE_START
G1 F8640
G1 X-20.055 Y-44.045 E-2.26054
G1 X-20.055 Y-44.755 E-2.54179
G1 X-14.345 Y-44.755 E-4.8022
G1 X-14.345 Y-44.105 E-5.0597
;WIPE_END
G1 E-8 F3600
G1 Z0.9 F10800
; acceleration to travel
M204 S1500
G1 X-20.905 Y-40.104
; decel to extrusion
M204 S800
G1 X-22.2 Y-39.314
; end travel
G1 Z0.3
G1 E0 F2400
;TYPE:Gap fill
;WIDTH:0.235471
G1 F1800
G1 X-22.2 Y-39.4 E0.00146
G1 X-22.2 Y-41.814 E0.04268
G92 E0
;WIPE_START
G1 F8640
M204 S1000
G1 X-22.2 Y-39.4 E-0.95572
G1 X-22.2 Y-39.314 E-0.98958
;WIPE_END
G1 E-8 F3600
G1 Z0.9 F10800
; acceleration to travel
M204 S1500
G1 X-15.847 Y-43.561
; decel to extrusion
M204 S800
G1 X-14.593 Y-44.4
; end travel
G1 Z0.3
G1 E0 F2400
;WIDTH:0.279283
G1 F1800
G1 X-19.807 Y-44.4 E0.11182
G92 E0
;WIPE_START
G1 F8640
M204 S1000
G1 X-14.593 Y-44.4 E-2.06423
;WIPE_END
G1 E-8 F3600
G1 Z0.9 F10800
; acceleration to travel
M204 S1500
G1 X-20.945 Y-46.559
; decel to extrusion
M204 S800
G1 X-22.2 Y-46.986
; end travel
G1 Z0.3
G1 E0 F2400
;WIDTH:0.235472
G1 F1800
G1 X-22.2 Y-49.486 E0.04268
M106 S84.15
;LAYER_CHANGE
;Z:0.5
;HEIGHT:0.2
;BEFORE_LAYER_CHANGE
;0.5


G92 E0
;WIPE_START
G1 F8640
M204 S1000
G1 X-22.2 Y-46.986 E-0.98958
;WIPE_END
G1 E-8 F3600
G1 Z0.9 F10800
; stop printing object filament_flow_test id:0 copy 0
;AFTER_LAYER_CHANGE
;0.5
M104 S205 ; set temperature
M140 S55 ; set bed temperature
G92 E0
G1 Z1.1
; printing object filament_flow_test id:0 copy 0
; acceleration to travel
M204 S1500
G1 X-18.989 Y-50.854
; decel to extrusion
M204 S800
G1 X-18.295 Y-51.69
; end travel
G1 Z0.5
G1 E8 F2400
;TYPE:Internal perimeter
;WIDTH:0.44
G1 F3600
G1 X-18.295 Y-35.394 E8.43044
G1 X-26.206 Y-35.394 E8.63939
G1 X-26.206 Y-53.406 E9.11515
G1 X-18.295 Y-53.406 E9.3241
G1 X-18.295 Y-51.75 E9.36784
G1 X-17.898 Y-51.69 F10800
G1 F3600
G1 X-17.898 Y-35.972 E9.78301
G1 X-17.797 Y-35.972 E9.78568
G1 X-17.797 Y-34.997 E9.81143
G1 X-26.603 Y-34.997 E10.04403
G1 X-26.603 Y-53.803 E10.54076
G1 X-17.797 Y-53.803 E10.77336
G1 X-17.797 Y-52.828 E10.79911
G1 X-17.898 Y-52.828 E10.80177
G1 X-17.898 Y-51.75 E10.83025
G92 E0
;WIPE_START
G1 F8640
M204 S1000
G1 X-17.898 Y-35.972 E-6.24544
G1 X-17.797 Y-35.972 E-6.28537
G1 X-17.797 Y-34.997 E-6.6713
G1 X-20.143 Y-34.997 E-7.6
;WIPE_END
G1 E-8 F3600
G1 Z1.1 F10800
; acceleration to travel
M204 S1500
G1 X-14.193 Y-40.882
; decel to extrusion
M204 S800
G1 X-13.026 Y-42.035
; end travel
G1 Z0.5
G1 E0 F2400
;TYPE:External perimeter
;WIDTH:0.42
G1 F1554.4911
G1 X-13.054 Y-41.888 E0.00376
G1 X-13.056 Y-39.151 E0.07242
G1 X-13.015 Y-38.924 E0.0782
G1 X-12.895 Y-38.765 E0.08319
G1 X-12.74 Y-38.685 E0.08757
G1 X-12.551 Y-38.66 E0.09237
G1 X-12.411 Y-38.673 E0.09589
G1 X-12.227 Y-38.758 E0.10098
G1 X-12.114 Y-38.903 E0.10557
G1 X-12.063 Y-39.111 E0.11096
G1 X-12.062 Y-41.854 E0.17976
G1 X-12.104 Y-42.075 E0.1854
G1 X-12.23 Y-42.237 E0.19054
G1 X-12.455 Y-42.328 E0.19664
G1 X-12.722 Y-42.325 E0.20333
G1 X-12.943 Y-42.194 E0.2098
G1 X-12.999 Y-42.088 E0.21278
;WIPE_START
M204 S1000
G1 X-13.415 Y-41.941 F10800
;WIPE_END
G92 E0
;WIPE_START
G1 F8640
G1 X-13.256 Y-39.133 E-1.11329
G1 X-13.203 Y-38.841 E-1.23049
G1 X-13.027 Y-38.608 E-1.3461
G1 X-12.801 Y-38.491 E-1.44696
G1 X-12.554 Y-38.458 E-1.54543
G1 X-12.358 Y-38.477 E-1.62351
G1 X-12.099 Y-38.597 E-1.73666
G1 X-11.93 Y-38.814 E-1.84543
G1 X-11.863 Y-39.087 E-1.95679
G1 X-11.862 Y-41.873 E-3.0594
G1 X-11.916 Y-42.16 E-3.1751
G1 X-12.105 Y-42.402 E-3.29666
G1 X-12.417 Y-42.528 E-3.42987
G1 X-12.777 Y-42.525 E-3.57251
G1 X-13.094 Y-42.337 E-3.71843
G1 X-13.217 Y-42.102 E-3.8235
;WIPE_END
G1 E-8 F3600
G1 Z1.1 F10800
; acceleration to travel
M204 S1500
G1 X-14.821 Y-42.698
; decel to extrusion
M204 S800
G1 X-15.137 Y-42.816
; end travel
G1 Z0.5
G1 E0 F2400
G1 F1800
G1 X-14.983 Y-42.774 E0.00401
G1 X-14.799 Y-42.78 E0.00862
G1 X-14.609 Y-42.848 E0.01369
G1 X-10.776 Y-45.228 E0.12684
G1 X-10.545 Y-45.352 E0.13344
G1 X-10.35 Y-45.421 E0.13862
G1 X-10.186 Y-45.442 E0.14275
G1 X-9.995 Y-45.42 E0.14758
G1 X-9.823 Y-45.357 E0.15218
G1 X-9.665 Y-45.249 E0.15697
G1 X-9.537 Y-45.111 E0.16169
G1 X-9.459 Y-44.971 E0.16571
G1 X-9.415 Y-44.83 E0.16943
G1 X-9.395 Y-44.624 E0.17461
G1 X-9.417 Y-44.442 E0.17923
G1 X-9.472 Y-44.294 E0.18318
G1 X-9.552 Y-44.168 E0.18692
G1 X-9.666 Y-44.045 E0.19113
G1 X-9.817 Y-43.926 E0.19596
G1 X-10.191 Y-43.696 E0.20696
G1 X-10.313 Y-43.57 E0.21135
G1 X-10.396 Y-43.339 E0.21751
G1 X-10.346 Y-43.056 E0.22472
G1 X-10.273 Y-42.934 E0.2283
G1 X-10.116 Y-42.812 E0.23328
G1 X-9.939 Y-42.768 E0.23785
G1 X-9.755 Y-42.778 E0.24247
G1 X-9.524 Y-42.867 E0.24869
G1 X-9.165 Y-43.079 E0.25914
G1 X-8.877 Y-43.316 E0.2685
G1 X-8.661 Y-43.58 E0.27705
G1 X-8.48 Y-43.921 E0.28673
G1 X-8.371 Y-44.275 E0.29603
G1 X-8.335 Y-44.641 E0.30525
G1 X-8.366 Y-45.011 E0.31457
G1 X-8.459 Y-45.351 E0.3234
G1 X-8.604 Y-45.641 E0.33155
G1 X-8.805 Y-45.9 E0.33976
G1 X-9.057 Y-46.125 E0.34823
G1 X-9.367 Y-46.318 E0.3574
G1 X-9.692 Y-46.447 E0.36617
G1 X-9.938 Y-46.499 E0.37248
G1 X-10.192 Y-46.516 E0.37885
G1 X-10.409 Y-46.494 E0.38434
G1 X-10.545 Y-46.48 E0.38777
G1 X-10.897 Y-46.371 E0.397
G1 X-11.235 Y-46.197 E0.40653
G1 X-14.375 Y-44.252 E0.49917
G1 X-14.382 Y-46.105 E0.54566
G1 X-14.476 Y-46.329 E0.55175
G1 X-14.705 Y-46.485 E0.55871
G1 X-15.036 Y-46.5 E0.567
G1 X-15.24 Y-46.405 E0.57265
G1 X-15.383 Y-46.172 E0.57951
G1 X-15.41 Y-45.948 E0.58517
G1 X-15.41 Y-43.363 E0.65
G1 X-15.389 Y-43.151 E0.65535
G1 X-15.288 Y-42.933 E0.66138
G1 X-15.185 Y-42.852 E0.66467
;WIPE_START
M204 S1000
G1 X-15.086 Y-42.419 F10800
;WIPE_END
G92 E0
;WIPE_START
G1 F8640
G1 X-14.761 Y-42.581 E-0.14377
G1 X-14.521 Y-42.667 E-0.24457
G1 X-10.676 Y-45.054 E-2.03603
G1 X-10.463 Y-45.169 E-2.1316
G1 X-10.303 Y-45.225 E-2.19886
G1 X-10.185 Y-45.24 E-2.2461
G1 X-10.042 Y-45.224 E-2.30317
G1 X-9.915 Y-45.178 E-2.35645
G1 X-9.796 Y-45.097 E-2.41335
G1 X-9.7 Y-44.993 E-2.46939
G1 X-9.644 Y-44.892 E-2.51517
G1 X-9.612 Y-44.79 E-2.55742
G1 X-9.596 Y-44.626 E-2.62255
G1 X-9.612 Y-44.489 E-2.67728
G1 X-9.652 Y-44.384 E-2.72178
G1 X-9.711 Y-44.291 E-2.76517
G1 X-9.802 Y-44.193 E-2.81825
G1 X-9.932 Y-44.091 E-2.88389
G1 X-10.317 Y-43.853 E-3.06279
G1 X-10.486 Y-43.679 E-3.15895
G1 X-10.602 Y-43.357 E-3.29446
G1 X-10.536 Y-42.985 E-3.44385
G1 X-10.425 Y-42.799 E-3.52973
G1 X-10.205 Y-42.628 E-3.6399
G1 X-9.958 Y-42.566 E-3.74071
G1 X-9.713 Y-42.58 E-3.83798
G1 X-9.436 Y-42.686 E-3.95521
G1 X-9.05 Y-42.915 E-4.13299
G1 X-8.735 Y-43.174 E-4.29448
G1 X-8.494 Y-43.469 E-4.44517
G1 X-8.295 Y-43.844 E-4.61329
G1 X-8.174 Y-44.236 E-4.77549
G1 X-8.134 Y-44.639 E-4.93607
G1 X-8.168 Y-45.046 E-5.09764
G1 X-8.271 Y-45.422 E-5.25211
G1 X-8.434 Y-45.748 E-5.39636
G1 X-8.658 Y-46.037 E-5.54108
G1 X-8.937 Y-46.285 E-5.68875
G1 X-9.277 Y-46.498 E-5.84735
G1 X-9.634 Y-46.639 E-5.99953
G1 X-9.911 Y-46.697 E-6.11137
G1 X-10.195 Y-46.717 E-6.22426
G1 X-10.43 Y-46.693 E-6.31759
G1 X-10.585 Y-46.677 E-6.37951
G1 X-10.973 Y-46.557 E-6.54011
G1 X-11.333 Y-46.372 E-6.70056
G1 X-13.265 Y-45.175 E-7.6
;WIPE_END
G1 E-8 F3600
G1 Z1.1 F10800
; acceleration to travel
M204 S1500
G1 X-13.663 Y-46.905
; decel to extrusion
M204 S800
G1 X-13.741 Y-47.246
; end travel
G1 Z0.5
G1 E0 F2400
G1 F1744.6253
G1 X-13.356 Y-47.138 E0.01004
G1 X-12.721 Y-47.006 E0.02629
G1 X-12.311 Y-46.951 E0.03667
G1 X-11.889 Y-46.933 E0.04727
G1 X-11.446 Y-46.953 E0.0584
G1 X-11.001 Y-47.012 E0.06966
G1 X-10.172 Y-47.186 E0.09089
G1 X-9.565 Y-47.372 E0.10682
G1 X-9.254 Y-47.502 E0.11529
G1 X-8.988 Y-47.646 E0.12287
G1 X-8.748 Y-47.832 E0.13048
G1 X-8.562 Y-48.06 E0.13788
G1 X-8.437 Y-48.325 E0.14522
G1 X-8.383 Y-48.554 E0.15111
G1 X-8.365 Y-48.799 E0.15728
G1 X-8.396 Y-49.111 E0.16515
G1 X-8.492 Y-49.394 E0.17264
G1 X-8.638 Y-49.622 E0.17943
G1 X-8.907 Y-49.866 E0.18852
G1 X-9.316 Y-50.1 E0.20036
G1 X-9.788 Y-50.293 E0.21314
G1 X-10.36 Y-50.455 E0.22807
G1 X-11.008 Y-50.576 E0.2446
G1 X-11.417 Y-50.619 E0.2549
G1 X-11.828 Y-50.634 E0.26521
G1 X-12.263 Y-50.618 E0.27614
