; HEADER_BLOCK_START
; generated by OrcaSlicer 1.9.0 on 2024-02-08 at 21:53:16
; total layer number: 150
; filament_density: 1.24
; filament_diameter: 1.75
; max_z_height: 30.00
; HEADER_BLOCK_END

; THUMBNAIL_BLOCK_START

;
; THUMBNAIL_BLOCK_END

; external perimeters extrusion width = 0.40mm
; perimeters extrusion width = 0.45mm
; infill extrusion width = 0.45mm
; solid infill extrusion width = 0.40mm
; top infill extrusion width = 0.40mm
; first layer extrusion width = 0.50mm

; EXECUTABLE_BLOCK_START
EXCLUDE_OBJECT_DEFINE NAME=hollow_cube.stl_id_0_copy_0 CENTER=110,110 POLYGON=[[95,95],[125,95],[125,125],[95,125],[95,95]]
M73 P0 R41
;TYPE:Custom
M190 S60
M109 S220
PRINT_START EXTRUDER=220 BED=60
START_PRINT
G90
G21
M83 ; use relative distances for extrusion
; filament start gcode
M106 S0
;LAYER_CHANGE
;Z:0.2
;HEIGHT:0.2
;BEFORE_LAYER_CHANGE
;0.2
G92 E0

G10 ; retract
;AFTER_LAYER_CHANGE
;0.2
;_SET_FAN_SPEED_CHANGING_LAYER
SET_VELOCITY_LIMIT ACCEL=500 ACCEL_TO_DECEL=250
; printing object hollow_cube.stl id:0 copy 0
EXCLUDE_OBJECT_START NAME=hollow_cube.stl_id_0_copy_0
G1 Z.4 F10800
G1 X123.836 Y123.836
G1 Z.2
G11 ; unretract
;TYPE:Inner wall
;WIDTH:0.499999
G1 F1800
G1 X96.164 Y123.836 E1.03066
G1 X96.164 Y96.164 E1.03066
G1 X123.836 Y96.164 E1.03066
G1 X123.836 Y110 E.51533
G1 X123.836 Y123.796 E.51384
G1 X124.293 Y124.293 F10800
G1 F1800
G1 X95.707 Y124.293 E1.06471
G1 X95.707 Y95.707 E1.06471
G1 X124.293 Y95.707 E1.06471
G1 X124.293 Y110 E.53236
G1 X124.293 Y124.253 E.53087
G1 X124.75 Y124.75 F10800
;TYPE:Outer wall
G1 F1800
G1 X95.25 Y124.75 E1.09876
G1 X95.25 Y95.25 E1.09876
G1 X124.75 Y95.25 E1.09876
G1 X124.75 Y110 E.54938
G1 X124.75 Y124.71 E.54789
G10 ; retract
;WIPE_START
G1 X123.75 Y124.711 E-.24
;WIPE_END
G1 Z.6 F10800
G1 X123.699 Y97.236 Z.6
G1 Z.2
G11 ; unretract
;TYPE:Bottom surface
;WIDTH:0.504949
G1 F2400
G1 X122.97 Y96.507 E.0388
G1 X122.317 Y96.507 E.0246
G1 X123.493 Y97.683 E.06264
G1 X123.493 Y98.337 E.0246
G1 X121.663 Y96.507 E.09743
G1 X121.01 Y96.507 E.0246
G1 X123.493 Y98.99 E.13222
G1 X123.493 Y99.644 E.0246
G1 X120.356 Y96.507 E.16701
G1 X119.703 Y96.507 E.0246
G1 X123.493 Y100.297 E.2018
G1 X123.493 Y100.951 E.0246
G1 X119.049 Y96.507 E.23659
G1 X118.396 Y96.507 E.0246
G1 X123.493 Y101.604 E.27138
G1 X123.493 Y102.257 E.0246
G1 X117.743 Y96.507 E.30617
G1 X117.089 Y96.507 E.0246
G1 X123.493 Y102.911 E.34097
G1 X123.493 Y103.564 E.0246
G1 X116.436 Y96.507 E.37576
G1 X115.782 Y96.507 E.0246
G1 X123.493 Y104.218 E.41055
G1 X123.493 Y104.871 E.0246
G1 X115.129 Y96.507 E.44534
G1 X114.476 Y96.507 E.0246
G1 X123.493 Y105.524 E.48013
G1 X123.493 Y106.178 E.0246
G1 X113.822 Y96.507 E.51492
G1 X113.169 Y96.507 E.0246
G1 X123.493 Y106.831 E.54971
G1 X123.493 Y107.485 E.0246
G1 X112.515 Y96.507 E.5845
G1 X111.862 Y96.507 E.0246
G1 X123.493 Y108.138 E.61929
G1 X123.493 Y108.791 E.0246
G1 X111.209 Y96.507 E.65408
G1 X110.555 Y96.507 E.0246
G1 X123.493 Y109.445 E.68887
G1 X123.493 Y110.098 E.0246
G1 X109.902 Y96.507 E.72366
G1 X109.248 Y96.507 E.0246
G1 X123.493 Y110.752 E.75845
G1 X123.493 Y111.405 E.0246
G1 X108.595 Y96.507 E.79324
G1 X107.942 Y96.507 E.0246
G1 X123.493 Y112.058 E.82803
G1 X123.493 Y112.712 E.0246
G1 X107.288 Y96.507 E.86282
G1 X106.635 Y96.507 E.0246
G1 X123.493 Y113.365 E.89761
G1 X123.493 Y114.019 E.0246
G1 X105.981 Y96.507 E.9324
G1 X105.328 Y96.507 E.0246
G1 X123.493 Y114.672 E.96719
M73 P1 R41
G1 X123.493 Y115.325 E.0246
G1 X104.675 Y96.507 E1.00198
G1 X104.021 Y96.507 E.0246
G1 X123.493 Y115.979 E1.03677
G1 X123.493 Y116.632 E.0246
G1 X103.368 Y96.507 E1.07156
G1 X102.714 Y96.507 E.0246
G1 X123.493 Y117.286 E1.10635
G1 X123.493 Y117.939 E.0246
G1 X102.061 Y96.507 E1.14114
G1 X101.407 Y96.507 E.0246
G1 X123.493 Y118.593 E1.17593
G1 X123.493 Y119.246 E.0246
G1 X100.754 Y96.507 E1.21072
G1 X100.101 Y96.507 E.0246
G1 X123.493 Y119.899 E1.24551
G1 X123.493 Y120.553 E.0246
G1 X99.447 Y96.507 E1.2803
G1 X98.794 Y96.507 E.0246
G1 X123.493 Y121.206 E1.31509
G1 X123.493 Y121.86 E.0246
G1 X98.14 Y96.507 E1.34988
G1 X97.487 Y96.507 E.0246
G1 X123.493 Y122.513 E1.38468
G1 X123.493 Y123.166 E.0246
G1 X96.834 Y96.507 E1.41947
G1 X96.507 Y96.507 E.0123
G1 X96.507 Y96.834 E.0123
G1 X123.166 Y123.493 E1.41946
G1 X122.513 Y123.493 E.0246
G1 X96.507 Y97.487 E1.38467
G1 X96.507 Y98.141 E.0246
G1 X121.859 Y123.493 E1.34988
G1 X121.206 Y123.493 E.0246
G1 X96.507 Y98.794 E1.31509
G1 X96.507 Y99.447 E.0246
G1 X120.553 Y123.493 E1.2803
G1 X119.899 Y123.493 E.0246
G1 X96.507 Y100.101 E1.24551
G1 X96.507 Y100.754 E.0246
G1 X119.246 Y123.493 E1.21072
G1 X118.592 Y123.493 E.0246
G1 X96.507 Y101.408 E1.17593
G1 X96.507 Y102.061 E.0246
G1 X117.939 Y123.493 E1.14114
G1 X117.286 Y123.493 E.0246
G1 X96.507 Y102.714 E1.10635
G1 X96.507 Y103.368 E.0246
G1 X116.632 Y123.493 E1.07156
G1 X115.979 Y123.493 E.0246
G1 X96.507 Y104.021 E1.03677
G1 X96.507 Y104.675 E.0246
G1 X115.325 Y123.493 E1.00198
G1 X114.672 Y123.493 E.0246
G1 X96.507 Y105.328 E.96719
G1 X96.507 Y105.981 E.0246
G1 X114.019 Y123.493 E.9324
G1 X113.365 Y123.493 E.0246
G1 X96.507 Y106.635 E.89761
M73 P2 R41
G1 X96.507 Y107.288 E.0246
G1 X112.712 Y123.493 E.86282
G1 X112.058 Y123.493 E.0246
G1 X96.507 Y107.942 E.82803
G1 X96.507 Y108.595 E.0246
G1 X111.405 Y123.493 E.79323
M73 P2 R40
G1 X110.752 Y123.493 E.0246
G1 X96.507 Y109.248 E.75844
G1 X96.507 Y109.902 E.0246
G1 X110.098 Y123.493 E.72365
G1 X109.445 Y123.493 E.0246
G1 X96.507 Y110.555 E.68886
G1 X96.507 Y111.209 E.0246
G1 X108.791 Y123.493 E.65407
G1 X108.138 Y123.493 E.0246
G1 X96.507 Y111.862 E.61928
G1 X96.507 Y112.515 E.0246
G1 X107.485 Y123.493 E.58449
G1 X106.831 Y123.493 E.0246
G1 X96.507 Y113.169 E.5497
G1 X96.507 Y113.822 E.0246
G1 X106.178 Y123.493 E.51491
G1 X105.524 Y123.493 E.0246
G1 X96.507 Y114.476 E.48012
G1 X96.507 Y115.129 E.0246
G1 X104.871 Y123.493 E.44533
G1 X104.217 Y123.493 E.0246
G1 X96.507 Y115.783 E.41054
G1 X96.507 Y116.436 E.0246
G1 X103.564 Y123.493 E.37575
G1 X102.911 Y123.493 E.0246
G1 X96.507 Y117.089 E.34096
G1 X96.507 Y117.743 E.0246
G1 X102.257 Y123.493 E.30617
G1 X101.604 Y123.493 E.0246
G1 X96.507 Y118.396 E.27138
G1 X96.507 Y119.05 E.0246
G1 X100.95 Y123.493 E.23659
G1 X100.297 Y123.493 E.0246
G1 X96.507 Y119.703 E.2018
G1 X96.507 Y120.356 E.0246
G1 X99.644 Y123.493 E.16701
G1 X98.99 Y123.493 E.0246
G1 X96.507 Y121.01 E.13222
G1 X96.507 Y121.663 E.0246
G1 X98.337 Y123.493 E.09743
G1 X97.683 Y123.493 E.0246
G1 X96.507 Y122.317 E.06264
G1 X96.507 Y122.97 E.0246
G1 X97.236 Y123.699 E.0388
; stop printing object hollow_cube.stl id:0 copy 0
M106 S255
;LAYER_CHANGE
;Z:0.4
;HEIGHT:0.2
;BEFORE_LAYER_CHANGE
;0.4
G92 E0

G10 ; retract
;WIPE_START
G1 F2400
G1 X96.529 Y122.992 E-.24
;WIPE_END
EXCLUDE_OBJECT_END NAME=hollow_cube.stl_id_0_copy_0
;AFTER_LAYER_CHANGE
;0.4
;_SET_FAN_SPEED_CHANGING_LAYER
SET_VELOCITY_LIMIT ACCEL=1000 ACCEL_TO_DECEL=500
M140 S60 ; set bed temperature
; printing object hollow_cube.stl id:0 copy 0
SET_VELOCITY_LIMIT ACCEL=180 ACCEL_TO_DECEL=90
EXCLUDE_OBJECT_START NAME=hollow_cube.stl_id_0_copy_0
G1 Z.6 F10800
G1 X124.011 Y124.011 Z.6
G1 Z.4
G11 ; unretract
SET_VELOCITY_LIMIT ACCEL=800 ACCEL_TO_DECEL=400
;TYPE:Inner wall
;WIDTH:0.449999
G1 F3600
G1 X95.989 Y124.011 E.92953
G1 X95.989 Y95.989 E.92953
G1 X124.011 Y95.989 E.92953
G1 X124.011 Y110 E.46476
G1 X124.011 Y123.971 E.46344
SET_VELOCITY_LIMIT ACCEL=180 ACCEL_TO_DECEL=90
G1 X124.418 Y124.418 F10800
SET_VELOCITY_LIMIT ACCEL=800 ACCEL_TO_DECEL=400
G1 F3600
G1 X95.582 Y124.418 E.95654
G1 X95.582 Y95.582 E.95654
G1 X124.418 Y95.582 E.95654
G1 X124.418 Y110 E.47827
G1 X124.418 Y124.378 E.47694
SET_VELOCITY_LIMIT ACCEL=180 ACCEL_TO_DECEL=90
G1 X124.8 Y124.8 F10800
SET_VELOCITY_LIMIT ACCEL=1000 ACCEL_TO_DECEL=500
;TYPE:Outer wall
;WIDTH:0.399999
G1 F4800
G1 X95.2 Y124.8 E.86128
G1 X95.2 Y95.2 E.86128
G1 X124.8 Y95.2 E.86128
G1 X124.8 Y110 E.43064
G1 X124.8 Y124.76 E.42948
SET_VELOCITY_LIMIT ACCEL=180 ACCEL_TO_DECEL=90
G10 ; retract
;WIPE_START
G1 X123.8 Y124.761 E-.24
;WIPE_END
G1 Z.8 F10800
G1 X123.643 Y123.579 Z.8
G1 Z.4
G11 ; unretract
SET_VELOCITY_LIMIT ACCEL=1000 ACCEL_TO_DECEL=500
;TYPE:Internal solid infill
;WIDTH:0.418868
G1 F9575.793
G1 X123.572 Y123.619 E.00249
G1 X123.646 Y123.654 E.0025
SET_VELOCITY_LIMIT ACCEL=180 ACCEL_TO_DECEL=90
G1 X122.879 Y123.891 F10800
SET_VELOCITY_LIMIT ACCEL=1000 ACCEL_TO_DECEL=500
;WIDTH:0.400666
G1 F10063.005
G1 X123.731 Y123.04 E.0351
G1 X123.731 Y122.534 E.01475
G1 X122.534 Y123.731 E.04934
G1 X122.028 Y123.731 E.01475
G1 X123.731 Y122.028 E.07019
G1 X123.731 Y121.522 E.01475
G1 X121.522 Y123.731 E.09105
G1 X121.016 Y123.731 E.01475
G1 X123.731 Y121.016 E.11191
G1 X123.731 Y120.51 E.01475
G1 X120.51 Y123.731 E.13277
G1 X120.004 Y123.731 E.01475
G1 X123.731 Y120.004 E.15363
G1 X123.731 Y119.498 E.01475
G1 X119.498 Y123.731 E.17448
G1 X118.992 Y123.731 E.01475
G1 X123.731 Y118.992 E.19534
G1 X123.731 Y118.486 E.01475
G1 X118.486 Y123.731 E.2162
G1 X117.98 Y123.731 E.01475
G1 X123.731 Y117.98 E.23706
G1 X123.731 Y117.475 E.01475
G1 X117.475 Y123.731 E.25791
G1 X116.969 Y123.731 E.01475
G1 X123.731 Y116.969 E.27877
G1 X123.731 Y116.463 E.01475
G1 X116.463 Y123.731 E.29963
G1 X115.957 Y123.731 E.01475
G1 X123.731 Y115.957 E.32049
G1 X123.731 Y115.451 E.01475
G1 X115.451 Y123.731 E.34135
G1 X114.945 Y123.731 E.01475
G1 X123.731 Y114.945 E.3622
G1 X123.731 Y114.439 E.01475
G1 X114.439 Y123.731 E.38306
G1 X113.933 Y123.731 E.01475
G1 X123.731 Y113.933 E.40392
G1 X123.731 Y113.427 E.01475
G1 X113.427 Y123.731 E.42478
G1 X112.921 Y123.731 E.01475
G1 X123.731 Y112.921 E.44564
G1 X123.731 Y112.415 E.01475
G1 X112.415 Y123.731 E.46649
G1 X111.909 Y123.731 E.01475
G1 X123.731 Y111.909 E.48735
G1 X123.731 Y111.403 E.01475
G1 X111.403 Y123.731 E.50821
G1 X110.897 Y123.731 E.01475
G1 X123.731 Y110.897 E.52907
G1 X123.731 Y110.392 E.01475
G1 X110.392 Y123.731 E.54992
G1 X109.886 Y123.731 E.01475
G1 X123.731 Y109.886 E.57078
G1 X123.731 Y109.38 E.01475
G1 X109.38 Y123.731 E.59164
G1 X108.874 Y123.731 E.01475
G1 X123.731 Y108.874 E.6125
G1 X123.731 Y108.368 E.01475
G1 X108.368 Y123.731 E.63336
G1 X107.862 Y123.731 E.01475
G1 X123.731 Y107.862 E.65421
G1 X123.731 Y107.356 E.01475
G1 X107.356 Y123.731 E.67507
G1 X106.85 Y123.731 E.01475
G1 X123.731 Y106.85 E.69593
G1 X123.731 Y106.344 E.01475
G1 X106.344 Y123.731 E.71679
M73 P3 R40
G1 X105.838 Y123.731 E.01475
G1 X123.731 Y105.838 E.73765
G1 X123.731 Y105.332 E.01475
G1 X105.332 Y123.731 E.7585
G1 X104.826 Y123.731 E.01475
G1 X123.731 Y104.826 E.77936
G1 X123.731 Y104.32 E.01475
G1 X104.32 Y123.731 E.80022
G1 X103.814 Y123.731 E.01475
G1 X123.731 Y103.814 E.82108
G1 X123.731 Y103.309 E.01475
G1 X103.309 Y123.731 E.84193
G1 X102.803 Y123.731 E.01475
G1 X123.731 Y102.803 E.86279
G1 X123.731 Y102.297 E.01475
G1 X102.297 Y123.731 E.88365
G1 X101.791 Y123.731 E.01475
G1 X123.731 Y101.791 E.90451
G1 X123.731 Y101.285 E.01475
G1 X101.285 Y123.731 E.92537
G1 X100.779 Y123.731 E.01475
G1 X123.731 Y100.779 E.94622
G1 X123.731 Y100.273 E.01475
G1 X100.273 Y123.731 E.96708
G1 X99.767 Y123.731 E.01475
G1 X123.731 Y99.767 E.98794
G1 X123.731 Y99.261 E.01475
G1 X99.261 Y123.731 E1.0088
G1 X98.755 Y123.731 E.01475
G1 X123.731 Y98.755 E1.02966
G1 X123.731 Y98.249 E.01475
G1 X98.249 Y123.731 E1.05051
G1 X97.743 Y123.731 E.01475
G1 X123.731 Y97.743 E1.07137
G1 X123.731 Y97.237 E.01475
G1 X97.237 Y123.731 E1.09223
G1 X96.731 Y123.731 E.01475
G1 X123.731 Y96.731 E1.11309
G1 X123.731 Y96.269 E.01347
G1 X123.687 Y96.269 E.00128
G1 X96.269 Y123.687 E1.13032
G1 X96.269 Y123.181 E.01475
G1 X123.181 Y96.269 E1.10946
G1 X122.675 Y96.269 E.01475
G1 X96.269 Y122.675 E1.08861
G1 X96.269 Y122.169 E.01475
G1 X122.169 Y96.269 E1.06775
G1 X121.663 Y96.269 E.01475
G1 X96.269 Y121.663 E1.04689
G1 X96.269 Y121.157 E.01475
G1 X121.157 Y96.269 E1.02603
G1 X120.651 Y96.269 E.01475
G1 X96.269 Y120.651 E1.00517
G1 X96.269 Y120.145 E.01475
G1 X120.145 Y96.269 E.98432
G1 X119.639 Y96.269 E.01475
G1 X96.269 Y119.639 E.96346
G1 X96.269 Y119.133 E.01475
G1 X119.133 Y96.269 E.9426
G1 X118.627 Y96.269 E.01475
G1 X96.269 Y118.627 E.92174
G1 X96.269 Y118.121 E.01475
G1 X118.121 Y96.269 E.90088
G1 X117.615 Y96.269 E.01475
G1 X96.269 Y117.615 E.88003
G1 X96.269 Y117.11 E.01475
G1 X117.11 Y96.269 E.85917
G1 X116.604 Y96.269 E.01475
G1 X96.269 Y116.604 E.83831
G1 X96.269 Y116.098 E.01475
G1 X116.098 Y96.269 E.81745
G1 X115.592 Y96.269 E.01475
G1 X96.269 Y115.592 E.7966
G1 X96.269 Y115.086 E.01475
G1 X115.086 Y96.269 E.77574
G1 X114.58 Y96.269 E.01475
G1 X96.269 Y114.58 E.75488
G1 X96.269 Y114.074 E.01475
G1 X114.074 Y96.269 E.73402
G1 X113.568 Y96.269 E.01475
G1 X96.269 Y113.568 E.71316
G1 X96.269 Y113.062 E.01475
G1 X113.062 Y96.269 E.69231
G1 X112.556 Y96.269 E.01475
G1 X96.269 Y112.556 E.67145
G1 X96.269 Y112.05 E.01475
G1 X112.05 Y96.269 E.65059
G1 X111.544 Y96.269 E.01475
G1 X96.269 Y111.544 E.62973
G1 X96.269 Y111.038 E.01475
G1 X111.038 Y96.269 E.60887
G1 X110.532 Y96.269 E.01475
G1 X96.269 Y110.532 E.58802
G1 X96.269 Y110.026 E.01475
G1 X110.027 Y96.269 E.56716
G1 X109.521 Y96.269 E.01475
G1 X96.269 Y109.521 E.5463
G1 X96.269 Y109.015 E.01475
G1 X109.015 Y96.269 E.52544
G1 X108.509 Y96.269 E.01475
G1 X96.269 Y108.509 E.50459
G1 X96.269 Y108.003 E.01475
G1 X108.003 Y96.269 E.48373
G1 X107.497 Y96.269 E.01475
G1 X96.269 Y107.497 E.46287
G1 X96.269 Y106.991 E.01475
G1 X106.991 Y96.269 E.44201
G1 X106.485 Y96.269 E.01475
G1 X96.269 Y106.485 E.42115
G1 X96.269 Y105.979 E.01475
G1 X105.979 Y96.269 E.4003
G1 X105.473 Y96.269 E.01475
G1 X96.269 Y105.473 E.37944
G1 X96.269 Y104.967 E.01475
G1 X104.967 Y96.269 E.35858
G1 X104.461 Y96.269 E.01475
G1 X96.269 Y104.461 E.33772
G1 X96.269 Y103.955 E.01475
G1 X103.955 Y96.269 E.31686
G1 X103.449 Y96.269 E.01475
G1 X96.269 Y103.449 E.29601
G1 X96.269 Y102.943 E.01475
G1 X102.943 Y96.269 E.27515
G1 X102.438 Y96.269 E.01475
G1 X96.269 Y102.438 E.25429
G1 X96.269 Y101.932 E.01475
G1 X101.932 Y96.269 E.23343
G1 X101.426 Y96.269 E.01475
G1 X96.269 Y101.426 E.21258
G1 X96.269 Y100.92 E.01475
G1 X100.92 Y96.269 E.19172
G1 X100.414 Y96.269 E.01475
G1 X96.269 Y100.414 E.17086
G1 X96.269 Y99.908 E.01475
G1 X99.908 Y96.269 E.15
G1 X99.402 Y96.269 E.01475
G1 X96.269 Y99.402 E.12914
G1 X96.269 Y98.896 E.01475
G1 X98.896 Y96.269 E.10829
G1 X98.39 Y96.269 E.01475
G1 X96.269 Y98.39 E.08743
G1 X96.269 Y97.884 E.01475
G1 X97.884 Y96.269 E.06657
G1 X97.378 Y96.269 E.01475
G1 X96.269 Y97.378 E.04571
G1 X96.269 Y96.872 E.01475
G1 X97.033 Y96.109 E.03148
SET_VELOCITY_LIMIT ACCEL=180 ACCEL_TO_DECEL=90
G1 X96.376 Y96.318 F10800
SET_VELOCITY_LIMIT ACCEL=1000 ACCEL_TO_DECEL=500
;WIDTH:0.38292
G1 F10588.235
G1 X96.312 Y96.355 E.00204
G1 X96.377 Y96.39 E.00204
; stop printing object hollow_cube.stl id:0 copy 0
;LAYER_CHANGE
;Z:0.6
;HEIGHT:0.2
;BEFORE_LAYER_CHANGE
;0.6
G92 E0

G10 ; retract
;WIPE_START
G1 F10588.235
G1 X96.312 Y96.355 E-.01252
G1 X96.376 Y96.318 E-.01251
;WIPE_END
EXCLUDE_OBJECT_END NAME=hollow_cube.stl_id_0_copy_0
;AFTER_LAYER_CHANGE
;0.6
;_SET_FAN_SPEED_CHANGING_LAYER
; printing object hollow_cube.stl id:0 copy 0
SET_VELOCITY_LIMIT ACCEL=180 ACCEL_TO_DECEL=90
EXCLUDE_OBJECT_START NAME=hollow_cube.stl_id_0_copy_0
G1 Z.8 F10800
G1 X124.011 Y124.011 Z.8
G1 Z.6
G11 ; unretract
SET_VELOCITY_LIMIT ACCEL=800 ACCEL_TO_DECEL=400
;TYPE:Inner wall
;WIDTH:0.449999
G1 F3600
G1 X95.989 Y124.011 E.92953
G1 X95.989 Y95.989 E.92953
G1 X124.011 Y95.989 E.92953
G1 X124.011 Y110 E.46476
M73 P4 R40
G1 X124.011 Y123.971 E.46344
SET_VELOCITY_LIMIT ACCEL=180 ACCEL_TO_DECEL=90
G1 X124.418 Y124.418 F10800
SET_VELOCITY_LIMIT ACCEL=800 ACCEL_TO_DECEL=400
G1 F3600
G1 X95.582 Y124.418 E.95654
G1 X95.582 Y95.582 E.95654
G1 X124.418 Y95.582 E.95654
G1 X124.418 Y110 E.47827
G1 X124.418 Y124.378 E.47694
SET_VELOCITY_LIMIT ACCEL=180 ACCEL_TO_DECEL=90
G1 X124.8 Y124.8 F10800
SET_VELOCITY_LIMIT ACCEL=1000 ACCEL_TO_DECEL=500
;TYPE:Outer wall
;WIDTH:0.399999
G1 F4800
G1 X95.2 Y124.8 E.86128
G1 X95.2 Y95.2 E.86128
G1 X124.8 Y95.2 E.86128
G1 X124.8 Y110 E.43064
G1 X124.8 Y124.76 E.42948
SET_VELOCITY_LIMIT ACCEL=180 ACCEL_TO_DECEL=90
G10 ; retract
;WIPE_START
