; generated by SuperSlicer 2.4 on 2024-01-18 at 03:32:13 UTC


;
;

;
;
; 

; external perimeters extrusion width = 0.45mm
; perimeters extrusion width = 0.45mm
; infill extrusion width = 0.45mm
; solid infill extrusion width = 0.45mm
; top infill extrusion width = 0.40mm
; first layer extrusion width = 0.42mm

; object:{"name":"Kubo_Monkey_talisman","id":"Kubo_Monkey_talisman.obj id:0 copy 0","object_center":[0.034713,-0.010883,0.000000],"boundingbox_center":[0.034713,-0.010883,14.976679],"boundingbox_size":[20.405369,18.600222,29.953358]}
; plater:{"center":[0.034713,-0.010883,0.000000],"boundingbox_center":[0.034713,-0.010883,14.976679],"boundingbox_size":[20.405369,18.600222,29.953358]}

;TYPE:Custom
START_PRINT
M107
G21 ; set units to millimeters
G90 ; use absolute coordinates
M83 ; use relative distances for extrusion
; Filament gcode
;_TOOLCHANGE 0
M104 S200 ; set temperature
M109 S200 ; set temperature and wait for it to be reached
M190 S60 ; set bed temperature and wait for it to be reached
M107
;LAYER_CHANGE
;Z:0.2
;HEIGHT:0.2
;BEFORE_LAYER_CHANGE
G92 E0
;0.2
G1 E-5 F3600
G1 Z0.2 F10800
;AFTER_LAYER_CHANGE
;0.2
M204 S1000
G1 X16.941 Y-1.764
G1 E5 F2400
;TYPE:Skirt
;WIDTH:0.52
G1 F1200
G1 X16.327 Y-7.663 E0.23526
G1 X15.923 Y-9.257 E0.06526
G1 X11.354 Y-20.293 E0.47381
G1 X10.197 Y-22.064 E0.08392
G1 X8.463 Y-23.298 E0.08445
G1 X6.397 Y-23.812 E0.08445
G1 X4.286 Y-23.535 E0.08445
G1 X-7.989 Y-19.494 E0.51266
G1 X-9.528 Y-18.713 E0.06844
G1 X-12.152 Y-16.836 E0.12799
G1 X-13.017 Y-16.074 E0.04574
G1 X-14.605 Y-14.361 E0.09266
G1 X-15.404 Y-13.263 E0.05386
G1 X-17.012 Y-10.384 E0.13083
G1 X-17.707 Y-8.909 E0.06468
G1 X-18.339 Y-7.171 E0.07336
G1 X-18.561 Y-6.333 E0.03439
G1 X-18.861 Y-4.715 E0.06528
G1 X-19.006 Y-2.586 E0.08463
G1 X-18.916 Y0.139 E0.10818
G1 X-18.694 Y1.507 E0.05495
G1 X-17.749 Y4.664 E0.13071
G1 X-16.858 Y6.911 E0.0959
G1 X-16.436 Y7.747 E0.03716
G1 X-14.668 Y10.628 E0.13408
G1 X-13.704 Y11.81 E0.06052
G1 X-11.046 Y14.3 E0.14446
G1 X-9.222 Y15.451 E0.08558
G1 X-7.343 Y16.186 E0.08003
G1 X-6.121 Y16.572 E0.05084
G1 X-3.144 Y17.307 E0.12163
G1 X-1.952 Y17.471 E0.04773
G1 X-0.418 Y17.498 E0.06085
G1 X2.16 Y17.304 E0.10259
G1 X4.897 Y16.959 E0.1094
G1 X6.545 Y16.491 E0.06798
G1 X10.684 Y14.554 E0.18128
G1 X12.467 Y13.186 E0.08917
G1 X16.216 Y8.898 E0.22593
G1 X17.42 Y6.666 E0.10063
G1 X17.598 Y4.544 E0.08445
G1 X16.948 Y-1.704 E0.2492
G1 X16.473 Y-1.655 F10800
G1 F1200
G1 X15.853 Y-7.613 E0.23764
G1 X15.482 Y-9.075 E0.05981
G1 X10.913 Y-20.11 E0.47381
G1 X10.03 Y-21.539 E0.06663
G1 X8.421 Y-22.789 E0.08082
G1 X6.457 Y-23.33 E0.08082
G1 X4.435 Y-23.082 E0.08082
G1 X-7.84 Y-19.041 E0.51266
G1 X-9.25 Y-18.325 E0.06273
G1 X-11.874 Y-16.448 E0.12799
G1 X-12.667 Y-15.749 E0.04192
G1 X-14.255 Y-14.037 E0.09266
G1 X-14.987 Y-13.03 E0.04936
G1 X-16.787 Y-9.774 E0.14761
G1 X-17.456 Y-8.255 E0.06584
G1 X-18.092 Y-6.246 E0.08359
G1 X-18.392 Y-4.628 E0.06528
G1 X-18.529 Y-2.567 E0.08194
G1 X-18.44 Y0.121 E0.10666
G1 X-18.236 Y1.374 E0.05037
G1 X-17.294 Y4.522 E0.13038
G1 X-16.416 Y6.731 E0.09428
G1 X-16.029 Y7.497 E0.03406
G1 X-14.261 Y10.378 E0.13408
G1 X-13.378 Y11.462 E0.05547
G1 X-10.72 Y13.952 E0.14446
G1 X-9.048 Y15.007 E0.07844
G1 X-6.007 Y16.109 E0.12832
G1 X-3.03 Y16.844 E0.12163
G1 X-1.937 Y16.994 E0.04375
G1 X-0.444 Y17.022 E0.05923
G1 X2.11 Y16.83 E0.1016
G1 X4.837 Y16.486 E0.10904
G1 X6.348 Y16.057 E0.0623
G1 X10.473 Y14.126 E0.18072
G1 X12.108 Y12.872 E0.08172
G1 X15.857 Y8.584 E0.22593
G1 X16.937 Y6.622 E0.08883
G1 X17.124 Y4.593 E0.08082
G1 X16.479 Y-1.595 E0.24682
G1 E-3.5 F3600
;WIPE_START
G1 F8640
G1 X16.107 Y-5.176 E-1.425
;WIPE_END
G1 E-0.075 F3600
; acceleration to travel
M204 S1500
G1 X11.857 Y-0.703 F10800
; decel to extrusion
M204 S1000
G1 X10.825 Y0.384
; end travel
G1 E5 F2400
;WIDTH:0.42
G1 F1200
G1 X10.96 Y0.769 E0.01279
G1 X11.168 Y2.603 E0.05786
G1 X11.044 Y3.932 E0.04185
G1 X10.699 Y5.225 E0.04194
G1 X9.846 Y6.888 E0.0586
G1 X8.615 Y8.323 E0.05928
G1 X7.808 Y8.978 E0.0326
G1 X6.957 Y9.566 E0.03241
G1 X6.391 Y9.862 E0.02004
G1 X5.828 Y10.183 E0.02031
G1 X4.927 Y10.55 E0.03051
G1 X4.21 Y10.74 E0.02327
G1 X3.596 Y10.926 E0.02009
G1 X2.697 Y11.052 E0.02848
G1 X2.323 Y11.122 E0.01193
G1 X1.298 Y11.196 E0.03221
G1 X0.679 Y11.144 E0.01949
G1 X0.3 Y11.218 E0.01212
G1 X-0.584 Y11.293 E0.0278
G1 X-2.562 Y11.137 E0.06219
G1 X-2.917 Y11.061 E0.0114
G1 X-3.367 Y10.997 E0.01426
G1 X-4.422 Y10.728 E0.03413
G1 X-5.876 Y10.134 E0.04924
G1 X-7.257 Y9.345 E0.04988
G1 X-8.612 Y8.21 E0.05542
G1 X-9.473 Y7.235 E0.04077
G1 X-9.68 Y6.945 E0.01119
G1 X-9.986 Y6.578 E0.01498
G1 X-10.432 Y5.852 E0.0267
G1 X-10.69 Y5.517 E0.01326
G1 X-11.365 Y4.404 E0.04081
G1 X-12.012 Y2.897 E0.05144
G1 X-12.374 Y1.771 E0.0371
G1 X-12.54 Y0.782 E0.03143
G1 X-12.71 Y0.285 E0.01648
G1 X-12.948 Y-0.903 E0.03797
G1 X-13.018 Y-2.352 E0.0455
G1 X-12.945 Y-3.71 E0.04262
G1 X-12.678 Y-5.139 E0.04559
G1 X-12.284 Y-6.345 E0.03979
G1 X-11.752 Y-7.512 E0.0402
G1 X-11.307 Y-8.294 E0.02822
G1 X-11.157 Y-8.53 E0.00875
G1 X-11.018 Y-8.801 E0.00957
G1 X-9.837 Y-10.695 E0.06998
G1 X-9.208 Y-11.379 E0.02913
G1 X-8.512 Y-12.009 E0.02944
G1 X-7.559 Y-12.666 E0.03628
G1 X-7.299 Y-12.812 E0.00938
G1 X-6.347 Y-13.464 E0.03616
G1 X-4.908 Y-14.058 E0.0488
G1 X-3.395 Y-14.373 E0.04849
G1 X-2.337 Y-14.42 E0.03318
G1 X-1.912 Y-14.392 E0.01336
G1 X-1.129 Y-14.401 E0.02457
G1 X-0.249 Y-14.282 E0.02782
G1 X-0.028 Y-14.361 E0.00737
G1 X0.914 Y-14.559 E0.03016
G1 X1.943 Y-14.64 E0.03238
G1 X3.006 Y-14.637 E0.03332
G1 X5.343 Y-14.025 E0.07574
G1 X7.384 Y-12.708 E0.07616
G1 X8.222 Y-11.82 E0.03827
G1 X8.769 Y-11.049 E0.02965
G1 X9.632 Y-9.091 E0.06709
G1 X9.965 Y-6.64 E0.07757
G1 X9.661 Y-4.755 E0.05985
G1 X9.247 Y-3.703 E0.03545
G1 X8.96 Y-2.844 E0.02839
G1 X9.526 Y-2.253 E0.02566
G1 X10.388 Y-0.863 E0.0513
G1 X10.805 Y0.328 E0.03955
G1 X10.453 Y0.451 F10800
G1 F1200
G1 X10.587 Y0.834 E0.01271
G1 X10.791 Y2.588 E0.05537
G1 X10.67 Y3.881 E0.04073
G1 X10.34 Y5.107 E0.03981
G1 X9.521 Y6.695 E0.05603
G1 X8.365 Y8.041 E0.05564
G1 X7.587 Y8.673 E0.03139
G1 X6.772 Y9.237 E0.0311
G1 X6.21 Y9.531 E0.01988
G1 X5.653 Y9.849 E0.02012
G1 X4.796 Y10.196 E0.02896
G1 X4.107 Y10.377 E0.02235
G1 X3.501 Y10.561 E0.01985
G1 X2.636 Y10.68 E0.02738
G1 X2.264 Y10.749 E0.01188
G1 X1.286 Y10.819 E0.03073
G1 X0.658 Y10.763 E0.01977
G1 X0.257 Y10.843 E0.01282
G1 X-0.601 Y10.916 E0.02699
G1 X-2.495 Y10.766 E0.05958
G1 X-2.851 Y10.69 E0.01143
G1 X-3.284 Y10.629 E0.0137
G1 X-4.316 Y10.366 E0.03339
G1 X-5.722 Y9.79 E0.04762
G1 X-7.055 Y9.026 E0.04819
G1 X-8.359 Y7.93 E0.05339
G1 X-9.183 Y6.994 E0.03913
G1 X-9.381 Y6.715 E0.01072
G1 X-9.688 Y6.347 E0.01501
G1 X-10.121 Y5.637 E0.02607
G1 X-10.373 Y5.313 E0.0129
G1 X-11.036 Y4.22 E0.04005
G1 X-11.662 Y2.757 E0.04991
G1 X-12.011 Y1.669 E0.03583
G1 X-12.173 Y0.689 E0.03114
G1 X-12.343 Y0.198 E0.01628
G1 X-12.575 Y-0.963 E0.03712
G1 X-12.641 Y-2.361 E0.04388
G1 X-12.569 Y-3.677 E0.04133
G1 X-12.316 Y-5.034 E0.04328
G1 X-11.936 Y-6.198 E0.0384
G1 X-11.413 Y-7.348 E0.0396
G1 X-10.982 Y-8.103 E0.02727
G1 X-10.83 Y-8.342 E0.00887
G1 X-10.693 Y-8.609 E0.0094
G1 X-9.548 Y-10.453 E0.06807
G1 X-8.937 Y-11.117 E0.0283
G1 X-8.268 Y-11.72 E0.02823
G1 X-7.353 Y-12.35 E0.03483
G1 X-7.1 Y-12.491 E0.00909
G1 X-6.151 Y-13.141 E0.03607
G1 X-4.782 Y-13.702 E0.04638
G1 X-3.333 Y-14.001 E0.04637
G1 X-2.332 Y-14.043 E0.03142
G1 X-1.923 Y-14.015 E0.01285
G1 X-1.138 Y-14.023 E0.0246
G1 X-0.208 Y-13.896 E0.02945
G1 X0.063 Y-13.995 E0.00905
G1 X0.956 Y-14.184 E0.02859
G1 X1.95 Y-14.263 E0.03126
G1 X2.98 Y-14.26 E0.03232
G1 X5.217 Y-13.668 E0.07254
G1 X7.159 Y-12.404 E0.07264
G1 X7.938 Y-11.572 E0.03574
G1 X8.45 Y-10.847 E0.02784
G1 X9.276 Y-8.964 E0.06448
G1 X9.589 Y-6.672 E0.07251
G1 X9.292 Y-4.836 E0.05833
G1 X8.893 Y-3.833 E0.03385
G1 X8.53 Y-2.747 E0.0359
G1 X9.216 Y-2.037 E0.03095
G1 X10.057 Y-0.681 E0.05003
G1 X10.434 Y0.394 E0.03574
G1 X10.079 Y0.517 F10800
G1 F1200
G1 X10.224 Y0.938 E0.01395
G1 X10.414 Y2.573 E0.05161
G1 X10.302 Y3.799 E0.0386
G1 X9.981 Y4.989 E0.03867
G1 X9.22 Y6.467 E0.0521
G1 X8.113 Y7.759 E0.05336
G1 X7.367 Y8.367 E0.03017
G1 X6.567 Y8.92 E0.0305
G1 X6.03 Y9.2 E0.01899
G1 X5.477 Y9.515 E0.01995
G1 X4.667 Y9.842 E0.0274
G1 X4.005 Y10.014 E0.02144
G1 X3.406 Y10.195 E0.01961
G1 X2.576 Y10.307 E0.02627
G1 X2.205 Y10.377 E0.01184
G1 X1.275 Y10.442 E0.02922
G1 X0.638 Y10.383 E0.02007
G1 X0.215 Y10.468 E0.01354
G1 X-0.617 Y10.539 E0.02617
G1 X-2.428 Y10.395 E0.05697
G1 X-2.786 Y10.318 E0.01148
G1 X-3.201 Y10.261 E0.01314
G1 X-4.21 Y10.004 E0.03264
G1 X-5.567 Y9.446 E0.04599
G1 X-6.853 Y8.707 E0.0465
G1 X-8.105 Y7.651 E0.05136
G1 X-8.893 Y6.753 E0.03748
G1 X-9.082 Y6.485 E0.01026
G1 X-9.389 Y6.116 E0.01505
G1 X-9.81 Y5.423 E0.02544
G1 X-10.057 Y5.107 E0.01255
G1 X-10.706 Y4.036 E0.03928
G1 X-11.312 Y2.617 E0.04838
G1 X-11.648 Y1.567 E0.03456
G1 X-11.807 Y0.595 E0.03087
G1 X-11.976 Y0.112 E0.01608
G1 X-12.202 Y-1.023 E0.03626
G1 X-12.264 Y-2.368 E0.04224
G1 X-12.193 Y-3.644 E0.04005
G1 X-11.954 Y-4.929 E0.04099
G1 X-11.589 Y-6.052 E0.03702
G1 X-11.073 Y-7.183 E0.03899
G1 X-10.657 Y-7.912 E0.02632
G1 X-10.502 Y-8.154 E0.009
G1 X-10.368 Y-8.417 E0.00925
G1 X-9.259 Y-10.211 E0.06614
G1 X-8.665 Y-10.855 E0.02746
G1 X-8.025 Y-11.432 E0.02702
G1 X-7.147 Y-12.034 E0.03337
G1 X-6.901 Y-12.17 E0.00881
G1 X-5.954 Y-12.819 E0.036
G1 X-4.656 Y-13.346 E0.04394
G1 X-3.273 Y-13.628 E0.04426
G1 X-2.327 Y-13.666 E0.02966
G1 X-1.934 Y-13.638 E0.01235
G1 X-1.149 Y-13.646 E0.02464
G1 X-0.165 Y-13.51 E0.03112
G1 X0.156 Y-13.629 E0.01075
G1 X0.998 Y-13.81 E0.027
G1 X1.956 Y-13.886 E0.03014
G1 X2.955 Y-13.883 E0.03131
G1 X5.09 Y-13.311 E0.06932
G1 X6.933 Y-12.101 E0.06911
G1 X7.653 Y-11.325 E0.0332
G1 X8.131 Y-10.646 E0.02605
G1 X8.92 Y-8.837 E0.06188
G1 X9.212 Y-6.705 E0.06747
G1 X8.923 Y-4.917 E0.05679
G1 X8.539 Y-3.963 E0.03223
G1 X8.099 Y-2.648 E0.04348
G1 X8.906 Y-1.821 E0.03623
G1 X9.726 Y-0.5 E0.04873
G1 X10.059 Y0.461 E0.0319
G1 X9.704 Y0.583 F10800
G1 F1200
G1 X9.861 Y1.041 E0.01519
G1 X10.036 Y2.558 E0.04788
G1 X9.928 Y3.748 E0.03747
G1 X9.623 Y4.871 E0.03649
G1 X8.895 Y6.274 E0.04954
G1 X7.862 Y7.478 E0.04974
G1 X7.146 Y8.061 E0.02897
G1 X6.382 Y8.591 E0.02915
G1 X5.849 Y8.869 E0.01885
G1 X5.324 Y9.17 E0.01897
G1 X4.537 Y9.487 E0.02661
G1 X3.903 Y9.651 E0.02053
G1 X3.312 Y9.83 E0.01937
G1 X2.517 Y9.935 E0.02514
G1 X2.146 Y10.004 E0.01181
G1 X1.265 Y10.064 E0.0277
G1 X0.618 Y10.002 E0.02039
G1 X0.172 Y10.093 E0.01427
G1 X-0.633 Y10.162 E0.02533
G1 X-2.385 Y10.02 E0.05511
G1 X-2.721 Y9.946 E0.01077
G1 X-3.119 Y9.893 E0.0126
G1 X-4.104 Y9.642 E0.03188
G1 X-5.39 Y9.113 E0.04358
G1 X-6.65 Y8.389 E0.04557
G1 X-7.851 Y7.373 E0.04931
G1 X-8.603 Y6.512 E0.03583
G1 X-8.782 Y6.256 E0.00981
G1 X-9.09 Y5.886 E0.01511
G1 X-9.499 Y5.208 E0.02483
G1 X-9.74 Y4.902 E0.0122
G1 X-10.377 Y3.852 E0.0385
G1 X-10.962 Y2.477 E0.04684
G1 X-11.284 Y1.466 E0.03329
G1 X-11.44 Y0.502 E0.03062
G1 X-11.609 Y0.024 E0.01588
G1 X-11.83 Y-1.082 E0.03539
G1 X-11.887 Y-2.375 E0.04059
G1 X-11.817 Y-3.611 E0.03879
G1 X-11.591 Y-4.824 E0.03871
G1 X-11.241 Y-5.905 E0.03562
G1 X-10.734 Y-7.019 E0.03838
G1 X-10.332 Y-7.721 E0.02535
G1 X-10.175 Y-7.967 E0.00915
G1 X-10.043 Y-8.226 E0.00911
G1 X-8.969 Y-9.969 E0.0642
G1 X-8.406 Y-10.581 E0.02607
G1 X-7.782 Y-11.143 E0.02635
G1 X-6.942 Y-11.717 E0.0319
G1 X-6.704 Y-11.848 E0.00853
G1 X-5.758 Y-12.496 E0.03593
G1 X-4.531 Y-12.99 E0.04147
G1 X-3.213 Y-13.256 E0.04215
G1 X-2.324 Y-13.289 E0.0279
G1 X-1.946 Y-13.261 E0.01187
G1 X-1.159 Y-13.269 E0.0247
G1 X-0.122 Y-13.123 E0.03282
G1 X0.249 Y-13.264 E0.01246
G1 X1.041 Y-13.435 E0.02538
G1 X1.963 Y-13.509 E0.02901
G1 X2.929 Y-13.506 E0.03031
G1 X4.909 Y-12.979 E0.06424
G1 X6.672 Y-11.828 E0.066
G1 X7.368 Y-11.078 E0.03208
G1 X7.811 Y-10.445 E0.02425
G1 X8.564 Y-8.71 E0.05929
G1 X8.835 Y-6.737 E0.06245
G1 X8.555 Y-4.998 E0.05523
G1 X8.185 Y-4.095 E0.0306
G1 X7.668 Y-2.549 E0.05111
G1 X8.597 Y-1.604 E0.04152
G1 X9.394 Y-0.32 E0.04741
G1 X9.684 Y0.526 E0.02803
G1 X9.329 Y0.647 F10800
G1 F1200
G1 X9.498 Y1.143 E0.01644
G1 X9.659 Y2.544 E0.04421
G1 X9.56 Y3.665 E0.0353
G1 X9.264 Y4.752 E0.03533
G1 X8.571 Y6.08 E0.04695
G1 X7.611 Y7.196 E0.04615
G1 X6.925 Y7.755 E0.02777
G1 X6.177 Y8.275 E0.02854
G1 X5.669 Y8.538 E0.01796
G1 X5.148 Y8.836 E0.01881
G1 X4.408 Y9.133 E0.02499
G1 X3.802 Y9.288 E0.01962
G1 X3.218 Y9.464 E0.01914
G1 X2.458 Y9.562 E0.02401
G1 X2.088 Y9.632 E0.0118
G1 X1.256 Y9.687 E0.02616
G1 X0.598 Y9.621 E0.02073
G1 X0.129 Y9.719 E0.01502
G1 X-0.649 Y9.784 E0.02448
G1 X-2.341 Y9.645 E0.05323
G1 X-2.655 Y9.575 E0.01008
G1 X-3.037 Y9.525 E0.01207
G1 X-3.998 Y9.28 E0.03112
G1 X-5.213 Y8.78 E0.04117
G1 X-6.447 Y8.071 E0.04464
G1 X-7.596 Y7.095 E0.04725
G1 X-8.311 Y6.272 E0.03418
G1 X-8.481 Y6.027 E0.00936
G1 X-8.791 Y5.655 E0.01517
G1 X-9.189 Y4.993 E0.02423
G1 X-9.424 Y4.696 E0.01186
G1 X-10.047 Y3.668 E0.0377
G1 X-10.611 Y2.338 E0.04528
G1 X-10.921 Y1.365 E0.03203
G1 X-11.073 Y0.408 E0.0304
G1 X-11.242 Y-0.063 E0.01568
G1 X-11.457 Y-1.142 E0.03449
G1 X-11.51 Y-2.382 E0.03892
G1 X-11.442 Y-3.577 E0.03753
G1 X-11.229 Y-4.72 E0.03645
G1 X-10.893 Y-5.759 E0.03423
G1 X-10.394 Y-6.855 E0.03777
G1 X-10.007 Y-7.529 E0.02437
G1 X-9.847 Y-7.779 E0.00932
G1 X-9.718 Y-8.035 E0.00898
G1 X-8.679 Y-9.727 E0.06225
G1 X-8.135 Y-10.319 E0.02522
G1 X-7.539 Y-10.855 E0.02511
G1 X-6.738 Y-11.4 E0.03041
G1 X-6.506 Y-11.526 E0.00826
G1 X-5.562 Y-12.173 E0.03588
G1 X-4.407 Y-12.633 E0.03898
G1 X-3.184 Y-12.879 E0.03913
G1 X-2.321 Y-12.911 E0.02709
G1 X-1.959 Y-12.883 E0.01138
G1 X-1.169 Y-12.892 E0.02477
G1 X-0.214 Y-12.757 E0.03025
G1 X-0.101 Y-12.727 E0.00365
G1 X0.344 Y-12.898 E0.01496
G1 X1.084 Y-13.06 E0.02374
G1 X1.969 Y-13.132 E0.02786
G1 X2.904 Y-13.129 E0.02929
G1 X4.782 Y-12.623 E0.061
G1 X6.445 Y-11.526 E0.06245
G1 X7.081 Y-10.832 E0.02951
G1 X7.491 Y-10.245 E0.02247
G1 X8.208 Y-8.584 E0.0567
G1 X8.459 Y-6.769 E0.05744
G1 X8.186 Y-5.08 E0.05366
G1 X7.832 Y-4.227 E0.02896
G1 X7.227 Y-2.419 E0.05977
G1 X7.351 Y-2.333 E0.00472
G1 X8.288 Y-1.388 E0.04173
G1 X9.062 Y-0.139 E0.04606
G1 X9.31 Y0.59 E0.02414
G1 X8.954 Y0.709 F10800
G1 F1200
G1 X9.134 Y1.244 E0.01771
G1 X9.282 Y2.53 E0.04059
G1 X9.192 Y3.583 E0.03311
G1 X8.906 Y4.634 E0.03416
G1 X8.271 Y5.851 E0.04304
G1 X7.36 Y6.914 E0.0439
G1 X6.704 Y7.45 E0.02655
G1 X5.972 Y7.958 E0.02792
G1 X5.488 Y8.207 E0.01707
G1 X4.995 Y8.491 E0.01784
G1 X4.28 Y8.778 E0.02417
G1 X3.701 Y8.924 E0.01871
G1 X3.124 Y9.099 E0.01891
G1 X2.4 Y9.189 E0.02287
G1 X2.03 Y9.259 E0.01181
G1 X1.247 Y9.31 E0.02459
G1 X0.578 Y9.24 E0.0211
G1 X0.085 Y9.344 E0.01579
G1 X-0.665 Y9.407 E0.02362
G1 X-2.296 Y9.27 E0.05132
G1 X-2.589 Y9.203 E0.00941
G1 X-2.955 Y9.156 E0.01158
G1 X-3.892 Y8.917 E0.03033
G1 X-5.035 Y8.447 E0.03876
G1 X-6.244 Y7.752 E0.04371
G1 X-7.34 Y6.817 E0.04517
G1 X-8.019 Y6.033 E0.03252
G1 X-8.181 Y5.799 E0.00892
G1 X-8.492 Y5.425 E0.01526
G1 X-8.878 Y4.777 E0.02365
G1 X-9.108 Y4.49 E0.01153
G1 X-9.718 Y3.484 E0.03688
G1 X-10.26 Y2.2 E0.04372
G1 X-10.557 Y1.265 E0.03076
G1 X-10.706 Y0.313 E0.0302
G1 X-10.875 Y-0.151 E0.01548
G1 X-11.085 Y-1.201 E0.03358
G1 X-11.133 Y-2.388 E0.03725
G1 X-11.066 Y-3.543 E0.03628
G1 X-10.866 Y-4.616 E0.03421
G1 X-10.546 Y-5.612 E0.03282
G1 X-10.055 Y-6.69 E0.03714
G1 X-9.683 Y-7.337 E0.02339
G1 X-9.519 Y-7.592 E0.00951
G1 X-9.392 Y-7.845 E0.00886
G1 X-8.389 Y-9.485 E0.06028
G1 X-7.863 Y-10.057 E0.02436
G1 X-7.297 Y-10.566 E0.02386
G1 X-6.534 Y-11.083 E0.02891
G1 X-6.31 Y-11.204 E0.00799
G1 X-5.366 Y-11.85 E0.03584
G1 X-4.316 Y-12.267 E0.03544
G1 X-3.155 Y-12.503 E0.03715
G1 X-2.318 Y-12.534 E0.02626
G1 X-1.972 Y-12.506 E0.01087
G1 X-1.179 Y-12.515 E0.02486
G1 X-0.28 Y-12.385 E0.0285
G1 X-0.082 Y-12.329 E0.00645
G1 X0.44 Y-12.533 E0.01755
G1 X1.127 Y-12.685 E0.02208
G1 X1.976 Y-12.755 E0.02671
G1 X2.877 Y-12.752 E0.02826
G1 X4.654 Y-12.267 E0.05774
G1 X6.183 Y-11.254 E0.05749
G1 X6.795 Y-10.587 E0.02839
G1 X7.171 Y-10.045 E0.02067
G1 X7.851 Y-8.459 E0.05413
G1 X8.082 Y-6.802 E0.05245
G1 X7.817 Y-5.162 E0.05207
G1 X7.479 Y-4.361 E0.02725
G1 X7.126 Y-3.334 E0.03408
G1 X6.78 Y-2.261 E0.03532
G1 X7.098 Y-2.053 E0.0119
