; HEADER_BLOCK_START
; generated by OrcaSlicer 1.9.0 on 2024-02-03 at 22:33:46
; total layer number: 0
; filament_density: 1.24
; filament_diameter: 1.75
; max_z_height: 0.20
; HEADER_BLOCK_END

; THUMBNAIL_BLOCK_START

;
; THUMBNAIL_BLOCK_END

; external perimeters extrusion width = 0.45mm
; perimeters extrusion width = 0.45mm
; infill extrusion width = 0.45mm
; solid infill extrusion width = 0.45mm
; top infill extrusion width = 0.38mm
; first layer extrusion width = 0.45mm

; EXECUTABLE_BLOCK_START
M73 P0 R6
;TYPE:Custom
START_PRINT
G90
G21
M83 ; use relative distances for extrusion
; filament start gcode
SET_VELOCITY_LIMIT ACCEL=700 ACCEL_TO_DECEL=350
SET_VELOCITY_LIMIT SQUARE_CORNER_VELOCITY=5
G1 Z.2 F9000
G1 E-3 F1800
G1 X-50 Y75.25 F9000
G1 E3 F2400
G1 F1200
G1 X-50 Y-75.25 E8.36564
SET_PRESSURE_ADVANCE ADVANCE=0; Override pressure advance value
M73 P2 R6
G1 E-3 F1800
G1 X-50 Y-75.25 F9000
G1 E3 F2400
G1 F1200
G1 X-30 Y-75.25 E.92643
G1 F6000
G1 X10 Y-75.25 E1.85285
G1 F1200
G1 X30 Y-75.25 E.92643
SET_PRESSURE_ADVANCE ADVANCE=0.02; Override pressure advance value
M73 P3 R6
G1 E-3 F1800
G1 X-50 Y-71.75 F9000
G1 E3 F2400
G1 F1200
G1 X-30 Y-71.75 E.92643
G1 F6000
G1 X10 Y-71.75 E1.85285
G1 F1200
G1 X30 Y-71.75 E.92643
SET_PRESSURE_ADVANCE ADVANCE=0.04; Override pressure advance value
G1 E-3 F1800
G1 X-50 Y-68.25 F9000
M73 P4 R5
G1 E3 F2400
G1 F1200
G1 X-30 Y-68.25 E.92643
G1 F6000
G1 X10 Y-68.25 E1.85285
G1 F1200
G1 X30 Y-68.25 E.92643
SET_PRESSURE_ADVANCE ADVANCE=0.06; Override pressure advance value
G1 E-3 F1800
G1 X-50 Y-64.75 F9000
M73 P5 R5
G1 E3 F2400
G1 F1200
G1 X-30 Y-64.75 E.92643
G1 F6000
G1 X10 Y-64.75 E1.85285
G1 F1200
G1 X30 Y-64.75 E.92643
SET_PRESSURE_ADVANCE ADVANCE=0.08; Override pressure advance value
G1 E-3 F1800
G1 X-50 Y-61.25 F9000
M73 P6 R5
G1 E3 F2400
G1 F1200
G1 X-30 Y-61.25 E.92643
G1 F6000
G1 X10 Y-61.25 E1.85285
G1 F1200
G1 X30 Y-61.25 E.92643
SET_PRESSURE_ADVANCE ADVANCE=0.1; Override pressure advance value
G1 E-3 F1800
G1 X-50 Y-57.75 F9000
G1 E3 F2400
G1 F1200
G1 X-30 Y-57.75 E.92643
M73 P7 R5
G1 F6000
G1 X10 Y-57.75 E1.85285
G1 F1200
G1 X30 Y-57.75 E.92643
SET_PRESSURE_ADVANCE ADVANCE=0.12; Override pressure advance value
G1 E-3 F1800
G1 X-50 Y-54.25 F9000
G1 E3 F2400
G1 F1200
G1 X-30 Y-54.25 E.92643
M73 P8 R5
G1 F6000
G1 X10 Y-54.25 E1.85285
G1 F1200
G1 X30 Y-54.25 E.92643
SET_PRESSURE_ADVANCE ADVANCE=0.14; Override pressure advance value
G1 E-3 F1800
G1 X-50 Y-50.75 F9000
G1 E3 F2400
G1 F1200
G1 X-30 Y-50.75 E.92643
M73 P9 R5
G1 F6000
G1 X10 Y-50.75 E1.85285
G1 F1200
G1 X30 Y-50.75 E.92643
SET_PRESSURE_ADVANCE ADVANCE=0.16; Override pressure advance value
G1 E-3 F1800
G1 X-50 Y-47.25 F9000
G1 E3 F2400
G1 F1200
G1 X-30 Y-47.25 E.92643
M73 P10 R5
G1 F6000
G1 X10 Y-47.25 E1.85285
G1 F1200
G1 X30 Y-47.25 E.92643
SET_PRESSURE_ADVANCE ADVANCE=0.18; Override pressure advance value
G1 E-3 F1800
G1 X-50 Y-43.75 F9000
G1 E3 F2400
G1 F1200
G1 X-30 Y-43.75 E.92643
G1 F6000
G1 X10 Y-43.75 E1.85285
M73 P11 R5
G1 F1200
G1 X30 Y-43.75 E.92643
SET_PRESSURE_ADVANCE ADVANCE=0.2; Override pressure advance value
G1 E-3 F1800
G1 X-50 Y-40.25 F9000
G1 E3 F2400
G1 F1200
G1 X-30 Y-40.25 E.92643
G1 F6000
G1 X10 Y-40.25 E1.85285
M73 P12 R5
G1 F1200
G1 X30 Y-40.25 E.92643
SET_PRESSURE_ADVANCE ADVANCE=0.22; Override pressure advance value
G1 E-3 F1800
G1 X-50 Y-36.75 F9000
G1 E3 F2400
G1 F1200
G1 X-30 Y-36.75 E.92643
G1 F6000
G1 X10 Y-36.75 E1.85285
G1 F1200
G1 X30 Y-36.75 E.92643
SET_PRESSURE_ADVANCE ADVANCE=0.24; Override pressure advance value
M73 P13 R5
G1 E-3 F1800
G1 X-50 Y-33.25 F9000
G1 E3 F2400
G1 F1200
G1 X-30 Y-33.25 E.92643
G1 F6000
G1 X10 Y-33.25 E1.85285
G1 F1200
G1 X30 Y-33.25 E.92643
SET_PRESSURE_ADVANCE ADVANCE=0.26; Override pressure advance value
M73 P14 R5
G1 E-3 F1800
G1 X-50 Y-29.75 F9000
G1 E3 F2400
G1 F1200
G1 X-30 Y-29.75 E.92643
G1 F6000
G1 X10 Y-29.75 E1.85285
G1 F1200
G1 X30 Y-29.75 E.92643
SET_PRESSURE_ADVANCE ADVANCE=0.28; Override pressure advance value
M73 P15 R5
G1 E-3 F1800
G1 X-50 Y-26.25 F9000
G1 E3 F2400
G1 F1200
G1 X-30 Y-26.25 E.92643
G1 F6000
G1 X10 Y-26.25 E1.85285
G1 F1200
G1 X30 Y-26.25 E.92643
SET_PRESSURE_ADVANCE ADVANCE=0.3; Override pressure advance value
G1 E-3 F1800
M73 P16 R5
G1 X-50 Y-22.75 F9000
G1 E3 F2400
G1 F1200
G1 X-30 Y-22.75 E.92643
G1 F6000
G1 X10 Y-22.75 E1.85285
G1 F1200
G1 X30 Y-22.75 E.92643
SET_PRESSURE_ADVANCE ADVANCE=0.32; Override pressure advance value
G1 E-3 F1800
G1 X-50 Y-19.25 F9000
M73 P17 R5
G1 E3 F2400
G1 F1200
G1 X-30 Y-19.25 E.92643
G1 F6000
G1 X10 Y-19.25 E1.85285
G1 F1200
G1 X30 Y-19.25 E.92643
SET_PRESSURE_ADVANCE ADVANCE=0.34; Override pressure advance value
G1 E-3 F1800
G1 X-50 Y-15.75 F9000
M73 P18 R5
G1 E3 F2400
G1 F1200
G1 X-30 Y-15.75 E.92643
G1 F6000
G1 X10 Y-15.75 E1.85285
G1 F1200
G1 X30 Y-15.75 E.92643
SET_PRESSURE_ADVANCE ADVANCE=0.36; Override pressure advance value
G1 E-3 F1800
G1 X-50 Y-12.25 F9000
G1 E3 F2400
M73 P19 R5
G1 F1200
G1 X-30 Y-12.25 E.92643
G1 F6000
G1 X10 Y-12.25 E1.85285
G1 F1200
G1 X30 Y-12.25 E.92643
SET_PRESSURE_ADVANCE ADVANCE=0.38; Override pressure advance value
G1 E-3 F1800
G1 X-50 Y-8.75 F9000
G1 E3 F2400
G1 F1200
G1 X-30 Y-8.75 E.92643
M73 P20 R4
G1 F6000
G1 X10 Y-8.75 E1.85285
G1 F1200
G1 X30 Y-8.75 E.92643
SET_PRESSURE_ADVANCE ADVANCE=0.4; Override pressure advance value
G1 E-3 F1800
G1 X-50 Y-5.25 F9000
G1 E3 F2400
G1 F1200
G1 X-30 Y-5.25 E.92643
M73 P21 R4
G1 F6000
G1 X10 Y-5.25 E1.85285
G1 F1200
G1 X30 Y-5.25 E.92643
SET_PRESSURE_ADVANCE ADVANCE=0.42; Override pressure advance value
G1 E-3 F1800
G1 X-50 Y-1.75 F9000
G1 E3 F2400
G1 F1200
G1 X-30 Y-1.75 E.92643
M73 P22 R4
G1 F6000
G1 X10 Y-1.75 E1.85285
G1 F1200
G1 X30 Y-1.75 E.92643
SET_PRESSURE_ADVANCE ADVANCE=0.44; Override pressure advance value
G1 E-3 F1800
G1 X-50 Y1.75 F9000
G1 E3 F2400
G1 F1200
G1 X-30 Y1.75 E.92643
G1 F6000
G1 X10 Y1.75 E1.85285
M73 P23 R4
G1 F1200
G1 X30 Y1.75 E.92643
SET_PRESSURE_ADVANCE ADVANCE=0.46; Override pressure advance value
G1 E-3 F1800
G1 X-50 Y5.25 F9000
G1 E3 F2400
G1 F1200
G1 X-30 Y5.25 E.92643
G1 F6000
G1 X10 Y5.25 E1.85285
M73 P24 R4
G1 F1200
G1 X30 Y5.25 E.92643
SET_PRESSURE_ADVANCE ADVANCE=0.48; Override pressure advance value
G1 E-3 F1800
G1 X-50 Y8.75 F9000
G1 E3 F2400
G1 F1200
G1 X-30 Y8.75 E.92643
G1 F6000
G1 X10 Y8.75 E1.85285
G1 F1200
G1 X30 Y8.75 E.92643
SET_PRESSURE_ADVANCE ADVANCE=0.5; Override pressure advance value
M73 P25 R4
G1 E-3 F1800
G1 X-50 Y12.25 F9000
G1 E3 F2400
G1 F1200
G1 X-30 Y12.25 E.92643
G1 F6000
G1 X10 Y12.25 E1.85285
G1 F1200
G1 X30 Y12.25 E.92643
SET_PRESSURE_ADVANCE ADVANCE=0.52; Override pressure advance value
M73 P26 R4
G1 E-3 F1800
G1 X-50 Y15.75 F9000
G1 E3 F2400
G1 F1200
G1 X-30 Y15.75 E.92643
G1 F6000
G1 X10 Y15.75 E1.85285
G1 F1200
G1 X30 Y15.75 E.92643
SET_PRESSURE_ADVANCE ADVANCE=0.54; Override pressure advance value
M73 P27 R4
G1 E-3 F1800
G1 X-50 Y19.25 F9000
G1 E3 F2400
G1 F1200
G1 X-30 Y19.25 E.92643
G1 F6000
G1 X10 Y19.25 E1.85285
G1 F1200
G1 X30 Y19.25 E.92643
SET_PRESSURE_ADVANCE ADVANCE=0.56; Override pressure advance value
M73 P28 R4
G1 E-3 F1800
G1 X-50 Y22.75 F9000
G1 E3 F2400
G1 F1200
G1 X-30 Y22.75 E.92643
G1 F6000
G1 X10 Y22.75 E1.85285
G1 F1200
G1 X30 Y22.75 E.92643
SET_PRESSURE_ADVANCE ADVANCE=0.58; Override pressure advance value
G1 E-3 F1800
G1 X-50 Y26.25 F9000
M73 P29 R4
G1 E3 F2400
G1 F1200
G1 X-30 Y26.25 E.92643
G1 F6000
G1 X10 Y26.25 E1.85285
G1 F1200
G1 X30 Y26.25 E.92643
SET_PRESSURE_ADVANCE ADVANCE=0.6; Override pressure advance value
G1 E-3 F1800
G1 X-50 Y29.75 F9000
M73 P30 R4
G1 E3 F2400
G1 F1200
G1 X-30 Y29.75 E.92643
G1 F6000
G1 X10 Y29.75 E1.85285
G1 F1200
G1 X30 Y29.75 E.92643
SET_PRESSURE_ADVANCE ADVANCE=0.62; Override pressure advance value
G1 E-3 F1800
G1 X-50 Y33.25 F9000
M73 P31 R4
G1 E3 F2400
G1 F1200
G1 X-30 Y33.25 E.92643
G1 F6000
G1 X10 Y33.25 E1.85285
G1 F1200
G1 X30 Y33.25 E.92643
SET_PRESSURE_ADVANCE ADVANCE=0.64; Override pressure advance value
G1 E-3 F1800
G1 X-50 Y36.75 F9000
G1 E3 F2400
G1 F1200
G1 X-30 Y36.75 E.92643
M73 P32 R4
G1 F6000
G1 X10 Y36.75 E1.85285
G1 F1200
G1 X30 Y36.75 E.92643
SET_PRESSURE_ADVANCE ADVANCE=0.66; Override pressure advance value
G1 E-3 F1800
G1 X-50 Y40.25 F9000
G1 E3 F2400
G1 F1200
G1 X-30 Y40.25 E.92643
M73 P33 R4
G1 F6000
G1 X10 Y40.25 E1.85285
G1 F1200
G1 X30 Y40.25 E.92643
SET_PRESSURE_ADVANCE ADVANCE=0.68; Override pressure advance value
G1 E-3 F1800
G1 X-50 Y43.75 F9000
G1 E3 F2400
G1 F1200
G1 X-30 Y43.75 E.92643
M73 P34 R4
G1 F6000
G1 X10 Y43.75 E1.85285
G1 F1200
G1 X30 Y43.75 E.92643
SET_PRESSURE_ADVANCE ADVANCE=0.7; Override pressure advance value
G1 E-3 F1800
G1 X-50 Y47.25 F9000
G1 E3 F2400
G1 F1200
G1 X-30 Y47.25 E.92643
M73 P35 R4
G1 F6000
G1 X10 Y47.25 E1.85285
G1 F1200
G1 X30 Y47.25 E.92643
SET_PRESSURE_ADVANCE ADVANCE=0.72; Override pressure advance value
G1 E-3 F1800
G1 X-50 Y50.75 F9000
G1 E3 F2400
G1 F1200
G1 X-30 Y50.75 E.92643
G1 F6000
G1 X10 Y50.75 E1.85285
M73 P36 R4
G1 F1200
G1 X30 Y50.75 E.92643
SET_PRESSURE_ADVANCE ADVANCE=0.74; Override pressure advance value
M73 P36 R3
G1 E-3 F1800
G1 X-50 Y54.25 F9000
G1 E3 F2400
G1 F1200
G1 X-30 Y54.25 E.92643
G1 F6000
G1 X10 Y54.25 E1.85285
G1 F1200
G1 X30 Y54.25 E.92643
SET_PRESSURE_ADVANCE ADVANCE=0.76; Override pressure advance value
M73 P37 R3
G1 E-3 F1800
G1 X-50 Y57.75 F9000
G1 E3 F2400
G1 F1200
G1 X-30 Y57.75 E.92643
G1 F6000
G1 X10 Y57.75 E1.85285
G1 F1200
G1 X30 Y57.75 E.92643
SET_PRESSURE_ADVANCE ADVANCE=0.78; Override pressure advance value
M73 P38 R3
G1 E-3 F1800
G1 X-50 Y61.25 F9000
G1 E3 F2400
G1 F1200
G1 X-30 Y61.25 E.92643
G1 F6000
G1 X10 Y61.25 E1.85285
G1 F1200
G1 X30 Y61.25 E.92643
SET_PRESSURE_ADVANCE ADVANCE=0.8; Override pressure advance value
M73 P39 R3
G1 E-3 F1800
G1 X-50 Y64.75 F9000
G1 E3 F2400
G1 F1200
G1 X-30 Y64.75 E.92643
G1 F6000
G1 X10 Y64.75 E1.85285
G1 F1200
G1 X30 Y64.75 E.92643
SET_PRESSURE_ADVANCE ADVANCE=0.82; Override pressure advance value
M73 P40 R3
G1 E-3 F1800
G1 X-50 Y68.25 F9000
G1 E3 F2400
G1 F1200
G1 X-30 Y68.25 E.92643
G1 F6000
G1 X10 Y68.25 E1.85285
G1 F1200
G1 X30 Y68.25 E.92643
SET_PRESSURE_ADVANCE ADVANCE=0.84; Override pressure advance value
G1 E-3 F1800
M73 P41 R3
G1 X-50 Y71.75 F9000
G1 E3 F2400
G1 F1200
G1 X-30 Y71.75 E.92643
G1 F6000
G1 X10 Y71.75 E1.85285
G1 F1200
G1 X30 Y71.75 E.92643
SET_PRESSURE_ADVANCE ADVANCE=0; Override pressure advance value
G1 E-3 F1800
G1 X30 Y-78.75 F9000
M73 P42 R3
G1 E3 F2400
G1 F6000
G1 X30 Y75.25 E6.75313
G1 F6000
G1 X54 Y75.25 E1.05244
G1 F6000
G1 X54 Y-78.75 E6.75313
M73 P43 R3
G1 F6000
G1 X30 Y-78.75 E1.05244
G1 E-3 F1800
G1 X30.557 Y-78.193 F9000
G1 E3 F2400
G1 F6000
G1 X30.557 Y74.693 E6.70427
G1 F6000
G1 X53.443 Y74.693 E1.00358
G1 F6000
G1 X53.443 Y-78.193 E6.70427
M73 P44 R3
G1 F6000
G1 X30.557 Y-78.193 E1.00358
G1 E-3 F1800
G1 X30.957 Y-77.793 F9000
G1 E3 F2400
G1 E-3 F1800
G1 X31.745 Y-77.793 F9000
G1 E3 F2400
G1 F6000
G1 X30.957 Y-77.005 E.04886
G1 E-3 F1800
G1 X30.957 Y-76.217 F9000
G1 E3 F2400
G1 F6000
G1 X32.533 Y-77.793 E.09772
G1 E-3 F1800
G1 X33.321 Y-77.793 F9000
G1 E3 F2400
G1 F6000
G1 X30.957 Y-75.429 E.14657
G1 E-3 F1800
G1 X30.957 Y-74.642 F9000
G1 E3 F2400
G1 F6000
G1 X34.108 Y-77.793 E.19543
G1 E-3 F1800
G1 X34.896 Y-77.793 F9000
M73 P45 R3
G1 E3 F2400
G1 F6000
G1 X30.957 Y-73.854 E.24429
G1 E-3 F1800
G1 X30.957 Y-73.066 F9000
G1 E3 F2400
G1 F6000
G1 X35.684 Y-77.793 E.29315
G1 E-3 F1800
G1 X36.472 Y-77.793 F9000
G1 E3 F2400
G1 F6000
G1 X30.957 Y-72.278 E.342
G1 E-3 F1800
G1 X30.957 Y-71.49 F9000
G1 E3 F2400
G1 F6000
G1 X37.26 Y-77.793 E.39086
G1 E-3 F1800
G1 X38.048 Y-77.793 F9000
G1 E3 F2400
G1 F6000
G1 X30.957 Y-70.702 E.43972
G1 E-3 F1800
G1 X30.957 Y-69.915 F9000
G1 E3 F2400
G1 F6000
G1 X38.835 Y-77.793 E.48858
G1 E-3 F1800
G1 X39.623 Y-77.793 F9000
G1 E3 F2400
G1 F6000
G1 X30.957 Y-69.127 E.53743
G1 E-3 F1800
G1 X30.957 Y-68.339 F9000
G1 E3 F2400
G1 F6000
G1 X40.411 Y-77.793 E.58629
G1 E-3 F1800
G1 X41.199 Y-77.793 F9000
M73 P46 R3
G1 E3 F2400
G1 F6000
G1 X30.957 Y-67.551 E.63515
G1 E-3 F1800
G1 X30.957 Y-66.763 F9000
G1 E3 F2400
G1 F6000
G1 X41.987 Y-77.793 E.68401
G1 E-3 F1800
G1 X42.775 Y-77.793 F9000
G1 E3 F2400
G1 F6000
G1 X30.957 Y-65.975 E.73286
G1 E-3 F1800
G1 X30.957 Y-65.188 F9000
G1 E3 F2400
G1 F6000
G1 X43.562 Y-77.793 E.78172
G1 E-3 F1800
G1 X44.35 Y-77.793 F9000
G1 E3 F2400
G1 F6000
G1 X30.957 Y-64.4 E.83058
G1 E-3 F1800
G1 X30.957 Y-63.612 F9000
G1 E3 F2400
G1 F6000
G1 X45.138 Y-77.793 E.87944
G1 E-3 F1800
G1 X45.926 Y-77.793 F9000
G1 E3 F2400
G1 F6000
G1 X30.957 Y-62.824 E.92829
M73 P47 R3
G1 E-3 F1800
G1 X30.957 Y-62.036 F9000
G1 E3 F2400
G1 F6000
G1 X46.714 Y-77.793 E.97715
G1 E-3 F1800
G1 X47.502 Y-77.793 F9000
G1 E3 F2400
G1 F6000
G1 X30.957 Y-61.248 E1.02601
G1 E-3 F1800
G1 X30.957 Y-60.461 F9000
G1 E3 F2400
G1 F6000
G1 X48.289 Y-77.793 E1.07487
G1 E-3 F1800
G1 X49.077 Y-77.793 F9000
G1 E3 F2400
G1 F6000
G1 X30.957 Y-59.673 E1.12372
G1 E-3 F1800
G1 X30.957 Y-58.885 F9000
G1 E3 F2400
G1 F6000
G1 X49.865 Y-77.793 E1.17258
G1 E-3 F1800
G1 X50.653 Y-77.793 F9000
G1 E3 F2400
G1 F6000
G1 X30.957 Y-58.097 E1.22144
M73 P48 R3
G1 E-3 F1800
G1 X30.957 Y-57.309 F9000
G1 E3 F2400
G1 F6000
G1 X51.441 Y-77.793 E1.2703
G1 E-3 F1800
G1 X52.228 Y-77.793 F9000
G1 E3 F2400
G1 F6000
G1 X30.957 Y-56.522 E1.31915
G1 E-3 F1800
G1 X30.957 Y-55.734 F9000
G1 E3 F2400
G1 F6000
G1 X53.016 Y-77.793 E1.36801
G1 E-3 F1800
G1 X53.043 Y-77.032 F9000
G1 E3 F2400
G1 F6000
G1 X30.957 Y-54.946 E1.36966
G1 E-3 F1800
G1 X30.957 Y-54.158 F9000
G1 E3 F2400
G1 F6000
G1 X53.043 Y-76.244 E1.36966
G1 E-3 F1800
G1 X53.043 Y-75.456 F9000
G1 E3 F2400
M73 P49 R3
G1 F6000
G1 X30.957 Y-53.37 E1.36966
G1 E-3 F1800
G1 X30.957 Y-52.582 F9000
G1 E3 F2400
G1 F6000
G1 X53.043 Y-74.668 E1.36966
G1 E-3 F1800
G1 X53.043 Y-73.88 F9000
G1 E3 F2400
G1 F6000
G1 X30.957 Y-51.795 E1.36966
G1 E-3 F1800
G1 X30.957 Y-51.007 F9000
G1 E3 F2400
G1 F6000
G1 X53.043 Y-73.093 E1.36966
G1 E-3 F1800
G1 X53.043 Y-72.305 F9000
G1 E3 F2400
G1 F6000
G1 X30.957 Y-50.219 E1.36966
G1 E-3 F1800
G1 X30.957 Y-49.431 F9000
G1 E3 F2400
G1 F6000
G1 X53.043 Y-71.517 E1.36966
M73 P50 R3
G1 E-3 F1800
G1 X53.043 Y-70.729 F9000
G1 E3 F2400
G1 F6000
G1 X30.957 Y-48.643 E1.36966
G1 E-3 F1800
G1 X30.957 Y-47.855 F9000
G1 E3 F2400
G1 F6000
G1 X53.043 Y-69.941 E1.36966
G1 E-3 F1800
G1 X53.043 Y-69.153 F9000
G1 E3 F2400
G1 F6000
G1 X30.957 Y-47.068 E1.36966
G1 E-3 F1800
G1 X30.957 Y-46.28 F9000
G1 E3 F2400
G1 F6000
G1 X53.043 Y-68.366 E1.36966
G1 E-3 F1800
G1 X53.043 Y-67.578 F9000
G1 E3 F2400
G1 F6000
G1 X30.957 Y-45.492 E1.36966
G1 E-3 F1800
M73 P51 R3
G1 X30.957 Y-44.704 F9000
G1 E3 F2400
G1 F6000
G1 X53.043 Y-66.79 E1.36966
G1 E-3 F1800
G1 X53.043 Y-66.002 F9000
G1 E3 F2400
G1 F6000
G1 X30.957 Y-43.916 E1.36966
G1 E-3 F1800
G1 X30.957 Y-43.128 F9000
G1 E3 F2400
G1 F6000
G1 X53.043 Y-65.214 E1.36966
G1 E-3 F1800
G1 X53.043 Y-64.426 F9000
G1 E3 F2400
G1 F6000
G1 X30.957 Y-42.341 E1.36966
G1 E-3 F1800
G1 X30.957 Y-41.553 F9000
G1 E3 F2400
G1 F6000
G1 X53.043 Y-63.639 E1.36966
G1 E-3 F1800
G1 X53.043 Y-62.851 F9000
G1 E3 F2400
G1 F6000
G1 X30.957 Y-40.765 E1.36966
M73 P52 R2
G1 E-3 F1800
G1 X30.957 Y-39.977 F9000
G1 E3 F2400
G1 F6000
G1 X53.043 Y-62.063 E1.36966
G1 E-3 F1800
G1 X53.043 Y-61.275 F9000
G1 E3 F2400
G1 F6000
G1 X30.957 Y-39.189 E1.36966
G1 E-3 F1800
G1 X30.957 Y-38.401 F9000
G1 E3 F2400
G1 F6000
G1 X53.043 Y-60.487 E1.36966
G1 E-3 F1800
G1 X53.043 Y-59.699 F9000
G1 E3 F2400
G1 F6000
G1 X30.957 Y-37.614 E1.36966
G1 E-3 F1800
G1 X30.957 Y-36.826 F9000
G1 E3 F2400
G1 F6000
G1 X53.043 Y-58.912 E1.36966
M73 P53 R2
G1 E-3 F1800
G1 X53.043 Y-58.124 F9000
G1 E3 F2400
G1 F6000
G1 X30.957 Y-36.038 E1.36966
G1 E-3 F1800
G1 X30.957 Y-35.25 F9000
G1 E3 F2400
G1 F6000
G1 X53.043 Y-57.336 E1.36966
G1 E-3 F1800
G1 X53.043 Y-56.548 F9000
G1 E3 F2400
G1 F6000
G1 X30.957 Y-34.462 E1.36966
G1 E-3 F1800
G1 X30.957 Y-33.674 F9000
G1 E3 F2400
G1 F6000
G1 X53.043 Y-55.76 E1.36966
G1 E-3 F1800
G1 X53.043 Y-54.972 F9000
G1 E3 F2400
G1 F6000
G1 X30.957 Y-32.887 E1.36966
G1 E-3 F1800
G1 X30.957 Y-32.099 F9000
M73 P54 R2
G1 E3 F2400
G1 F6000
