; HEADER_BLOCK_START
; generated by OrcaSlicer 1.9.0 on 2024-02-03 at 23:50:10
; total layer number: 450
; filament_density: 1.24
; filament_diameter: 1.75
; max_z_height: 90.00
; HEADER_BLOCK_END

; THUMBNAIL_BLOCK_START

;
; THUMBNAIL_BLOCK_END

; external perimeters extrusion width = 0.45mm
; perimeters extrusion width = 0.45mm
; infill extrusion width = 0.45mm
; solid infill extrusion width = 0.45mm
; top infill extrusion width = 0.38mm
; first layer extrusion width = 0.45mm

; EXECUTABLE_BLOCK_START
M73 P0 R124
;TYPE:Custom
START_PRINT
G90
G21
M83 ; use relative distances for extrusion
; filament start gcode
SET_PRESSURE_ADVANCE ADVANCE=0.072; Override pressure advance value
M106 S0
;LAYER_CHANGE
;Z:0.2
;HEIGHT:0.2
;BEFORE_LAYER_CHANGE
;0.2
G92 E0

G1 E-3 F1800
;AFTER_LAYER_CHANGE
;0.2
;_SET_FAN_SPEED_CHANGING_LAYER
M104 S230 ; set nozzle temperature
SET_VELOCITY_LIMIT ACCEL=800 ACCEL_TO_DECEL=400
G1 Z.4 F9000
G1 X.009 Y15.376
G1 Z.4
G1 Z.2
G1 E3 F2400
;TYPE:Skirt
;WIDTH:0.45
G1 F3000
G1 X-12.944 Y15.384 E.41506
G1 X-14.463 Y15.216 E.04899
G1 X-15.943 Y14.832 E.04899
G1 X-17.966 Y13.906 E.07129
G1 X-18.665 Y13.456 E.02664
G1 X-19.851 Y12.491 E.04899
G1 X-21.305 Y10.807 E.07129
G1 X-21.752 Y10.107 E.02664
G1 X-22.429 Y8.736 E.04899
G1 X-22.904 Y7.283 E.04899
G1 X-23.165 Y5.786 E.04868
G1 X-23.227 Y4.7 E.03486
G1 X-23.227 Y-4.7 E.30121
G1 X-23.162 Y-5.812 E.0357
G1 X-22.895 Y-7.318 E.04899
G1 X-22.66 Y-8.115 E.02664
G1 X-21.734 Y-10.138 E.07129
G1 X-21.284 Y-10.837 E.02664
G1 X-20.319 Y-12.023 E.04899
G1 X-18.635 Y-13.477 E.07129
G1 X-17.321 Y-14.258 E.04899
G1 X-15.909 Y-14.844 E.04899
G1 X-14.427 Y-15.222 E.04899
G1 X-12.934 Y-15.385 E.04815
G1 X17.922 Y-15.397 E.98873
G1 X20.075 Y-15.218 E.06924
G1 X21.499 Y-14.894 E.04679
G1 X22.976 Y-14.339 E.05056
G1 X24.313 Y-13.598 E.04899
G1 X24.991 Y-13.118 E.02664
G1 X26.134 Y-12.102 E.04899
G1 X27.513 Y-10.356 E.07129
G1 X28.236 Y-9.009 E.04899
G1 X28.546 Y-8.237 E.02664
G1 X28.956 Y-6.765 E.04899
G1 X29.176 Y-4.639 E.06847
G1 X29.176 Y4.639 E.29732
G1 X28.993 Y6.574 E.06229
G1 X28.365 Y8.709 E.07129
G1 X27.683 Y10.077 E.04899
G1 X27.233 Y10.776 E.02664
G1 X26.268 Y11.962 E.04899
G1 X24.584 Y13.416 E.07129
G1 X23.27 Y14.197 E.04899
G1 X21.858 Y14.783 E.04899
G1 X20.6 Y15.122 E.04172
G1 X18.731 Y15.365 E.06041
G1 X.049 Y15.376 E.59864
G1 X.049 Y14.97 F9000
G1 F3000
G1 X-12.914 Y14.978 E.4154
G1 X-15.059 Y14.669 E.06942
G1 X-16.455 Y14.206 E.04713
G1 X-17.77 Y13.549 E.04713
G1 X-18.979 Y12.711 E.04713
G1 X-19.562 Y12.204 E.02477
G1 X-20.978 Y10.564 E.06942
G1 X-21.395 Y9.913 E.02477
G1 X-22.047 Y8.595 E.04713
G1 X-22.506 Y7.197 E.04713
G1 X-22.759 Y5.758 E.04683
G1 X-22.82 Y4.7 E.03395
G1 X-22.82 Y-4.7 E.30121
G1 X-22.756 Y-5.783 E.03477
G1 X-22.497 Y-7.231 E.04713
G1 X-22.279 Y-7.973 E.02477
G1 X-21.377 Y-9.943 E.06942
G1 X-20.539 Y-11.151 E.04713
G1 X-20.032 Y-11.734 E.02477
G1 X-18.392 Y-13.15 E.06942
G1 X-17.127 Y-13.9 E.04713
G1 X-15.767 Y-14.462 E.04713
G1 X-14.342 Y-14.824 E.04713
G1 X-12.905 Y-14.979 E.04631
G1 X17.922 Y-14.99 E.98782
G1 X20.02 Y-14.814 E.06748
G1 X21.398 Y-14.499 E.04529
G1 X22.816 Y-13.964 E.04858
G1 X24.102 Y-13.25 E.04713
G1 X24.733 Y-12.803 E.02477
G1 X25.833 Y-11.828 E.04713
G1 X27.176 Y-10.127 E.06942
G1 X27.87 Y-8.83 E.04713
G1 X28.371 Y-7.448 E.04713
G1 X28.554 Y-6.697 E.02477
G1 X28.769 Y-4.639 E.06629
G1 X28.769 Y4.639 E.29732
G1 X28.595 Y6.488 E.05949
G1 X28.228 Y7.912 E.04713
G1 X27.326 Y9.882 E.06942
G1 X26.488 Y11.09 E.04713
G1 X25.981 Y11.674 E.02477
G1 X24.341 Y13.089 E.06942
G1 X23.076 Y13.839 E.04713
G1 X21.716 Y14.401 E.04713
G1 X20.509 Y14.725 E.04006
G1 X18.714 Y14.958 E.05799
G1 X.089 Y14.97 E.59683
; printing object temperature_tower.stl id:0 copy 0
G1 E-2.4 F1800
;WIPE_START
G1 F3000
G1 X-.911 Y14.971 E-.6
;WIPE_END
G1 Z.6 F9000
G1 X.089 Y9.381 Z.6
G1 Z.2
G1 E3 F2400
;TYPE:Brim
G1 F2700
G1 X-12.521 Y9.381 E.40406
G1 X-13.196 Y9.333 E.02168
G1 X-13.849 Y9.19 E.02145
G1 X-14.476 Y8.956 E.02145
G1 X-15.063 Y8.635 E.02145
G1 X-15.599 Y8.233 E.02145
G1 X-16.071 Y7.759 E.02145
G1 X-16.471 Y7.222 E.02145
G1 X-16.791 Y6.634 E.02145
G1 X-17.023 Y6.006 E.02145
G1 X-17.163 Y5.352 E.02145
G1 X-17.209 Y4.693 E.02116
G1 X-17.209 Y-4.693 E.30075
G1 X-17.161 Y-5.368 E.02168
G1 X-17.018 Y-6.022 E.02145
G1 X-16.784 Y-6.648 E.02145
G1 X-16.463 Y-7.236 E.02145
G1 X-16.061 Y-7.771 E.02145
G1 X-15.587 Y-8.243 E.02145
G1 X-15.05 Y-8.643 E.02145
G1 X-14.462 Y-8.963 E.02145
G1 X-13.834 Y-9.195 E.02145
G1 X-13.18 Y-9.335 E.02145
G1 X-12.521 Y-9.381 E.02116
G1 X17.915 Y-9.379 E.97529
G1 X18.681 Y-9.334 E.02459
G1 X19.254 Y-9.256 E.0185
G1 X19.995 Y-9.067 E.02451
G1 X20.61 Y-8.806 E.02142
G1 X21.182 Y-8.459 E.02145
G1 X21.699 Y-8.034 E.02145
G1 X22.151 Y-7.54 E.02145
G1 X22.527 Y-6.986 E.02145
G1 X22.82 Y-6.385 E.02145
G1 X23.025 Y-5.747 E.02145
G1 X23.137 Y-5.085 E.02152
G1 X23.158 Y-4.634 E.01446
G1 X23.158 Y4.632 E.29693
G1 X23.11 Y5.307 E.02168
G1 X22.967 Y5.961 E.02145
G1 X22.733 Y6.588 E.02145
G1 X22.412 Y7.175 E.02145
G1 X22.01 Y7.71 E.02145
G1 X21.536 Y8.182 E.02145
G1 X20.999 Y8.582 E.02145
G1 X20.411 Y8.902 E.02145
G1 X19.782 Y9.135 E.0215
G1 X19.257 Y9.256 E.01725
G1 X18.475 Y9.353 E.02525
G1 X17.78 Y9.381 E.02229
G1 X.129 Y9.381 E.5656
G1 X.129 Y8.974 F9000
G1 F2700
G1 X-12.51 Y8.974 E.40502
G1 X-13.129 Y8.93 E.01986
G1 X-13.726 Y8.801 E.01957
G1 X-14.298 Y8.588 E.01957
G1 X-14.835 Y8.296 E.01957
G1 X-15.324 Y7.93 E.01957
G1 X-15.756 Y7.498 E.01957
G1 X-16.132 Y6.995 E.02013
G1 X-16.422 Y6.457 E.01957
G1 X-16.633 Y5.884 E.01957
G1 X-16.757 Y5.303 E.01904
G1 X-16.802 Y4.674 E.02019
G1 X-16.802 Y-4.674 E.29955
G1 X-16.758 Y-5.301 E.02014
G1 X-16.629 Y-5.898 E.01957
G1 X-16.416 Y-6.47 E.01957
G1 X-16.124 Y-7.007 E.01957
G1 X-15.758 Y-7.496 E.01957
G1 X-15.326 Y-7.928 E.01957
G1 X-14.837 Y-8.294 E.01957
G1 X-14.285 Y-8.594 E.02013
G1 X-13.712 Y-8.805 E.01957
G1 X-13.131 Y-8.929 E.01904
G1 X-12.502 Y-8.974 E.02019
G1 X17.9 Y-8.972 E.9742
G1 X18.637 Y-8.929 E.02368
G1 X19.169 Y-8.857 E.01718
G1 X19.855 Y-8.683 E.02269
G1 X20.416 Y-8.446 E.01951
G1 X20.953 Y-8.12 E.02013
G1 X21.412 Y-7.744 E.01902
G1 X21.824 Y-7.293 E.01957
G1 X22.178 Y-6.774 E.02013
G1 X22.444 Y-6.224 E.01957
G1 X22.625 Y-5.659 E.01902
G1 X22.73 Y-5.048 E.01985
G1 X22.751 Y-4.622 E.01369
G1 X22.751 Y4.613 E.29591
G1 X22.704 Y5.257 E.0207
G1 X22.578 Y5.837 E.01902
G1 X22.365 Y6.41 E.01957
G1 X22.073 Y6.946 E.01957
G1 X21.707 Y7.435 E.01957
G1 X21.275 Y7.867 E.01957
G1 X20.786 Y8.233 E.01957
G1 X20.234 Y8.533 E.02013
G1 X19.672 Y8.741 E.0192
G1 X19.192 Y8.853 E.01579
G1 X18.446 Y8.946 E.02408
G1 X17.769 Y8.974 E.02173
G1 X.169 Y8.974 E.56397
G1 X.169 Y8.567 F9000
G1 F2700
G1 X-12.5 Y8.567 E.40597
G1 X-13.062 Y8.526 E.01805
G1 X-13.603 Y8.411 E.01771
G1 X-14.137 Y8.212 E.01826
G1 X-14.621 Y7.947 E.0177
G1 X-15.063 Y7.615 E.0177
G1 X-15.453 Y7.224 E.01769
G1 X-15.792 Y6.767 E.01823
G1 X-16.053 Y6.281 E.01768
G1 X-16.238 Y5.778 E.01716
G1 X-16.352 Y5.254 E.0172
G1 X-16.395 Y4.656 E.01923
G1 X-16.395 Y-4.655 E.29834
G1 X-16.354 Y-5.234 E.01861
G1 X-16.239 Y-5.775 E.01771
G1 X-16.048 Y-6.293 E.0177
G1 X-15.784 Y-6.779 E.0177
G1 X-15.455 Y-7.222 E.0177
G1 X-15.065 Y-7.614 E.0177
G1 X-14.624 Y-7.945 E.01768
G1 X-14.109 Y-8.225 E.0188
G1 X-13.606 Y-8.41 E.01714
G1 X-13.082 Y-8.524 E.0172
G1 X-12.483 Y-8.567 E.01922
G1 X17.884 Y-8.565 E.97309
G1 X18.593 Y-8.524 E.02277
G1 X19.084 Y-8.458 E.01586
G1 X19.716 Y-8.298 E.02089
G1 X20.238 Y-8.078 E.01815
G1 X20.724 Y-7.782 E.01824
G1 X21.137 Y-7.441 E.01715
G1 X21.498 Y-7.047 E.01714
G1 X21.828 Y-6.561 E.0188
G1 X22.062 Y-6.08 E.01714
G1 X22.226 Y-5.57 E.01717
G1 X22.323 Y-5.011 E.01819
G1 X22.344 Y-4.609 E.01292
G1 X22.344 Y4.594 E.29487
G1 X22.298 Y5.207 E.01971
G1 X22.183 Y5.73 E.01717
G1 X21.989 Y6.248 E.01772
G1 X21.733 Y6.718 E.01714
G1 X21.404 Y7.161 E.0177
G1 X21.014 Y7.553 E.0177
G1 X20.573 Y7.884 E.01768
G1 X20.057 Y8.165 E.01881
G1 X19.562 Y8.348 E.01692
G1 X19.114 Y8.452 E.01473
G1 X18.418 Y8.539 E.02249
G1 X17.758 Y8.567 E.02116
G1 X.209 Y8.567 E.56233
G1 X.209 Y8.16 F9000
G1 F2700
G1 X-12.49 Y8.159 E.40693
G1 X-12.996 Y8.123 E.01627
G1 X-13.48 Y8.021 E.01584
G1 X-13.959 Y7.844 E.01636
G1 X-14.393 Y7.608 E.01582
G1 X-14.801 Y7.301 E.01639
G1 X-15.149 Y6.951 E.01581
G1 X-15.451 Y6.541 E.01633
G1 X-15.684 Y6.106 E.0158
G1 X-15.848 Y5.656 E.01533
G1 X-15.946 Y5.204 E.01483
G1 X-15.988 Y4.636 E.01825
G1 X-15.988 Y-4.636 E.29713
G1 X-15.951 Y-5.169 E.0171
G1 X-15.849 Y-5.653 E.01585
G1 X-15.679 Y-6.117 E.01583
G1 X-15.445 Y-6.551 E.01583
G1 X-15.151 Y-6.948 E.01583
G1 X-14.803 Y-7.3 E.01583
G1 X-14.411 Y-7.596 E.01577
G1 X-13.932 Y-7.856 E.01745
G1 X-13.484 Y-8.02 E.01527
G1 X-13.032 Y-8.118 E.01483
G1 X-12.464 Y-8.16 E.01824
G1 X17.868 Y-8.158 E.97198
G1 X18.55 Y-8.118 E.02187
G1 X19 Y-8.058 E.01455
G1 X19.577 Y-7.913 E.01908
G1 X20.06 Y-7.71 E.01677
G1 X20.494 Y-7.444 E.01633
G1 X20.849 Y-7.151 E.01476
G1 X21.172 Y-6.8 E.01527
G1 X21.479 Y-6.349 E.01747
G1 X21.686 Y-5.92 E.01527
G1 X21.828 Y-5.481 E.01479
G1 X21.917 Y-4.973 E.01652
G1 X21.937 Y-4.595 E.01213
G1 X21.937 Y4.574 E.29381
G1 X21.893 Y5.156 E.01872
G1 X21.789 Y5.623 E.01531
G1 X21.614 Y6.086 E.01587
G1 X21.384 Y6.505 E.0153
G1 X21.1 Y6.888 E.01529
G1 X20.752 Y7.239 E.01583
G1 X20.36 Y7.536 E.01577
G1 X19.88 Y7.796 E.01747
G1 X19.452 Y7.955 E.01464
G1 X19.036 Y8.052 E.01368
G1 X18.389 Y8.133 E.0209
G1 X17.747 Y8.16 E.02059
G1 X.249 Y8.16 E.5607
G1 X.249 Y7.752 F9000
G1 F2700
G1 X-12.48 Y7.752 E.40788
G1 X-12.931 Y7.719 E.0145
G1 X-13.358 Y7.63 E.01398
G1 X-13.782 Y7.476 E.01446
G1 X-14.164 Y7.269 E.01391
G1 X-14.526 Y6.999 E.01448
G1 X-14.832 Y6.691 E.01391
G1 X-15.101 Y6.33 E.01443
G1 X-15.314 Y5.931 E.01449
G1 X-15.453 Y5.551 E.01297
G1 X-15.54 Y5.154 E.01302
G1 X-15.581 Y4.617 E.01727
G1 X-15.581 Y-4.618 E.29591
G1 X-15.547 Y-5.104 E.01561
G1 X-15.458 Y-5.532 E.014
G1 X-15.31 Y-5.941 E.01396
G1 X-15.104 Y-6.325 E.01396
G1 X-14.846 Y-6.676 E.01396
G1 X-14.541 Y-6.986 E.01396
G1 X-14.197 Y-7.248 E.01384
G1 X-13.756 Y-7.487 E.01609
G1 X-13.379 Y-7.625 E.01286
G1 X-12.982 Y-7.712 E.01302
G1 X-12.445 Y-7.753 E.01727
G1 X17.853 Y-7.751 E.97085
G1 X18.506 Y-7.713 E.02097
G1 X18.916 Y-7.659 E.01325
G1 X19.439 Y-7.528 E.01726
G1 X19.865 Y-7.35 E.01479
G1 X20.264 Y-7.106 E.01499
G1 X20.574 Y-6.848 E.01294
G1 X20.846 Y-6.553 E.01286
G1 X21.129 Y-6.137 E.01611
G1 X21.303 Y-5.776 E.01286
G1 X21.429 Y-5.39 E.01299
G1 X21.51 Y-4.934 E.01486
G1 X21.53 Y-4.581 E.01133
G1 X21.53 Y4.554 E.29271
G1 X21.49 Y5.088 E.01715
G1 X21.4 Y5.498 E.01345
G1 X21.246 Y5.908 E.01403
G1 X21.045 Y6.277 E.01348
G1 X20.795 Y6.615 E.01346
G1 X20.49 Y6.925 E.01397
G1 X20.146 Y7.187 E.01385
G1 X19.703 Y7.427 E.01613
G1 X19.327 Y7.566 E.01286
G1 X18.958 Y7.652 E.01214
G1 X18.35 Y7.727 E.01963
G1 X17.736 Y7.753 E.01971
G1 X.289 Y7.752 E.55905
G1 X.289 Y7.345 F9000
G1 F2700
G1 X-12.47 Y7.344 E.40884
G1 X-12.883 Y7.314 E.01328
G1 X-13.255 Y7.235 E.01218
G1 X-13.622 Y7.099 E.01256
G1 X-13.951 Y6.92 E.01201
G1 X-14.265 Y6.684 E.01257
G1 X-14.529 Y6.418 E.012
G1 X-14.76 Y6.103 E.01252
G1 X-14.945 Y5.756 E.01259
G1 X-15.063 Y5.429 E.01116
G1 X-15.135 Y5.103 E.01069
G1 X-15.174 Y4.596 E.01627
G1 X-15.174 Y-4.599 E.29467
G1 X-15.144 Y-5.04 E.01414
G1 X-15.067 Y-5.411 E.01217
G1 X-14.94 Y-5.766 E.01209
G1 X-14.763 Y-6.1 E.01208
G1 X-14.541 Y-6.404 E.01208
G1 X-14.277 Y-6.674 E.01208
G1 X-13.982 Y-6.899 E.01189
G1 X-13.579 Y-7.118 E.01471
G1 X-13.257 Y-7.235 E.01099
G1 X-12.931 Y-7.307 E.01069
G1 X-12.424 Y-7.346 E.01627
G1 X17.838 Y-7.344 E.96972
G1 X18.463 Y-7.308 E.02008
G1 X18.833 Y-7.259 E.01195
G1 X19.301 Y-7.143 E.01546
G1 X19.687 Y-6.982 E.0134
G1 X20.033 Y-6.768 E.01303
G1 X20.287 Y-6.558 E.01058
G1 X20.52 Y-6.306 E.01099
G1 X20.779 Y-5.925 E.01475
G1 X20.927 Y-5.616 E.01099
G1 X21.031 Y-5.299 E.01067
G1 X21.104 Y-4.894 E.01319
G1 X21.123 Y-4.566 E.01052
G1 X21.123 Y4.534 E.2916
G1 X21.087 Y5.02 E.01561
G1 X21.01 Y5.374 E.0116
G1 X20.878 Y5.73 E.01218
G1 X20.705 Y6.05 E.01166
G1 X20.49 Y6.343 E.01163
G1 X20.226 Y6.613 E.01211
G1 X19.931 Y6.839 E.01189
G1 X19.527 Y7.059 E.01476
G1 X19.203 Y7.177 E.01105
G1 X18.88 Y7.251 E.01061
G1 X18.311 Y7.321 E.01837
G1 X17.724 Y7.346 E.01882
G1 X.329 Y7.345 E.55741
G1 X.329 Y6.938 F9000
G1 F2700
G1 X-12.474 Y6.939 E.41027
G1 X-13.339 Y6.769 E.02824
G1 X-13.6 Y6.647 E.00923
G1 X-13.843 Y6.493 E.00922
G1 X-14.09 Y6.282 E.01043
G1 X-14.271 Y6.078 E.00873
G1 X-14.506 Y5.694 E.01442
G1 X-14.607 Y5.463 E.00808
G1 X-14.746 Y4.845 E.02031
G1 X-14.767 Y-4.645 E.30408
G1 X-14.669 Y-5.257 E.01986
G1 X-14.551 Y-5.612 E.012
G1 X-14.373 Y-5.94 E.01195
G1 X-14.112 Y-6.26 E.01324
G1 X-13.767 Y-6.537 E.01419
G1 X-13.368 Y-6.75 E.01449
G1 X-13.106 Y-6.834 E.00882
G1 X-12.469 Y-6.939 E.02069
G1 X17.768 Y-6.939 E.96891
G1 X18.415 Y-6.904 E.02077
G1 X18.729 Y-6.864 E.01012
G1 X19.212 Y-6.733 E.01607
G1 X19.716 Y-6.475 E.01812
G1 X19.814 Y-6.408 E.00382
G1 X20.201 Y-6.042 E.01705
G1 X20.391 Y-5.755 E.01103
G1 X20.561 Y-5.382 E.01315
G1 X20.7 Y-4.767 E.02019
G1 X20.716 Y4.587 E.29974
G1 X20.613 Y5.234 E.02099
G1 X20.566 Y5.395 E.00538
G1 X20.393 Y5.762 E.013
G1 X20.147 Y6.104 E.01349
G1 X19.904 Y6.34 E.01086
G1 X19.552 Y6.58 E.01365
G1 X19.277 Y6.713 E.00976
G1 X18.865 Y6.836 E.01381
G1 X18.366 Y6.909 E.01614
G1 X17.875 Y6.936 E.01577
G1 X.369 Y6.938 E.56096
G1 X.369 Y6.531 F9000
G1 F2700
G1 X-12.485 Y6.532 E.4119
G1 X-13.165 Y6.401 E.02219
G1 X-13.385 Y6.301 E.00775
G1 X-13.572 Y6.189 E.007
G1 X-13.833 Y5.967 E.01098
G1 X-13.965 Y5.81 E.00654
G1 X-14.158 Y5.482 E.01222
G1 X-14.235 Y5.298 E.0064
G1 X-14.35 Y4.75 E.01792
G1 X-14.36 Y-4.655 E.30137
G1 X-14.267 Y-5.196 E.01761
G1 X-14.165 Y-5.484 E.00978
G1 X-14.015 Y-5.746 E.00967
G1 X-13.796 Y-6.004 E.01086
G1 X-13.579 Y-6.177 E.00888
G1 X-13.242 Y-6.362 E.01231
G1 X-13.042 Y-6.432 E.0068
G1 X-12.479 Y-6.532 E.01833
G1 X17.771 Y-6.532 E.96933
G1 X18.397 Y-6.498 E.02009
G1 X18.683 Y-6.46 E.00923
G1 X19.016 Y-6.376 E.01099
G1 X19.537 Y-6.109 E.01878
M73 P0 R123
G1 X19.86 Y-5.819 E.01391
G1 X20.017 Y-5.595 E.00876
G1 X20.195 Y-5.202 E.01382
G1 X20.293 Y-4.773 E.01411
G1 X20.309 Y4.598 E.30027
G1 X20.211 Y5.171 E.01865
G1 X20.177 Y5.278 E.0036
G1 X20.023 Y5.592 E.01119
G1 X19.817 Y5.866 E.01097
G1 X19.622 Y6.047 E.00854
G1 X19.322 Y6.244 E.0115
G1 X19.101 Y6.346 E.00781
G1 X18.746 Y6.447 E.0118
G1 X18.308 Y6.506 E.01418
G1 X17.85 Y6.53 E.01467
G1 X.409 Y6.531 E.55889
G1 X.409 Y6.124 F9000
G1 F2700
G1 X-12.497 Y6.125 E.41355
G1 X-12.993 Y6.032 E.01618
G1 X-13.169 Y5.956 E.00614
G1 X-13.371 Y5.835 E.00754
G1 X-13.567 Y5.659 E.00844
G1 X-13.647 Y5.556 E.00418
G1 X-13.808 Y5.274 E.01041
G1 X-13.859 Y5.144 E.00448
G1 X-13.953 Y4.662 E.01573
G1 X-13.953 Y-4.665 E.29886
G1 X-13.865 Y-5.129 E.01514
G1 X-13.782 Y-5.345 E.00739
G1 X-13.663 Y-5.543 E.00742
G1 X-13.487 Y-5.739 E.00844
G1 X-13.384 Y-5.819 E.00418
G1 X-13.102 Y-5.981 E.01041
G1 X-12.971 Y-6.031 E.00448
G1 X-12.49 Y-6.125 E.01573
G1 X17.775 Y-6.125 E.96978
G1 X18.339 Y-6.095 E.01813
G1 X18.637 Y-6.055 E.00961
G1 X18.924 Y-5.979 E.00951
G1 X19.349 Y-5.749 E.0155
G1 X19.534 Y-5.577 E.00807
G1 X19.642 Y-5.436 E.0057
G1 X19.83 Y-5.022 E.01457
G1 X19.896 Y-4.686 E.01098
G1 X19.902 Y4.608 E.29782
G1 X19.809 Y5.103 E.01613
G1 X19.695 Y5.352 E.00876
G1 X19.549 Y5.56 E.00815
G1 X19.338 Y5.755 E.00921
G1 X19.102 Y5.902 E.00891
G1 X18.932 Y5.975 E.00592
G1 X18.634 Y6.055 E.0099
G1 X18.254 Y6.102 E.01226
G1 X17.827 Y6.123 E.0137
G1 X.449 Y6.124 E.55687
G1 X.449 Y5.717 F9000
G1 F2700
G1 X-12.506 Y5.718 E.41514
G1 X-12.826 Y5.661 E.0104
G1 X-13.016 Y5.579 E.00663
G1 X-13.158 Y5.488 E.00542
G1 X-13.29 Y5.361 E.00585
G1 X-13.46 Y5.064 E.01099
G1 X-13.546 Y4.673 E.01281
G1 X-13.546 Y-4.676 E.29961
G1 X-13.466 Y-5.053 E.01233
G1 X-13.407 Y-5.188 E.00471
G1 X-13.316 Y-5.33 E.00542
G1 X-13.189 Y-5.462 E.00585
G1 X-12.892 Y-5.632 E.01099
G1 X-12.501 Y-5.718 E.01281
G1 X17.778 Y-5.718 E.97027
G1 X18.281 Y-5.692 E.01616
G1 X18.591 Y-5.651 E.01001
G1 X18.818 Y-5.586 E.00756
G1 X19.079 Y-5.444 E.00954
G1 X19.204 Y-5.338 E.00522
G1 X19.323 Y-5.182 E.00629
G1 X19.459 Y-4.855 E.01137
