; HEADER_BLOCK_START
; generated by OrcaSlicer 1.9.0 on 2024-02-03 at 22:47:33
; total layer number: 255
; filament_density: 1.24
; filament_diameter: 1.75
; max_z_height: 51.00
; HEADER_BLOCK_END

; THUMBNAIL_BLOCK_START

;
; THUMBNAIL_BLOCK_END

; external perimeters extrusion width = 0.45mm
; perimeters extrusion width = 0.45mm
; infill extrusion width = 0.45mm
; solid infill extrusion width = 0.45mm
; top infill extrusion width = 0.38mm
; first layer extrusion width = 0.45mm

; EXECUTABLE_BLOCK_START
M73 P0 R44
;TYPE:Custom
START_PRINT
G90
G21
M83 ; use relative distances for extrusion
; filament start gcode
SET_PRESSURE_ADVANCE ADVANCE=0.072; Override pressure advance value
M106 S0
;LAYER_CHANGE
;Z:0.2
;HEIGHT:0.2
;BEFORE_LAYER_CHANGE
;0.2
G92 E0

G1 E-3 F1800
;AFTER_LAYER_CHANGE
;0.2
;_SET_FAN_SPEED_CHANGING_LAYER
SET_PRESSURE_ADVANCE ADVANCE=0; Override pressure advance value
SET_VELOCITY_LIMIT ACCEL=800 ACCEL_TO_DECEL=400
SET_VELOCITY_LIMIT SQUARE_CORNER_VELOCITY=5
G1 Z.4 F9000
G1 X25.145 Y-25.135
G1 Z.4
G1 Z.2
G1 E3 F2400
;TYPE:Skirt
;WIDTH:0.45
G1 F3000
G1 X43.021 Y-7.252 E.81025
G1 X43.917 Y-6.095 E.04687
G1 X44.627 Y-4.891 E.04479
G1 X45.249 Y-3.39 E.05209
G1 X45.598 Y-2.036 E.04479
G1 X45.783 Y-.586 E.04685
G1 X45.795 Y34.963 E1.13912
G1 X45.647 Y36.268 E.0421
G1 X45.338 Y37.611 E.04415
G1 X44.767 Y39.108 E.05134
G1 X44.104 Y40.315 E.04415
G1 X43.146 Y41.6 E.05134
G1 X42.178 Y42.58 E.04415
G1 X40.906 Y43.554 E.05134
G1 X39.707 Y44.234 E.04415
G1 X38.217 Y44.824 E.05134
G1 X36.879 Y45.15 E.04415
G1 X35.581 Y45.314 E.04193
G1 X.078 Y45.79 E1.13775
G1 X-35.581 Y45.314 E1.14274
G1 X-36.879 Y45.15 E.04193
G1 X-38.217 Y44.824 E.04415
G1 X-39.707 Y44.234 E.05134
G1 X-40.906 Y43.554 E.04415
G1 X-42.178 Y42.58 E.05134
G1 X-43.146 Y41.6 E.04415
G1 X-44.104 Y40.315 E.05134
G1 X-44.767 Y39.108 E.04415
G1 X-45.338 Y37.611 E.05134
G1 X-45.647 Y36.268 E.04415
G1 X-45.795 Y34.963 E.0421
G1 X-45.783 Y-.586 E1.13912
G1 X-45.598 Y-2.036 E.04685
G1 X-45.249 Y-3.39 E.04479
G1 X-44.627 Y-4.891 E.05209
G1 X-43.917 Y-6.095 E.04479
G1 X-43.021 Y-7.252 E.04687
G1 X-7.306 Y-42.981 E1.61882
G1 X-6.255 Y-43.814 E.04298
G1 X-5.08 Y-44.541 E.04427
G1 X-3.611 Y-45.19 E.05148
G1 X-2.282 Y-45.568 E.04427
G1 X-.691 Y-45.79 E.05148
G1 X.691 Y-45.79 E.04427
G1 X2.282 Y-45.568 E.05148
G1 X3.611 Y-45.19 E.04427
G1 X5.08 Y-44.541 E.05148
G1 X6.255 Y-43.814 E.04427
G1 X7.306 Y-42.981 E.04298
G1 X25.117 Y-25.163 E.80728
G1 X24.829 Y-24.876 F9000
G1 F3000
G1 X42.733 Y-6.964 E.81154
G1 X43.566 Y-5.889 E.04359
G1 X44.277 Y-4.685 E.04479
G1 X44.855 Y-3.288 E.04844
G1 X45.204 Y-1.934 E.04479
G1 X45.376 Y-.586 E.04357
G1 X45.388 Y34.963 E1.13912
G1 X45.25 Y36.177 E.03915
G1 X44.941 Y37.52 E.04415
G1 X44.41 Y38.912 E.04774
G1 X43.747 Y40.119 E.04415
G1 X42.856 Y41.314 E.04775
G1 X41.888 Y42.294 E.04415
G1 X40.705 Y43.2 E.04775
G1 X39.506 Y43.879 E.04415
G1 X38.121 Y44.428 E.04774
G1 X36.782 Y44.754 E.04415
G1 X35.575 Y44.907 E.039
G1 X.072 Y45.383 E1.13775
G1 X-35.575 Y44.907 E1.14239
G1 X-36.782 Y44.754 E.039
G1 X-38.121 Y44.428 E.04415
G1 X-39.506 Y43.879 E.04774
G1 X-40.705 Y43.2 E.04415
G1 X-41.888 Y42.294 E.04775
G1 X-42.856 Y41.314 E.04415
G1 X-43.747 Y40.119 E.04775
G1 X-44.41 Y38.912 E.04415
G1 X-44.941 Y37.52 E.04774
G1 X-45.25 Y36.177 E.04415
G1 X-45.388 Y34.963 E.03915
G1 X-45.376 Y-.586 E1.13912
G1 X-45.204 Y-1.934 E.04357
G1 X-44.855 Y-3.288 E.04479
G1 X-44.277 Y-4.685 E.04844
G1 X-43.566 Y-5.889 E.04479
G1 X-42.733 Y-6.964 E.04359
G1 X-7.018 Y-42.693 E1.61882
G1 X-6.041 Y-43.468 E.03997
G1 X-4.866 Y-44.195 E.04427
G1 X-3.499 Y-44.799 E.04788
G1 X-2.17 Y-45.177 E.04427
G1 X-.691 Y-45.383 E.04787
G1 X.691 Y-45.383 E.04427
G1 X2.17 Y-45.177 E.04787
G1 X3.499 Y-44.799 E.04427
G1 X4.866 Y-44.195 E.04788
G1 X6.041 Y-43.468 E.04427
G1 X7.018 Y-42.693 E.03997
G1 X24.801 Y-24.904 E.806
; printing object tower_with_seam.stl id:110 copy 0
G1 E-2.4 F1800
;WIPE_START
G1 F3000
G1 X25.508 Y-24.197 E-.6
;WIPE_END
G1 Z.6 F9000
G1 X32.356 Y2.636 Z.6
G1 Z.2
G1 E3 F2400
;TYPE:Inner wall
;WIDTH:0.449999
G1 F2700
G1 X31.754 Y1.854 E.03161
G1 X31.377 Y.943 E.03161
G1 X31.25 Y-.035 E.03161
G1 X31.383 Y-1.013 E.03161
G1 X31.936 Y-2.383 E.04736
G1 X32.056 Y-2.454 E.00445
G1 X33.187 Y-3.305 E.04535
G1 X34.166 Y-3.679 E.03358
G1 X35.21 Y-3.767 E.03358
G1 X36.238 Y-3.562 E.03358
G1 X37.169 Y-3.081 E.03358
G1 X37.931 Y-2.361 E.03358
G1 X38.463 Y-1.458 E.03358
G1 X38.725 Y-.444 E.03358
G1 X38.71 Y.08 E.01679
G1 X38.696 Y.604 E.01679
G1 X38.377 Y1.602 E.03358
G1 X37.795 Y2.474 E.03358
G1 X36.994 Y3.15 E.03358
G1 X36.038 Y3.578 E.03358
G1 X34.502 Y3.811 E.04978
G1 X34.345 Y3.723 E.00575
G1 X33.141 Y3.233 E.04165
G1 X32.388 Y2.66 E.03033
G1 X32.067 Y2.927 F9000
G1 F2700
G1 X31.399 Y2.06 E.03507
G1 X30.98 Y1.049 E.03507
G1 X30.839 Y-.037 E.03507
G1 X30.987 Y-1.121 E.03507
G1 X31.555 Y-2.525 E.04854
G1 X31.5 Y-2.71 E.00616
G1 X31.692 Y-2.709 E.00616
G1 X31.811 Y-2.779 E.00442
G1 X32.988 Y-3.665 E.0472
G1 X34.074 Y-4.079 E.03727
G1 X35.233 Y-4.177 E.03727
G1 X36.374 Y-3.95 E.03727
G1 X37.407 Y-3.416 E.03727
G1 X38.252 Y-2.617 E.03727
G1 X38.843 Y-1.616 E.03727
G1 X39.134 Y-.49 E.03727
G1 X39.117 Y.092 E.01863
G1 X39.101 Y.673 E.01863
G1 X38.748 Y1.781 E.03727
G1 X38.102 Y2.748 E.03727
G1 X37.213 Y3.498 E.03727
G1 X36.152 Y3.973 E.03727
G1 X34.56 Y4.214 E.05159
G1 X34.422 Y4.362 E.00649
G1 X34.333 Y4.181 E.00649
G1 X34.192 Y4.1 E.0052
G1 X32.938 Y3.59 E.04338
G1 X32.099 Y2.951 E.03379
G1 E-2.33333 F1800
;WIPE_START
G1 F2700
G1 X31.481 Y2.165 E-.66667
;WIPE_END
G1 Z.6 F9000
G1 X31.16 Y34.076 Z.6
G1 Z.2
G1 E3 F2400
G1 F2700
G1 X31.244 Y33.922 E.00564
G1 X31.728 Y32.694 E.04229
G1 X32.332 Y31.892 E.03217
G1 X33.126 Y31.278 E.03217
G1 X34.501 Y30.692 E.0479
G1 X34.638 Y30.727 E.00454
G1 X36.023 Y30.919 E.0448
G1 X36.969 Y31.336 E.0331
G1 X37.765 Y31.994 E.0331
G1 X38.351 Y32.845 E.0331
G1 X38.682 Y33.823 E.0331
G1 X38.734 Y34.855 E.0331
G1 X38.503 Y35.862 E.0331
G1 X38.005 Y36.767 E.0331
G1 X37.28 Y37.502 E.0331
G1 X36.381 Y38.011 E.0331
G1 X35.377 Y38.256 E.0331
G1 X34.345 Y38.217 E.0331
G1 X33.362 Y37.898 E.0331
G1 X32.504 Y37.323 E.0331
G1 X31.835 Y36.536 E.0331
G1 X31.407 Y35.596 E.0331
G1 X31.166 Y34.116 E.04804
G1 X30.618 Y34.006 F9000
G1 F2700
G1 X30.789 Y33.91 E.00626
G1 X30.865 Y33.772 E.00505
G1 X31.37 Y32.493 E.04406
G1 X32.039 Y31.603 E.03569
G1 X32.921 Y30.922 E.03569
G1 X34.33 Y30.323 E.04907
G1 X34.424 Y30.151 E.00626
G1 X34.562 Y30.29 E.00626
G1 X34.694 Y30.324 E.00439
G1 X36.135 Y30.524 E.04662
G1 X37.185 Y30.986 E.03673
G1 X38.068 Y31.717 E.03673
G1 X38.718 Y32.661 E.03673
G1 X39.086 Y33.746 E.03673
G1 X39.144 Y34.891 E.03673
G1 X38.887 Y36.008 E.03673
G1 X38.335 Y37.013 E.03673
G1 X37.529 Y37.829 E.03673
G1 X36.532 Y38.394 E.03673
G1 X35.418 Y38.665 E.03673
G1 X34.273 Y38.622 E.03673
G1 X33.182 Y38.268 E.03673
G1 X32.23 Y37.63 E.03673
G1 X31.488 Y36.756 E.03673
G1 X31.013 Y35.713 E.03673
G1 X30.758 Y34.142 E.05099
G1 X30.647 Y34.034 E.00498
G1 E-2.33333 F1800
;WIPE_START
G1 F2700
G1 X30.789 Y33.91 E-.12537
G1 X30.865 Y33.772 E-.10512
G1 X31.105 Y33.164 E-.43617
;WIPE_END
G1 Z.6 F9000
G1 X3.826 Y34.427 Z.6
G1 Z.2
G1 E3 F2400
G1 F2700
G1 X3.792 Y34.572 E.00476
G1 X3.632 Y35.908 E.04311
G1 X3.264 Y36.823 E.03162
G1 X2.669 Y37.611 E.03162
G1 X1.889 Y38.216 E.03162
G1 X.978 Y38.596 E.03162
G1 X0 Y38.726 E.03162
G1 X-.978 Y38.596 E.03162
G1 X-1.889 Y38.216 E.03162
G1 X-2.669 Y37.611 E.03162
G1 X-3.264 Y36.823 E.03162
G1 X-3.632 Y35.908 E.03162
G1 X-3.826 Y34.427 E.04784
G1 X-3.738 Y34.272 E.00574
G1 X-3.239 Y33.086 E.04122
G1 X-2.643 Y32.315 E.03123
G1 X-1.868 Y31.724 E.03123
G1 X-.966 Y31.352 E.03123
G1 X0 Y31.226 E.03123
G1 X.966 Y31.352 E.03123
G1 X1.868 Y31.724 E.03123
G1 X2.643 Y32.315 E.03123
G1 X3.239 Y33.086 E.03123
G1 X3.81 Y34.391 E.04564
G1 X4.369 Y34.343 F9000
G1 F2700
G1 X4.227 Y34.489 E.00652
G1 X4.196 Y34.62 E.00432
G1 X4.03 Y36.01 E.04484
G1 X3.621 Y37.025 E.03509
G1 X2.961 Y37.899 E.03509
G1 X2.096 Y38.57 E.03509
G1 X1.085 Y38.993 E.03509
G1 X0 Y39.137 E.03509
G1 X-1.085 Y38.993 E.03509
G1 X-2.096 Y38.57 E.03509
G1 X-2.961 Y37.899 E.03509
G1 X-3.621 Y37.025 E.03509
G1 X-4.03 Y36.01 E.03509
G1 X-4.227 Y34.489 E.04914
G1 X-4.369 Y34.343 E.00652
G1 X-4.189 Y34.247 E.00652
G1 X-4.113 Y34.114 E.00491
G1 X-3.594 Y32.879 E.04293
G1 X-2.932 Y32.024 E.03465
G1 X-2.072 Y31.368 E.03465
G1 X-1.072 Y30.956 E.03465
G1 X0 Y30.815 E.03465
G1 X1.072 Y30.956 E.03465
G1 X2.072 Y31.368 E.03465
G1 X2.932 Y32.024 E.03465
G1 X3.594 Y32.879 E.03465
G1 X4.189 Y34.247 E.0478
G1 X4.333 Y34.324 E.00524
G1 E-2.33333 F1800
;WIPE_START
G1 F2700
G1 X4.227 Y34.489 E-.13087
G1 X4.196 Y34.62 E-.08991
G1 X4.117 Y35.284 E-.44589
;WIPE_END
G1 Z.6 F9000
G1 X-31.16 Y34.076 Z.6
G1 Z.2
G1 E3 F2400
G1 F2700
G1 X-31.196 Y34.213 E.00454
G1 X-31.407 Y35.596 E.0448
G1 X-31.835 Y36.536 E.0331
G1 X-32.504 Y37.323 E.0331
G1 X-33.362 Y37.898 E.0331
G1 X-34.345 Y38.217 E.0331
G1 X-35.377 Y38.256 E.0331
G1 X-36.381 Y38.011 E.0331
G1 X-37.28 Y37.502 E.0331
G1 X-38.005 Y36.767 E.0331
G1 X-38.503 Y35.862 E.0331
G1 X-38.734 Y34.855 E.0331
G1 X-38.682 Y33.823 E.0331
G1 X-38.351 Y32.845 E.0331
G1 X-37.765 Y31.994 E.0331
G1 X-36.969 Y31.336 E.0331
G1 X-36.023 Y30.919 E.0331
G1 X-34.501 Y30.692 E.04932
G1 X-34.347 Y30.778 E.00564
G1 X-33.126 Y31.278 E.04229
G1 X-32.332 Y31.892 E.03217
G1 X-31.728 Y32.694 E.03217
G1 X-31.175 Y34.039 E.04662
G1 X-30.618 Y34.006 F9000
G1 F2700
G1 X-30.758 Y34.142 E.00626
G1 X-30.794 Y34.274 E.00439
G1 X-31.013 Y35.713 E.04662
G1 X-31.488 Y36.756 E.03673
G1 X-32.23 Y37.63 E.03673
G1 X-33.182 Y38.268 E.03673
G1 X-34.273 Y38.622 E.03673
G1 X-35.418 Y38.665 E.03673
G1 X-36.532 Y38.394 E.03673
G1 X-37.529 Y37.829 E.03673
G1 X-38.335 Y37.013 E.03673
G1 X-38.887 Y36.008 E.03673
G1 X-39.144 Y34.891 E.03673
G1 X-39.086 Y33.746 E.03673
G1 X-38.718 Y32.661 E.03673
G1 X-38.068 Y31.717 E.03673
G1 X-37.185 Y30.986 E.03673
G1 X-36.135 Y30.524 E.03673
G1 X-34.562 Y30.29 E.05099
G1 X-34.424 Y30.151 E.00626
G1 X-34.33 Y30.323 E.00626
G1 X-34.193 Y30.401 E.00505
G1 X-32.921 Y30.922 E.04406
G1 X-32.039 Y31.603 E.03569
G1 X-31.37 Y32.493 E.03569
G1 X-30.789 Y33.91 E.04907
G1 X-30.653 Y33.986 E.00498
G1 E-2.33333 F1800
;WIPE_START
G1 F2700
G1 X-30.758 Y34.142 E-.12537
G1 X-30.794 Y34.274 E-.09139
G1 X-30.896 Y34.942 E-.44991
;WIPE_END
G1 Z.6 F9000
G1 X-32.356 Y2.636 Z.6
G1 Z.2
G1 E3 F2400
G1 F2700
G1 X-33.141 Y3.233 E.03161
G1 X-34.502 Y3.811 E.04736
G1 X-34.636 Y3.776 E.00445
G1 X-36.038 Y3.578 E.04535
G1 X-36.994 Y3.15 E.03358
G1 X-37.795 Y2.474 E.03358
G1 X-38.377 Y1.602 E.03358
G1 X-38.696 Y.604 E.03358
G1 X-38.725 Y-.444 E.03358
G1 X-38.463 Y-1.458 E.03358
G1 X-37.931 Y-2.361 E.03358
G1 X-37.169 Y-3.081 E.03358
G1 X-36.238 Y-3.562 E.03358
G1 X-35.21 Y-3.767 E.03358
G1 X-34.166 Y-3.679 E.03358
G1 X-33.187 Y-3.305 E.03358
G1 X-31.936 Y-2.383 E.04978
G1 X-31.887 Y-2.211 E.00575
G1 X-31.383 Y-1.013 E.04165
G1 X-31.25 Y-.035 E.03161
G1 X-31.377 Y.943 E.03161
G1 X-31.754 Y1.854 E.03161
G1 X-32.332 Y2.604 E.03033
G1 X-32.067 Y2.927 F9000
G1 F2700
G1 X-32.938 Y3.59 E.03507
G1 X-34.333 Y4.181 E.04854
G1 X-34.422 Y4.362 E.00649
G1 X-34.56 Y4.214 E.00649
G1 X-34.693 Y4.179 E.00442
G1 X-36.152 Y3.973 E.0472
G1 X-37.213 Y3.498 E.03727
G1 X-38.102 Y2.748 E.03727
G1 X-38.748 Y1.781 E.03727
G1 X-39.101 Y.673 E.03727
G1 X-39.134 Y-.49 E.03727
G1 X-38.843 Y-1.616 E.03727
G1 X-38.252 Y-2.617 E.03727
G1 X-37.407 Y-3.416 E.03727
G1 X-36.374 Y-3.95 E.03727
G1 X-35.233 Y-4.177 E.03727
G1 X-34.074 Y-4.079 E.03727
G1 X-32.988 Y-3.665 E.03727
G1 X-31.692 Y-2.709 E.05159
G1 X-31.5 Y-2.71 E.00616
G1 X-31.555 Y-2.525 E.00616
G1 X-31.512 Y-2.369 E.0052
G1 X-30.987 Y-1.121 E.04338
G1 X-30.839 Y-.037 E.03507
G1 X-30.98 Y1.049 E.03507
G1 X-31.399 Y2.06 E.03507
G1 X-32.042 Y2.895 E.03379
G1 E-2.33333 F1800
;WIPE_START
G1 F2700
G1 X-32.833 Y3.508 E-.66667
;WIPE_END
G1 Z.6 F9000
G1 X0 Y-31.274 Z.6
G1 Z.2
G1 E3 F2400
M73 P1 R44
G1 F2700
G1 X-.983 Y-31.405 E.03179
G1 X-2.359 Y-31.96 E.04753
G1 X-2.431 Y-32.081 E.00452
G1 X-3.275 Y-33.2 E.04491
G1 X-3.649 Y-34.166 E.03319
G1 X-3.745 Y-35.197 E.03319
G1 X-3.555 Y-36.215 E.03319
G1 X-3.093 Y-37.143 E.03319
G1 X-2.395 Y-37.908 E.03319
G1 X-1.514 Y-38.453 E.03319
G1 X-.518 Y-38.737 E.03319
G1 X.518 Y-38.737 E.03319
G1 X1.514 Y-38.453 E.03319
G1 X2.395 Y-37.908 E.03319
G1 X3.093 Y-37.143 E.03319
G1 X3.555 Y-36.215 E.03319
G1 X3.745 Y-35.197 E.03319
G1 X3.649 Y-34.166 E.03319
G1 X3.275 Y-33.2 E.03319
G1 X2.359 Y-31.96 E.0494
G1 X2.187 Y-31.912 E.00571
G1 X.983 Y-31.405 E.04186
G1 X.04 Y-31.279 E.03051
G1 X0 Y-30.863 F9000
G1 F2700
G1 X-1.091 Y-31.009 E.03527
G1 X-2.499 Y-31.578 E.04867
G1 X-2.694 Y-31.513 E.00657
G1 X-2.685 Y-31.718 E.00657
G1 X-2.755 Y-31.836 E.0044
G1 X-3.634 Y-33 E.04673
G1 X-4.049 Y-34.072 E.03683
G1 X-4.155 Y-35.216 E.03683
G1 X-3.944 Y-36.346 E.03683
G1 X-3.432 Y-37.375 E.03683
G1 X-2.658 Y-38.224 E.03683
G1 X-1.68 Y-38.829 E.03683
G1 X-.575 Y-39.144 E.03683
G1 X.575 Y-39.144 E.03683
G1 X1.68 Y-38.829 E.03683
G1 X2.658 Y-38.224 E.03683
G1 X3.432 Y-37.375 E.03683
G1 X3.944 Y-36.346 E.03683
G1 X4.155 Y-35.216 E.03683
G1 X4.049 Y-34.072 E.03683
G1 X3.634 Y-33 E.03683
G1 X2.685 Y-31.718 E.0511
G1 X2.694 Y-31.513 E.00657
G1 X2.499 Y-31.578 E.00657
G1 X2.345 Y-31.536 E.00511
G1 X1.091 Y-31.009 E.0436
G1 X.04 Y-30.869 E.03399
G1 E-2.33333 F1800
;WIPE_START
G1 F2700
G1 X-.953 Y-30.992 E-.66667
;WIPE_END
G1 Z.6 F9000
G1 X4.662 Y34.088 Z.6
G1 Z.2
G1 E3 F2400
;TYPE:Outer wall
;WIDTH:0.465615
G1 F2700
G1 X4.488 Y33.956 E.00727
;WIDTH:0.449999
G1 X3.948 Y32.672 E.04464
G1 X3.221 Y31.732 E.03807
G1 X2.276 Y31.012 E.03807
G1 X1.178 Y30.559 E.03807
G1 X0 Y30.405 E.03807
G1 X-1.178 Y30.559 E.03807
G1 X-2.276 Y31.012 E.03807
G1 X-3.221 Y31.732 E.03807
G1 X-3.948 Y32.672 E.03807
G1 X-4.488 Y33.956 E.04464
;WIDTH:0.465613
G1 X-4.662 Y34.088 E.00727
G1 X-4.795 Y34.08 E.00442
;WIDTH:0.451459
G1 X-30.182 Y33.754 E.8165
;WIDTH:0.465658
G1 X-30.316 Y33.758 E.00444
G1 X-30.486 Y33.623 E.00726
;WIDTH:0.449999
G1 X-31.012 Y32.293 E.04582
G1 X-31.747 Y31.315 E.03922
G1 X-32.716 Y30.567 E.03922
G1 X-34.039 Y30.024 E.04582
;WIDTH:0.465657
G1 X-34.172 Y29.852 E.00726
G1 X-34.166 Y29.719 E.00444
;WIDTH:0.45146
G1 X-34.166 Y4.784 E.80189
;WIDTH:0.459969
G1 X-34.17 Y4.666 E.00387
G1 X-34.038 Y4.477 E.00755
;WIDTH:0.449999
G1 X-32.734 Y3.946 E.04511
G1 X-31.777 Y3.218 E.03853
G1 X-31.043 Y2.266 E.03853
G1 X-30.583 Y1.155 E.03853
G1 X-30.429 Y-.038 E.03853
G1 X-30.591 Y-1.229 E.03853
G1 X-31.137 Y-2.527 E.04511
;WIDTH:0.465714
G1 X-31.11 Y-2.744 E.00728
G1 X-31.011 Y-2.834 E.00446
;WIDTH:0.45146
G1 X-2.809 Y-31.035 E1.28258
;WIDTH:0.459905
G1 X-2.729 Y-31.121 E.00386
G1 X-2.503 Y-31.161 E.00754
;WIDTH:0.449999
G1 X-1.199 Y-30.613 E.04534
G1 X0 Y-30.453 E.03875
G1 X1.199 Y-30.613 E.03875
G1 X2.503 Y-31.161 E.04534
;WIDTH:0.459905
G1 X2.729 Y-31.121 E.00754
G1 X2.809 Y-31.035 E.00386
;WIDTH:0.45146
G1 X31.011 Y-2.834 E1.28258
;WIDTH:0.465714
G1 X31.11 Y-2.744 E.00446
G1 X31.137 Y-2.527 E.00728
;WIDTH:0.449999
G1 X30.591 Y-1.229 E.04511
G1 X30.429 Y-.038 E.03853
G1 X30.583 Y1.155 E.03853
G1 X31.043 Y2.266 E.03853
G1 X31.777 Y3.218 E.03853
G1 X32.734 Y3.946 E.03853
G1 X34.038 Y4.477 E.04511
;WIDTH:0.459968
G1 X34.17 Y4.666 E.00755
G1 X34.166 Y4.784 E.00387
;WIDTH:0.45146
G1 X34.166 Y29.719 E.80189
;WIDTH:0.465657
M73 P1 R43
G1 X34.172 Y29.852 E.00444
G1 X34.039 Y30.024 E.00726
;WIDTH:0.449999
G1 X32.716 Y30.567 E.04582
G1 X31.747 Y31.315 E.03922
G1 X31.012 Y32.293 E.03922
G1 X30.486 Y33.623 E.04582
;WIDTH:0.465656
G1 X30.316 Y33.758 E.00726
G1 X30.182 Y33.754 E.00444
;WIDTH:0.451459
G1 X4.795 Y34.08 E.8165
;WIDTH:0.465615
G1 X4.702 Y34.086 E.00309
G1 E-2.33333 F1800
;WIPE_START
G1 F2700
G1 X4.488 Y33.956 E-.16686
G1 X4.198 Y33.265 E-.49981
;WIPE_END
G1 Z.6 F9000
G1 X0 Y39.547 Z.6
G1 Z.2
G1 E3 F2400
;WIDTH:0.449999
G1 F2700
G1 X-1.193 Y39.389 E.03855
G1 X-2.303 Y38.925 E.03855
G1 X-3.253 Y38.188 E.03855
G1 X-3.978 Y37.228 E.03855
G1 X-4.428 Y36.112 E.03855
G1 X-4.601 Y34.669 E.04658
;WIDTH:0.465613
G1 X-4.726 Y34.496 E.00709
G1 X-4.8 Y34.489 E.00249
;WIDTH:0.451459
