; generated by SuperSlicer 2.4 on 2023-04-02 at 03:05:29 UTC


;
;

;
;
; 

; external perimeters extrusion width = 0.42mm
; perimeters extrusion width = 0.46mm
; infill extrusion width = 0.44mm
; solid infill extrusion width = 0.46mm
; top infill extrusion width = 0.44mm
; first layer extrusion width = 0.56mm

; external perimeters extrusion width = 0.42mm
; perimeters extrusion width = 0.46mm
; infill extrusion width = 0.44mm
; solid infill extrusion width = 0.46mm
; top infill extrusion width = 0.44mm
; first layer extrusion width = 0.56mm

; external perimeters extrusion width = 0.42mm
; perimeters extrusion width = 0.46mm
; infill extrusion width = 0.44mm
; solid infill extrusion width = 0.46mm
; top infill extrusion width = 0.44mm
; first layer extrusion width = 0.56mm

; object:{"name":"frameTEST","id":"frameTEST.obj id:0 copy 0","object_center":[115.500000,132.396066,0.000000],"boundingbox_center":[115.500000,132.396066,3.000000],"boundingbox_size":[62.000000,14.000000,6.000000]}
; object:{"name":"boilerplateTEST","id":"boilerplateTEST.obj id:1 copy 0","object_center":[115.500001,92.596066,0.000000],"boundingbox_center":[115.500001,92.596066,3.050000],"boundingbox_size":[6.000000,53.599998,6.100000]}
; object:{"name":"backplateInsertTEST","id":"backplateInsertTEST.obj id:2 copy 0","object_center":[115.500001,155.300001,0.000000],"boundingbox_center":[115.500001,155.300001,2.000000],"boundingbox_size":[20.155369,19.807869,4.000000]}
; plater:{"center":[115.500000,115.500001,0.000000],"boundingbox_center":[115.500000,115.500001,3.050000],"boundingbox_size":[62.000000,99.407869,6.100000]}

;TYPE:Custom
START_PRINT
M107
G21 ; set units to millimeters
G90 ; use absolute coordinates
M82 ; use absolute distances for extrusion
G92 E0
; Filament gcode
;_TOOLCHANGE 0
M104 S210 ; set temperature
M109 S210 ; set temperature and wait for it to be reached
M190 S60 ; set bed temperature and wait for it to be reached
M107
;LAYER_CHANGE
;Z:0.2
;HEIGHT:0.2
;BEFORE_LAYER_CHANGE
;0.2


G1 E-5 F3600
G1 Z0.2 F9000
;AFTER_LAYER_CHANGE
;0.2
G92 E0
M204 S500
G1 X109.587 Y64.428
G1 E5 F2400
;TYPE:Skirt
;WIDTH:0.48
G1 F1200
G1 X81.587 Y124.028 E7.39319
G1 X81.281 Y125.396 E7.44415
G1 X81.281 Y138.396 E7.91662
G1 X81.37 Y139.209 E7.94632
G1 X81.823 Y140.445 E7.99418
G1 X82.166 Y140.98 E8.01728
G1 X102.898 Y167.2 E9.23208
G1 X103.88 Y168.029 E9.27878
G1 X105.422 Y168.422 E9.33664
G1 X125.578 Y168.422 E10.06915
G1 X126.8 Y168.181 E10.11445
G1 X128.078 Y167.231 E10.17231
G1 X149 Y141.423 E11.37976
G1 X149.719 Y139.396 E11.45791
G1 X149.719 Y125.396 E11.96672
G1 X149.413 Y124.028 E12.01768
G1 X121.413 Y64.428 E14.41087
G1 X120.043 Y62.971 E14.48355
G1 X118.5 Y62.578 E14.54141
G1 X112.5 Y62.578 E14.75947
G1 X110.599 Y63.199 E14.83214
G1 X109.625 Y64.381 E14.88782
G92 E0
G1 E-3.5 F3600
;WIPE_START
G1 F7200
G1 X108.349 Y67.096 E-4.925
;WIPE_END
G1 E-5 F3600
; printing object frameTEST.obj id:0 copy 0
; acceleration to travel
M204 S1500
G1 X139.587 Y130.72 F9000
; decel to extrusion
M204 S500
G1 X143.403 Y138.493
; end travel
G1 E0 F2400
;TYPE:Internal perimeter
;WIDTH:0.564
G1 F1200
G1 X143.403 Y131.993 E0.28163
G1 X87.597 Y131.993 E2.6996
G1 X87.597 Y138.486 E2.98093
G1 X85.403 Y138.481 E3.07598
G1 X85.403 Y126.299 E3.60379
G1 X145.597 Y126.299 E6.21187
G1 X145.597 Y138.493 E6.7402
G1 X143.463 Y138.493 E6.83266
G1 X142.882 Y137.778 F9000
;TYPE:External perimeter
G1 F1200
G1 X142.882 Y132.514 E7.06073
G1 X88.118 Y132.514 E9.43355
G1 X88.118 Y137.778 E9.66162
G1 X90.118 Y137.778 E9.74828
G1 X90.118 Y139.013 E9.80179
G1 X85.405 Y139.002 E10.00602
G1 X85.222 Y138.942 E10.01435
G1 X85.011 Y138.77 E10.02615
G1 X84.917 Y138.586 E10.03513
G1 X84.882 Y138.366 E10.04476
G1 X84.882 Y125.778 E10.59017
G1 X146.118 Y125.778 E13.2434
G1 X146.118 Y139.014 E13.81689
G1 X140.882 Y139.014 E14.04375
G1 X140.882 Y137.778 E14.0973
G1 X142.822 Y137.778 E14.18136
;WIPE_START
G1 X143.282 Y137.778 F9000
;WIPE_END
G1 X143.163 Y138.396
;TYPE:Gap fill
;WIDTH:0.798449
G1 F1200
G1 X141.5 Y138.396 E14.28582
G1 X141.311 Y138.396 E14.29769
G1 X141.122 Y138.396 E14.30956
G92 E0
G1 E-3.5 F3600
;WIPE_START
G1 F7200
G1 X141.311 Y138.396 E-3.58972
G1 X141.5 Y138.396 E-3.67944
G1 X143.163 Y138.396 E-4.46928
;WIPE_END
G1 E-5 F3600
; acceleration to travel
M204 S1500
G1 X144.254 Y127.755 F9000
; decel to extrusion
M204 S500
G1 X144.387 Y126.455
; end travel
G1 E0 F2400
;TYPE:Solid infill
;WIDTH:0.556536
G1 F1200
G1 X145.217 Y127.285 E0.05014
G1 X145.217 Y128.022 E0.08165
G1 X143.874 Y126.68 E0.1628
G1 X143.138 Y126.68 E0.1943
G1 X145.217 Y128.759 E0.32001
G1 X145.217 Y129.495 E0.35152
G1 X142.401 Y126.68 E0.52178
G1 X141.664 Y126.68 E0.55329
G1 X145.217 Y130.232 E0.76811
G1 X145.217 Y130.969 E0.79962
G1 X140.927 Y126.68 E1.059
G1 X140.19 Y126.68 E1.0905
G1 X145.217 Y131.706 E1.39444
G1 X145.217 Y132.443 E1.42594
G1 X139.453 Y126.68 E1.77444
G1 X138.716 Y126.68 E1.80594
G1 X145.217 Y133.18 E2.19899
G1 X145.217 Y133.917 E2.2305
G1 X143.783 Y132.484 E2.31715
G1 X143.783 Y133.221 E2.34866
G1 X145.217 Y134.654 E2.43531
G1 X145.217 Y135.391 E2.46682
G1 X143.783 Y133.958 E2.55347
G1 X143.783 Y134.695 E2.58497
G1 X145.217 Y136.128 E2.67163
G1 X145.217 Y136.865 E2.70313
G1 X143.783 Y135.432 E2.78978
G1 X143.783 Y136.168 E2.82129
G1 X145.217 Y137.602 E2.90794
G1 X145.217 Y138.113 E2.92979
G1 X144.991 Y138.113 E2.93945
G1 X143.783 Y136.905 E3.01244
G1 X143.783 Y137.642 E3.04395
G1 X144.478 Y138.337 E3.08594
G92 E0
G1 E-3.5 F3600
;WIPE_START
G1 F7200
G1 X143.783 Y137.642 E-3.96646
G1 X143.783 Y136.905 E-4.3165
G1 X144.689 Y137.811 E-4.925
;WIPE_END
G1 E-5 F3600
; acceleration to travel
M204 S1500
G1 X143.305 Y132.487 F9000
; decel to extrusion
M204 S500
G1 X143.136 Y131.837
; end travel
G1 E0 F2400
G1 F1200
G1 X137.979 Y126.68 E0.31182
G1 X137.242 Y126.68 E0.34333
G1 X142.175 Y131.613 E0.64161
G1 X141.438 Y131.613 E0.67311
G1 X136.505 Y126.68 E0.97139
G1 X135.768 Y126.68 E1.00289
G1 X140.701 Y131.613 E1.30117
G1 X139.965 Y131.613 E1.33268
G1 X135.031 Y126.68 E1.63095
G1 X134.295 Y126.68 E1.66246
G1 X139.228 Y131.613 E1.96073
G1 X138.491 Y131.613 E1.99224
G1 X133.558 Y126.68 E2.29052
G1 X132.821 Y126.68 E2.32202
G1 X137.754 Y131.613 E2.6203
G1 X137.017 Y131.613 E2.65181
G1 X132.084 Y126.68 E2.95008
G1 X131.347 Y126.68 E2.98159
G1 X136.28 Y131.613 E3.27986
G1 X135.543 Y131.613 E3.31137
G1 X130.61 Y126.68 E3.60965
G1 X129.873 Y126.68 E3.64115
G1 X134.806 Y131.613 E3.93943
G1 X134.069 Y131.613 E3.97093
G1 X129.136 Y126.68 E4.26921
G1 X128.399 Y126.68 E4.30072
G1 X133.332 Y131.613 E4.59899
G1 X132.595 Y131.613 E4.6305
G1 X127.662 Y126.68 E4.92877
G1 X126.925 Y126.68 E4.96028
G1 X131.858 Y131.613 E5.25856
G1 X131.122 Y131.613 E5.29006
G1 X126.188 Y126.68 E5.58834
G1 X125.452 Y126.68 E5.61985
G1 X130.385 Y131.613 E5.91812
G1 X129.648 Y131.613 E5.94963
G1 X124.715 Y126.68 E6.2479
G1 X123.978 Y126.68 E6.27941
G1 X128.911 Y131.613 E6.57769
G1 X128.174 Y131.613 E6.60919
G1 X123.241 Y126.68 E6.90747
G1 X122.504 Y126.68 E6.93897
G1 X127.437 Y131.613 E7.23725
G1 X126.7 Y131.613 E7.26876
G1 X121.767 Y126.68 E7.56703
G1 X121.03 Y126.68 E7.59854
G1 X125.963 Y131.613 E7.89681
G1 X125.226 Y131.613 E7.92832
G1 X120.293 Y126.68 E8.2266
G1 X119.556 Y126.68 E8.2581
G1 X124.489 Y131.613 E8.55638
G1 X123.752 Y131.613 E8.58789
G1 X118.819 Y126.68 E8.88616
G1 X118.082 Y126.68 E8.91767
G1 X123.015 Y131.613 E9.21594
G1 X122.279 Y131.613 E9.24745
G1 X117.345 Y126.68 E9.54573
G1 X116.608 Y126.68 E9.57723
G1 X121.542 Y131.613 E9.87551
G1 X120.805 Y131.613 E9.90701
G1 X115.872 Y126.68 E10.20529
G1 X115.135 Y126.68 E10.2368
G1 X120.068 Y131.613 E10.53507
G1 X119.331 Y131.613 E10.56658
G1 X114.398 Y126.68 E10.86485
G1 X113.661 Y126.68 E10.89636
G1 X118.594 Y131.613 E11.19464
G1 X117.857 Y131.613 E11.22614
G1 X112.924 Y126.68 E11.52442
G1 X112.187 Y126.68 E11.55593
G1 X117.12 Y131.613 E11.8542
G1 X116.383 Y131.613 E11.88571
G1 X111.45 Y126.68 E12.18398
G1 X110.713 Y126.68 E12.21549
G1 X115.646 Y131.613 E12.51377
G1 X114.909 Y131.613 E12.54527
G1 X109.976 Y126.68 E12.84355
G1 X109.239 Y126.68 E12.87505
G1 X114.172 Y131.613 E13.17333
G1 X113.436 Y131.613 E13.20484
G1 X108.502 Y126.68 E13.50311
G1 X107.765 Y126.68 E13.53462
G1 X112.699 Y131.613 E13.83289
G1 X111.962 Y131.613 E13.8644
G1 X107.029 Y126.68 E14.16268
G1 X106.292 Y126.68 E14.19418
G1 X111.225 Y131.613 E14.49246
G1 X110.488 Y131.613 E14.52397
G1 X105.555 Y126.68 E14.82224
G1 X104.818 Y126.68 E14.85375
G1 X109.751 Y131.613 E15.15202
G1 X109.014 Y131.613 E15.18353
G1 X104.081 Y126.68 E15.48181
G1 X103.344 Y126.68 E15.51331
G1 X108.277 Y131.613 E15.81159
G1 X107.54 Y131.613 E15.84309
G1 X102.607 Y126.68 E16.14137
G1 X101.87 Y126.68 E16.17288
G1 X106.803 Y131.613 E16.47115
G1 X106.066 Y131.613 E16.50266
G1 X101.133 Y126.68 E16.80093
G1 X100.396 Y126.68 E16.83244
G1 X105.329 Y131.613 E17.13072
G1 X104.593 Y131.613 E17.16222
G1 X99.659 Y126.68 E17.4605
G1 X98.922 Y126.68 E17.49201
G1 X103.856 Y131.613 E17.79028
G1 X103.119 Y131.613 E17.82179
G1 X98.186 Y126.68 E18.12006
G1 X97.449 Y126.68 E18.15157
G1 X102.382 Y131.613 E18.44985
G1 X101.645 Y131.613 E18.48135
G1 X96.712 Y126.68 E18.77963
G1 X95.975 Y126.68 E18.81114
G1 X100.908 Y131.613 E19.10941
G1 X100.171 Y131.613 E19.14092
G1 X95.238 Y126.68 E19.43919
G1 X94.501 Y126.68 E19.4707
G1 X99.434 Y131.613 E19.76898
G1 X98.697 Y131.613 E19.80048
G1 X93.764 Y126.68 E20.09876
G1 X93.027 Y126.68 E20.13026
G1 X97.96 Y131.613 E20.42854
G1 X97.223 Y131.613 E20.46005
G1 X92.29 Y126.68 E20.75832
G1 X91.553 Y126.68 E20.78983
G1 X96.486 Y131.613 E21.0881
G1 X95.75 Y131.613 E21.11961
G1 X90.816 Y126.68 E21.41789
G1 X90.079 Y126.68 E21.44939
G1 X95.013 Y131.613 E21.74767
G1 X94.276 Y131.613 E21.77918
G1 X89.343 Y126.68 E22.07745
G1 X88.606 Y126.68 E22.10896
G1 X93.539 Y131.613 E22.40723
G1 X92.802 Y131.613 E22.43874
G1 X87.869 Y126.68 E22.73702
G1 X87.132 Y126.68 E22.76852
G1 X92.065 Y131.613 E23.0668
G1 X91.328 Y131.613 E23.0983
G1 X86.395 Y126.68 E23.39658
G1 X85.783 Y126.68 E23.42272
G1 X85.783 Y126.805 E23.42809
G1 X90.591 Y131.613 E23.71878
G1 X89.854 Y131.613 E23.75028
G1 X85.783 Y127.542 E23.99642
G1 X85.783 Y128.279 E24.02792
G1 X89.117 Y131.613 E24.2295
G1 X88.38 Y131.613 E24.26101
G1 X85.783 Y129.016 E24.41802
G1 X85.783 Y129.753 E24.44953
G1 X87.643 Y131.613 E24.56199
G1 X87.217 Y131.613 E24.58024
G1 X87.217 Y131.923 E24.5935
G1 X85.783 Y130.49 E24.68015
G1 X85.783 Y131.226 E24.71166
G1 X87.217 Y132.66 E24.79831
G1 X87.217 Y133.397 E24.82982
G1 X85.783 Y131.963 E24.91647
G1 X85.783 Y132.7 E24.94797
G1 X87.217 Y134.133 E25.03462
G1 X87.217 Y134.87 E25.06613
G1 X85.783 Y133.437 E25.15278
G1 X85.783 Y134.174 E25.18429
G1 X87.217 Y135.607 E25.27094
G1 X87.217 Y136.344 E25.30245
G1 X85.783 Y134.911 E25.3891
G1 X85.783 Y135.648 E25.42061
G1 X87.217 Y137.081 E25.50726
G1 X87.217 Y137.818 E25.53876
G1 X85.783 Y136.385 E25.62542
G1 X85.783 Y137.122 E25.65692
G1 X86.765 Y138.104 E25.71629
G1 X86.027 Y138.102 E25.74787
G1 X85.559 Y137.635 E25.77613
G92 E0
G1 E-3.5 F3600
;WIPE_START
G1 F7200
G1 X86.027 Y138.102 E-3.81389
G1 X86.765 Y138.104 E-4.16477
G1 X85.783 Y137.122 E-4.82435
G1 X85.783 Y136.91 E-4.925
;WIPE_END
G1 E-5 F3600
; acceleration to travel
M204 S1500
G1 X87.614 Y138.231 F9000
; decel to extrusion
M204 S500
G1 X87.837 Y138.393
; end travel
G1 E0 F2400
;TYPE:Gap fill
;WIDTH:0.797083
G1 F1200
G1 X88.025 Y138.393 E0.01176
G1 X88.212 Y138.393 E0.02352
G1 X88.857 Y138.394 E0.06393
G1 X89.501 Y138.395 E0.10435
G1 X89.689 Y138.395 E0.11616
G1 X89.878 Y138.395 E0.12796
G92 E0
G1 E-3.5 F3600
;WIPE_START
G1 F7200
G1 X89.689 Y138.395 E-3.58944
G1 X89.501 Y138.395 E-3.67887
G1 X88.857 Y138.394 E-3.98501
G1 X88.212 Y138.393 E-4.29114
G1 X88.025 Y138.393 E-4.38021
G1 X87.837 Y138.393 E-4.46928
;WIPE_END
G1 E-5 F3600
; stop printing object frameTEST.obj id:0 copy 0
; printing object backplateInsertTEST.obj id:2 copy 0
; acceleration to travel
M204 S1500
G1 X110.936 Y152.548 F9000
; decel to extrusion
M204 S500
G1 X113.758 Y154.278
; end travel
G1 E0 F2400
;TYPE:Internal perimeter
;WIDTH:0.564
G1 F1200
G1 X113.6 Y154.617 E0.0162
G1 X113.486 Y155.041 E0.03524
G1 X113.461 Y155.63 E0.06077
G1 X113.537 Y156.063 E0.07981
G1 X113.68 Y156.457 E0.09799
G1 X113.9 Y156.837 E0.11702
G1 X114.298 Y157.272 E0.14256
G1 X114.674 Y157.535 E0.16246
G1 X115.219 Y157.761 E0.188
G1 X115.652 Y157.837 E0.20704
G1 X116.071 Y157.837 E0.22521
G1 X116.504 Y157.761 E0.24425
G1 X117.048 Y157.535 E0.26978
G1 X117.408 Y157.283 E0.28882
G1 X117.705 Y156.987 E0.307
G1 X117.946 Y156.643 E0.32517
G1 X118.123 Y156.263 E0.34335
G1 X118.237 Y155.838 E0.36239
G1 X118.263 Y155.23 E0.38879
G1 X118.131 Y154.635 E0.41519
G1 X117.946 Y154.236 E0.43423
G1 X117.705 Y153.893 E0.4524
G1 X117.408 Y153.596 E0.47058
G1 X117.048 Y153.344 E0.48962
G1 X116.504 Y153.119 E0.51515
G1 X116.071 Y153.042 E0.53419
G1 X115.652 Y153.042 E0.55237
G1 X115.219 Y153.119 E0.57141
G1 X114.674 Y153.344 E0.59694
G1 X114.315 Y153.596 E0.61598
G1 X114.018 Y153.893 E0.63416
G1 X113.786 Y154.225 E0.65171
G1 X114.23 Y154.498 F9000
;TYPE:External perimeter
G1 F1200
G1 X114.092 Y154.796 E0.66593
G1 X114.004 Y155.121 E0.68052
G1 X113.984 Y155.596 E0.70111
G1 X114.042 Y155.927 E0.7157
G1 X114.154 Y156.236 E0.72993
G1 X114.323 Y156.527 E0.74452
G1 X114.644 Y156.878 E0.76511
G1 X114.927 Y157.076 E0.78006
G1 X115.366 Y157.258 E0.80065
G1 X115.697 Y157.316 E0.81524
G1 X116.026 Y157.316 E0.82947
G1 X116.357 Y157.258 E0.84406
G1 X116.796 Y157.076 E0.86465
G1 X117.072 Y156.883 E0.87924
G1 X117.304 Y156.65 E0.89346
G1 X117.493 Y156.381 E0.90769
G1 X117.631 Y156.084 E0.92191
G1 X117.718 Y155.759 E0.9365
G1 X117.74 Y155.275 E0.95746
G1 X117.635 Y154.803 E0.97842
G1 X117.493 Y154.498 E0.99301
G1 X117.304 Y154.229 E1.00723
G1 X117.072 Y153.997 E1.02146
G1 X116.796 Y153.804 E1.03605
G1 X116.357 Y153.622 E1.05664
G1 X116.026 Y153.563 E1.07123
G1 X115.697 Y153.563 E1.08545
G1 X115.366 Y153.622 E1.10004
G1 X114.927 Y153.804 E1.12064
G1 X114.651 Y153.997 E1.13522
G1 X114.419 Y154.229 E1.14945
G1 X114.265 Y154.449 E1.16108
;WIPE_START
G1 X113.831 Y154.51 F9000
;WIPE_END
G92 E0
G1 E-3.5 F3600
;WIPE_START
G1 F7200
G1 X113.806 Y155.09 E-3.77601
G1 X113.783 Y155.609 E-4.02257
G1 X113.848 Y155.979 E-4.20123
G1 X113.973 Y156.321 E-4.3738
G1 X114.161 Y156.646 E-4.55246
G1 X114.511 Y157.029 E-4.79902
G1 X114.729 Y157.181 E-4.925
;WIPE_END
G1 E-5 F3600
; acceleration to travel
M204 S1500
G1 X107.24 Y147.484 F9000
; decel to extrusion
M204 S500
G1 X106.325 Y146.299
; end travel
G1 E0 F2400
;TYPE:Internal perimeter
G1 F1200
G1 X124.675 Y146.299 E0.79503
G1 X124.675 Y164.301 E1.57501
G1 X106.325 Y164.301 E2.37004
G1 X106.325 Y146.359 E3.14742
G1 X105.804 Y145.778 F9000
;TYPE:External perimeter
G1 F1200
G1 X125.196 Y145.778 E3.98761
G1 X125.196 Y164.822 E4.81274
G1 X105.804 Y164.822 E5.65293
G1 X105.804 Y145.838 E6.47546
;WIPE_START
G1 X106.151 Y145.978 F9000
;WIPE_END
G92 E0
G1 E-3.5 F3600
;WIPE_START
G1 F7200
G1 X109.151 Y145.978 E-4.925
;WIPE_END
G1 E-5 F3600
; acceleration to travel
M204 S1500
G1 X122.845 Y147.342 F9000
; decel to extrusion
M204 S500
G1 X124.518 Y147.509
; end travel
G1 E0 F2400
;TYPE:Solid infill
;WIDTH:0.556251
G1 F1200
G1 X123.689 Y146.68 E0.05012
G1 X122.952 Y146.68 E0.08161
G1 X124.294 Y148.022 E0.16271
G1 X124.294 Y148.759 E0.19421
G1 X122.215 Y146.68 E0.31985
G1 X121.478 Y146.68 E0.35134
G1 X124.294 Y149.495 E0.52152
G1 X124.294 Y150.232 E0.55301
G1 X120.741 Y146.68 E0.76772
G1 X120.004 Y146.68 E0.79921
G1 X124.294 Y150.969 E1.05845
G1 X124.294 Y151.706 E1.08994
G1 X119.268 Y146.68 E1.39372
G1 X118.531 Y146.68 E1.42521
G1 X124.294 Y152.443 E1.77353
G1 X124.294 Y153.18 E1.80502
G1 X117.794 Y146.68 E2.19787
G1 X117.057 Y146.68 E2.22936
G1 X124.294 Y153.917 E2.66674
G1 X124.294 Y154.654 E2.69823
G1 X116.32 Y146.68 E3.18015
G1 X115.583 Y146.68 E3.21164
G1 X124.294 Y155.391 E3.73809
G1 X124.294 Y156.128 E3.76958
G1 X114.846 Y146.68 E4.34056
G1 X114.109 Y146.68 E4.37205
G1 X124.294 Y156.865 E4.98757
G1 X124.294 Y157.602 E5.01906
G1 X113.372 Y146.68 E5.67911
G1 X112.635 Y146.68 E5.7106
