; generated by SuperSlicer 2.4 on 2023-03-20 at 04:36:48 UTC


;
;

;
;
; 

; external perimeters extrusion width = 0.42mm
; perimeters extrusion width = 0.46mm
; infill extrusion width = 0.44mm
; solid infill extrusion width = 0.46mm
; top infill extrusion width = 0.44mm
; first layer extrusion width = 0.56mm

; object:{"name":"remoteholder","id":"remoteholder.obj id:0 copy 0","object_center":[115.500000,115.500000,0.000000],"boundingbox_center":[115.500000,115.500000,10.394227],"boundingbox_size":[62.300003,34.340926,20.788454]}
; plater:{"center":[115.500000,115.500000,0.000000],"boundingbox_center":[115.500000,115.500000,10.394227],"boundingbox_size":[62.300003,34.340926,20.788454]}

;TYPE:Custom
START_PRINT
M107
G21 ; set units to millimeters
G90 ; use absolute coordinates
M82 ; use absolute distances for extrusion
G92 E0
; Filament gcode
;_TOOLCHANGE 0
M104 S210 ; set temperature
M109 S210 ; set temperature and wait for it to be reached
M190 S60 ; set bed temperature and wait for it to be reached
M107
;LAYER_CHANGE
;Z:0.2
;HEIGHT:0.2
;BEFORE_LAYER_CHANGE
;0.2


G1 E-5 F3600
G1 Z0.2 F9000
;AFTER_LAYER_CHANGE
;0.2
G92 E0
M204 S500
G1 X82.61 Y95.795
G1 E5 F2400
;TYPE:Skirt
;WIDTH:0.48
G1 F1200
G1 X81.525 Y96.96 E5.05786
G1 X81.131 Y98.503 E5.11573
G1 X81.131 Y128.288 E6.19824
G1 X81.642 Y130.028 E6.26414
G1 X82.807 Y131.113 E6.322
G1 X84.35 Y131.507 E6.37986
G1 X146.65 Y131.507 E8.64405
G1 X148.39 Y130.996 E8.70995
G1 X149.475 Y129.831 E8.76781
G1 X149.869 Y128.288 E8.82567
G1 X149.869 Y98.503 E9.90819
G1 X149.591 Y97.195 E9.95677
G1 X148.604 Y95.945 E10.01464
G1 X147.039 Y95.306 E10.07607
G1 X84.45 Y95.269 E12.35078
G1 X83.861 Y95.322 E12.37228
G1 X82.666 Y95.774 E12.41869
G92 E0
G1 E-3.5 F3600
;WIPE_START
G1 F7200
G1 X81.525 Y96.96 E-4.28191
G1 X81.19 Y98.272 E-4.925
;WIPE_END
G1 E-5 F3600
; printing object remoteholder.obj id:0 copy 0
; acceleration to travel
M204 S1500
G1 X84.811 Y99.179 F9000
; decel to extrusion
M204 S500
G1 X85.253 Y99.29
; end travel
G1 E0 F2400
;TYPE:Internal perimeter
;WIDTH:0.564
G1 F1200
G1 X145.747 Y99.29 E2.62107
G1 X145.747 Y121.497 E3.58327
G1 X85.253 Y121.497 E6.20434
G1 X85.253 Y99.35 E7.16393
G1 X84.732 Y98.769 F9000
;TYPE:External perimeter
G1 F1200
G1 X146.268 Y98.769 E9.83016
G1 X146.268 Y127.791 E11.08761
G1 X145.032 Y127.791 E11.14117
G1 X145.032 Y122.019 E11.39127
G1 X85.968 Y122.019 E13.9504
G1 X85.968 Y127.791 E14.2005
G1 X84.732 Y127.791 E14.25406
G1 X84.732 Y98.829 E15.50891
;WIPE_START
G1 X85.078 Y98.969 F9000
;WIPE_END
G92 E0
G1 E-3.5 F3600
;WIPE_START
G1 F7200
G1 X88.078 Y98.969 E-4.925
;WIPE_END
G1 E-5 F3600
; acceleration to travel
M204 S1500
G1 X85.647 Y119.259 F9000
; decel to extrusion
M204 S500
G1 X85.35 Y121.738
; end travel
G1 E0 F2400
;TYPE:Gap fill
;WIDTH:0.798451
G1 F1200
G1 X85.35 Y121.927 E0.01187
G1 X85.35 Y122.115 E0.02373
G1 X85.35 Y127.173 E0.34146
G1 X85.35 Y127.362 E0.35332
G1 X85.35 Y127.551 E0.36519
G92 E0
G1 E-3.5 F3600
;WIPE_START
G1 F7200
G1 X85.35 Y127.362 E-3.58972
G1 X85.35 Y127.173 E-3.67944
G1 X85.35 Y124.551 E-4.925
;WIPE_END
G1 E-5 F3600
; acceleration to travel
M204 S1500
G1 X139.085 Y127.224 F9000
; decel to extrusion
M204 S500
G1 X145.65 Y127.551
; end travel
G1 E0 F2400
G1 F1200
G1 X145.65 Y127.362 E0.01187
G1 X145.65 Y127.173 E0.02373
G1 X145.65 Y122.115 E0.34146
G1 X145.65 Y121.927 E0.35332
G1 X145.65 Y121.738 E0.36519
G92 E0
G1 E-3.5 F3600
;WIPE_START
G1 F7200
G1 X145.65 Y121.927 E-3.58972
G1 X145.65 Y122.115 E-3.67944
G1 X145.65 Y124.738 E-4.925
;WIPE_END
G1 E-5 F3600
; acceleration to travel
M204 S1500
G1 X144.658 Y102.2 F9000
; decel to extrusion
M204 S500
G1 X144.537 Y99.447
; end travel
G1 E0 F2400
;TYPE:Solid infill
;WIDTH:0.561806
G1 F1200
G1 X145.367 Y100.276 E0.05062
G1 X145.367 Y101.013 E0.08242
G1 X144.024 Y99.671 E0.16434
G1 X143.288 Y99.671 E0.19614
G1 X145.367 Y101.75 E0.32304
G1 X145.367 Y102.487 E0.35485
G1 X142.551 Y99.671 E0.52672
G1 X141.814 Y99.671 E0.55853
G1 X145.367 Y103.224 E0.77538
G1 X145.367 Y103.96 E0.80719
G1 X141.077 Y99.671 E1.06902
G1 X140.34 Y99.671 E1.10083
G1 X145.367 Y104.697 E1.40764
G1 X145.367 Y105.434 E1.43945
G1 X139.603 Y99.671 E1.79124
G1 X138.866 Y99.671 E1.82305
G1 X145.367 Y106.171 E2.21982
G1 X145.367 Y106.908 E2.25162
G1 X138.129 Y99.671 E2.69337
G1 X137.392 Y99.671 E2.72518
G1 X145.367 Y107.645 E3.21191
G1 X145.367 Y108.382 E3.24371
G1 X136.655 Y99.671 E3.77542
G1 X135.918 Y99.671 E3.80722
G1 X145.367 Y109.119 E4.38391
G1 X145.367 Y109.856 E4.41572
G1 X135.181 Y99.671 E5.03738
G1 X134.445 Y99.671 E5.06919
G1 X145.367 Y110.593 E5.73583
G1 X145.367 Y111.33 E5.76764
G1 X133.708 Y99.671 E6.47926
G1 X132.971 Y99.671 E6.51107
G1 X145.367 Y112.067 E7.26767
G1 X145.367 Y112.803 E7.29947
G1 X132.234 Y99.671 E8.10106
G1 X131.497 Y99.671 E8.13286
G1 X145.367 Y113.54 E8.97942
G1 X145.367 Y114.277 E9.01123
G1 X130.76 Y99.671 E9.90277
G1 X130.023 Y99.671 E9.93457
G1 X145.367 Y115.014 E10.87109
G1 X145.367 Y115.751 E10.9029
G1 X129.286 Y99.671 E11.88439
G1 X128.549 Y99.671 E11.9162
G1 X145.367 Y116.488 E12.94267
G1 X145.367 Y117.225 E12.97448
G1 X127.812 Y99.671 E14.04593
G1 X127.075 Y99.671 E14.07774
G1 X145.367 Y117.962 E15.19417
G1 X145.367 Y118.699 E15.22598
G1 X126.338 Y99.671 E16.38739
G1 X125.602 Y99.671 E16.4192
G1 X145.367 Y119.436 E17.62559
G1 X145.367 Y120.173 E17.65739
G1 X124.865 Y99.671 E18.90877
G1 X124.128 Y99.671 E18.94057
G1 X145.367 Y120.91 E20.23692
G1 X145.367 Y121.117 E20.24588
G1 X144.837 Y121.117 E20.26873
G1 X123.391 Y99.671 E21.57774
G1 X122.654 Y99.671 E21.60955
G1 X144.1 Y121.117 E22.91857
G1 X143.363 Y121.117 E22.95037
G1 X121.917 Y99.671 E24.25939
G1 X121.18 Y99.671 E24.2912
G1 X142.626 Y121.117 E25.60021
G1 X141.89 Y121.117 E25.63202
G1 X120.443 Y99.671 E26.94104
G1 X119.706 Y99.671 E26.97284
G1 X141.153 Y121.117 E28.28186
G1 X140.416 Y121.117 E28.31367
G1 X118.969 Y99.671 E29.62268
G1 X118.232 Y99.671 E29.65449
G1 X139.679 Y121.117 E30.96351
G1 X138.942 Y121.117 E30.99531
G1 X117.495 Y99.671 E32.30433
G1 X116.759 Y99.671 E32.33613
G1 X138.205 Y121.117 E33.64515
G1 X137.468 Y121.117 E33.67696
G1 X116.022 Y99.671 E34.98598
G1 X115.285 Y99.671 E35.01778
G1 X136.731 Y121.117 E36.3268
G1 X135.994 Y121.117 E36.3586
G1 X114.548 Y99.671 E37.66762
G1 X113.811 Y99.671 E37.69943
G1 X135.257 Y121.117 E39.00845
G1 X134.52 Y121.117 E39.04025
G1 X113.074 Y99.671 E40.34927
G1 X112.337 Y99.671 E40.38107
G1 X133.783 Y121.117 E41.69009
G1 X133.047 Y121.117 E41.7219
G1 X111.6 Y99.671 E43.03092
G1 X110.863 Y99.671 E43.06272
G1 X132.31 Y121.117 E44.37174
G1 X131.573 Y121.117 E44.40354
G1 X110.126 Y99.671 E45.71256
G1 X109.389 Y99.671 E45.74437
G1 X130.836 Y121.117 E47.05339
G1 X130.099 Y121.117 E47.08519
G1 X108.652 Y99.671 E48.39421
G1 X107.915 Y99.671 E48.42601
G1 X129.362 Y121.117 E49.73503
G1 X128.625 Y121.117 E49.76684
G1 X107.179 Y99.671 E51.07586
G1 X106.442 Y99.671 E51.10766
G1 X127.888 Y121.117 E52.41668
G1 X127.151 Y121.117 E52.44848
G1 X105.705 Y99.671 E53.7575
G1 X104.968 Y99.671 E53.78931
G1 X126.414 Y121.117 E55.09833
G1 X125.677 Y121.117 E55.13013
G1 X104.231 Y99.671 E56.43915
G1 X103.494 Y99.671 E56.47095
G1 X124.94 Y121.117 E57.77997
G1 X124.204 Y121.117 E57.81178
G1 X102.757 Y99.671 E59.12079
G1 X102.02 Y99.671 E59.1526
G1 X123.467 Y121.117 E60.46162
G1 X122.73 Y121.117 E60.49342
G1 X101.283 Y99.671 E61.80244
G1 X100.546 Y99.671 E61.83425
G1 X121.993 Y121.117 E63.14326
G1 X121.256 Y121.117 E63.17507
G1 X99.809 Y99.671 E64.48409
G1 X99.072 Y99.671 E64.51589
G1 X120.519 Y121.117 E65.82491
G1 X119.782 Y121.117 E65.85672
G1 X98.336 Y99.671 E67.16573
G1 X97.599 Y99.671 E67.19754
G1 X119.045 Y121.117 E68.50656
G1 X118.308 Y121.117 E68.53836
G1 X96.862 Y99.671 E69.84738
G1 X96.125 Y99.671 E69.87919
G1 X117.571 Y121.117 E71.1882
G1 X116.834 Y121.117 E71.22001
G1 X95.388 Y99.671 E72.52903
G1 X94.651 Y99.671 E72.56083
G1 X116.097 Y121.117 E73.86985
G1 X115.361 Y121.117 E73.90166
G1 X93.914 Y99.671 E75.21067
G1 X93.177 Y99.671 E75.24248
G1 X114.624 Y121.117 E76.5515
G1 X113.887 Y121.117 E76.5833
G1 X92.44 Y99.671 E77.89232
G1 X91.703 Y99.671 E77.92413
G1 X113.15 Y121.117 E79.23314
G1 X112.413 Y121.117 E79.26495
G1 X90.966 Y99.671 E80.57397
G1 X90.229 Y99.671 E80.60577
G1 X111.676 Y121.117 E81.91479
G1 X110.939 Y121.117 E81.9466
G1 X89.493 Y99.671 E83.25561
G1 X88.756 Y99.671 E83.28742
G1 X110.202 Y121.117 E84.59644
G1 X109.465 Y121.117 E84.62824
G1 X88.019 Y99.671 E85.93726
G1 X87.282 Y99.671 E85.96906
G1 X108.728 Y121.117 E87.27808
G1 X107.991 Y121.117 E87.30989
G1 X86.545 Y99.671 E88.61891
G1 X85.808 Y99.671 E88.65071
G1 X107.254 Y121.117 E89.95973
G1 X106.518 Y121.117 E89.99153
G1 X85.633 Y100.233 E91.26623
G1 X85.633 Y100.97 E91.29803
G1 X105.781 Y121.117 E92.52775
G1 X105.044 Y121.117 E92.55955
G1 X85.633 Y101.707 E93.74429
G1 X85.633 Y102.444 E93.77609
G1 X104.307 Y121.117 E94.91585
G1 X103.57 Y121.117 E94.94765
G1 X85.633 Y103.181 E96.04243
G1 X85.633 Y103.918 E96.07423
G1 X102.833 Y121.117 E97.12403
G1 X102.096 Y121.117 E97.15584
G1 X85.633 Y104.655 E98.16066
G1 X85.633 Y105.391 E98.19246
G1 X101.359 Y121.117 E99.1523
G1 X100.622 Y121.117 E99.18411
G1 X85.633 Y106.128 E100.09897
G1 X85.633 Y106.865 E100.13077
G1 X99.885 Y121.117 E101.00066
G1 X99.148 Y121.117 E101.03246
G1 X85.633 Y107.602 E101.85736
G1 X85.633 Y108.339 E101.88917
G1 X98.411 Y121.117 E102.66909
G1 X97.675 Y121.117 E102.7009
G1 X85.633 Y109.076 E103.43585
G1 X85.633 Y109.813 E103.46765
G1 X96.938 Y121.117 E104.15762
G1 X96.201 Y121.117 E104.18942
G1 X85.633 Y110.55 E104.83441
G1 X85.633 Y111.287 E104.86621
G1 X95.464 Y121.117 E105.46622
G1 X94.727 Y121.117 E105.49803
G1 X85.633 Y112.024 E106.05306
G1 X85.633 Y112.761 E106.08486
G1 X93.99 Y121.117 E106.59491
G1 X93.253 Y121.117 E106.62672
G1 X85.633 Y113.498 E107.09179
G1 X85.633 Y114.234 E107.1236
G1 X92.516 Y121.117 E107.54369
G1 X91.779 Y121.117 E107.57549
G1 X85.633 Y114.971 E107.95061
G1 X85.633 Y115.708 E107.98241
G1 X91.042 Y121.117 E108.31255
G1 X90.305 Y121.117 E108.34435
G1 X85.633 Y116.445 E108.62951
G1 X85.633 Y117.182 E108.66131
G1 X89.568 Y121.117 E108.90149
G1 X88.831 Y121.117 E108.9333
G1 X85.633 Y117.919 E109.1285
G1 X85.633 Y118.656 E109.1603
G1 X88.095 Y121.117 E109.31052
G1 X87.358 Y121.117 E109.34232
G1 X85.633 Y119.393 E109.44757
G1 X85.633 Y120.13 E109.47937
G1 X86.621 Y121.117 E109.53963
G1 X85.884 Y121.117 E109.57144
G1 X85.409 Y120.643 E109.6004
M106 S84.15
;LAYER_CHANGE
;Z:0.4
;HEIGHT:0.2
;BEFORE_LAYER_CHANGE
;0.4


G92 E0
G1 E-3.5 F3600
;WIPE_START
G1 F7200
G1 X85.884 Y121.117 E-3.81871
G1 X86.621 Y121.117 E-4.16875
G1 X85.633 Y120.13 E-4.83197
G1 X85.633 Y119.934 E-4.925
;WIPE_END
G1 E-5 F3600
; stop printing object remoteholder.obj id:0 copy 0
G1 Z0.4 F9000
;AFTER_LAYER_CHANGE
;0.4
M104 S205 ; set temperature
G92 E0
; acceleration to travel
M204 S1500
G1 X81.622 Y119.934
; decel to extrusion
M204 S500
G1 X81.131 Y119.934
; end travel
G1 E5 F2400
;TYPE:Skirt
;WIDTH:0.48
G1 F1200
G1 X81.131 Y128.288 E5.30363
G1 X81.642 Y130.028 E5.36952
G1 X82.807 Y131.113 E5.42739
G1 X84.35 Y131.507 E5.48525
G1 X146.65 Y131.507 E7.74944
G1 X148.39 Y130.996 E7.81534
G1 X149.475 Y129.831 E7.8732
G1 X149.869 Y128.288 E7.93106
G1 X149.869 Y98.503 E9.01357
G1 X149.591 Y97.195 E9.06216
G1 X148.604 Y95.945 E9.12003
G1 X147.039 Y95.306 E9.18146
G1 X84.45 Y95.269 E11.45617
G1 X83.861 Y95.322 E11.47767
G1 X82.61 Y95.795 E11.52626
G1 X81.525 Y96.96 E11.58412
G1 X81.131 Y98.503 E11.64199
G1 X81.131 Y119.874 E12.41869
G92 E0
G1 E-3.5 F3600
;WIPE_START
G1 F7200
G1 X81.131 Y122.874 E-4.925
;WIPE_END
G1 E-5 F3600
; printing object remoteholder.obj id:0 copy 0
; acceleration to travel
M204 S1500
G1 X85.214 Y122.018 F9000
; decel to extrusion
M204 S500
G1 X85.741 Y121.907
; end travel
G1 E0 F2400
;TYPE:Internal perimeter
;WIDTH:0.464
G1 X85.741 Y127.679 E0.20211
G1 X84.959 Y127.679 E0.22948
G1 X84.959 Y99.112 E1.22972
G1 X146.041 Y99.112 E3.36837
G1 X146.041 Y127.679 E4.36861
G1 X145.259 Y127.679 E4.39598
G1 X145.259 Y121.907 E4.59809
G1 X85.801 Y121.907 E6.6799
G1 X86.198 Y122.306 F9000
;TYPE:External perimeter
;WIDTH:0.42
G1 F1500
G1 X86.14 Y122.306 E6.68173
G1 X86.14 Y128.047 E6.86173
;TYPE:Overhang perimeter
M204 S250
G1 X86.14 Y128.078 E6.86272
G1 X84.56 Y128.078 E6.91226
G1 X84.56 Y128.047 E6.91324
;TYPE:External perimeter
M204 S500
G1 X84.56 Y98.713 E7.833
G1 X146.44 Y98.713 E9.77321
G1 X146.44 Y128.047 E10.69296
;TYPE:Overhang perimeter
M204 S250
G1 X146.44 Y128.078 E10.69395
G1 X144.86 Y128.078 E10.74349
G1 X144.86 Y128.047 E10.74447
;TYPE:External perimeter
M204 S500
G1 X144.86 Y122.306 E10.92448
G1 X144.802 Y122.306 E10.92631
;TYPE:Overhang perimeter
M204 S250
G1 X86.284 Y122.306 E12.76109
G92 E0
G1 E-3.5 F3600
;WIPE_START
G1 F7200
M204 S500
G1 X86.198 Y122.306 E-3.54066
;WIPE_END
G1 E-5 F3600
; acceleration to travel
M204 S1500
G1 X85.213 Y102.708 F9000
; decel to extrusion
M204 S500
G1 X85.085 Y100.176
; end travel
G1 E0 F2400
;TYPE:Solid infill
;WIDTH:0.466018
G1 X85.842 Y99.419 E0.03763
G1 X86.437 Y99.419 E0.05857
G1 X85.266 Y100.59 E0.1168
G1 X85.266 Y101.186 E0.13774
G1 X87.033 Y99.419 E0.22559
G1 X87.628 Y99.419 E0.24653
G1 X85.266 Y101.781 E0.364
G1 X85.266 Y102.377 E0.38494
G1 X88.224 Y99.419 E0.53202
G1 X88.819 Y99.419 E0.55296
G1 X85.266 Y102.972 E0.72966
G1 X85.266 Y103.568 E0.7506
G1 X89.415 Y99.419 E0.95691
G1 X90.01 Y99.419 E0.97785
G1 X85.266 Y104.163 E1.21377
G1 X85.266 Y104.759 E1.23471
G1 X90.606 Y99.419 E1.50025
G1 X91.201 Y99.419 E1.52119
G1 X85.266 Y105.354 E1.81634
G1 X85.266 Y105.95 E1.83728
G1 X91.797 Y99.419 E2.16205
G1 X92.392 Y99.419 E2.18299
G1 X85.266 Y106.545 E2.53737
G1 X85.266 Y107.141 E2.55832
G1 X92.988 Y99.419 E2.94231
G1 X93.583 Y99.419 E2.96325
G1 X85.266 Y107.736 E3.37687
G1 X85.266 Y108.332 E3.39781
G1 X94.179 Y99.419 E3.84103
G1 X94.774 Y99.419 E3.86197
G1 X85.266 Y108.927 E4.33481
G1 X85.266 Y109.523 E4.35575
G1 X95.37 Y99.419 E4.85821
G1 X95.965 Y99.419 E4.87915
G1 X85.266 Y110.118 E5.41122
G1 X85.266 Y110.714 E5.43216
G1 X96.561 Y99.419 E5.99385
G1 X97.156 Y99.419 E6.01479
G1 X85.266 Y111.309 E6.60609
G1 X85.266 Y111.905 E6.62703
G1 X97.752 Y99.419 E7.24794
G1 X98.347 Y99.419 E7.26888
G1 X85.266 Y112.5 E7.91941
G1 X85.266 Y113.095 E7.94035
G1 X98.943 Y99.419 E8.6205
G1 X99.538 Y99.419 E8.64144
G1 X85.266 Y113.691 E9.3512
G1 X85.266 Y114.286 E9.37214
G1 X100.134 Y99.419 E10.11151
G1 X100.729 Y99.419 E10.13245
G1 X85.266 Y114.882 E10.90144
G1 X85.266 Y115.477 E10.92238
G1 X101.325 Y99.419 E11.72098
G1 X101.92 Y99.419 E11.74192
G1 X85.266 Y116.073 E12.57014
G1 X85.266 Y116.668 E12.59108
G1 X102.516 Y99.419 E13.44891
G1 X103.111 Y99.419 E13.46985
G1 X85.266 Y117.264 E14.3573
G1 X85.266 Y117.859 E14.37824
G1 X103.707 Y99.419 E15.2953
G1 X104.302 Y99.419 E15.31624
G1 X85.266 Y118.455 E16.26291
G1 X85.266 Y119.05 E16.28385
G1 X104.898 Y99.419 E17.26014
G1 X105.493 Y99.419 E17.28109
G1 X85.266 Y119.646 E18.28699
G1 X85.266 Y120.241 E18.30793
G1 X106.089 Y99.419 E19.34345
G1 X106.684 Y99.419 E19.36439
G1 X85.266 Y120.837 E20.42953
G1 X85.266 Y121.432 E20.45047
G1 X107.28 Y99.419 E21.54521
G1 X107.875 Y99.419 E21.56616
G1 X85.695 Y121.599 E22.66921
G1 X86.29 Y121.599 E22.69015
G1 X108.471 Y99.419 E23.79321
G1 X109.066 Y99.419 E23.81415
G1 X86.886 Y121.599 E24.91721
G1 X87.481 Y121.599 E24.93815
G1 X109.662 Y99.419 E26.0412
G1 X110.257 Y99.419 E26.06214
G1 X88.077 Y121.599 E27.1652
G1 X88.672 Y121.599 E27.18614
G1 X110.853 Y99.419 E28.2892
G1 X111.448 Y99.419 E28.31014
G1 X89.268 Y121.599 E29.4132
G1 X89.863 Y121.599 E29.43414
G1 X112.044 Y99.419 E30.53719
G1 X112.639 Y99.419 E30.55813
G1 X90.459 Y121.599 E31.66119
G1 X91.054 Y121.599 E31.68213
G1 X113.235 Y99.419 E32.78519
G1 X113.83 Y99.419 E32.80613
G1 X91.65 Y121.599 E33.90918
G1 X92.245 Y121.599 E33.93012
G1 X114.426 Y99.419 E35.03318
G1 X115.021 Y99.419 E35.05412
G1 X92.841 Y121.599 E36.15718
G1 X93.436 Y121.599 E36.17812
G1 X115.617 Y99.419 E37.28118
G1 X116.212 Y99.419 E37.30212
G1 X94.032 Y121.599 E38.40517
G1 X94.627 Y121.599 E38.42611
G1 X116.808 Y99.419 E39.52917
G1 X117.403 Y99.419 E39.55011
G1 X95.223 Y121.599 E40.65317
