; generated by SuperSlicer 2.4 on 2023-03-15 at 03:14:57 UTC


;
;

;
;
; 

; external perimeters extrusion width = 0.45mm
; perimeters extrusion width = 0.45mm
; infill extrusion width = 0.45mm
; solid infill extrusion width = 0.45mm
; top infill extrusion width = 0.40mm
; first layer extrusion width = 0.42mm

; object:{"name":"Brio_Bridge_Sides","id":"Brio_Bridge_Sides.stl id:0 copy 0","object_center":[2.100852,-0.511752,0.000000],"boundingbox_center":[2.100852,-0.511752,10.000000],"boundingbox_size":[74.000000,82.564911,20.000000]}
; plater:{"center":[2.100852,-0.511752,0.000000],"boundingbox_center":[2.100852,-0.511752,10.000000],"boundingbox_size":[74.000000,82.564911,20.000000]}

;TYPE:Custom
START_PRINT
M107
G21 ; set units to millimeters
G90 ; use absolute coordinates
M83 ; use relative distances for extrusion
; Filament gcode
;_TOOLCHANGE 0
M104 S200 ; set temperature
M109 S200 ; set temperature and wait for it to be reached
M190 S60 ; set bed temperature and wait for it to be reached
M107
;LAYER_CHANGE
;Z:0.2
;HEIGHT:0.2
;BEFORE_LAYER_CHANGE
G92 E0
;0.2
G1 E-5 F3600
G1 Z0.2 F10800
;AFTER_LAYER_CHANGE
;0.2
M204 S1000
G1 X-40.615 Y0
G1 E5 F2400
;TYPE:Skirt
;WIDTH:0.52
G1 F1200
G1 X-40.615 Y19.206 E0.76188
G1 X-40.432 Y20.641 E0.05739
G1 X-37.432 Y32.206 E0.47397
G1 X-36.28 Y34.442 E0.09977
G1 X-34.633 Y35.79 E0.08445
G1 X-29.828 Y38.321 E0.21545
G1 X-24.928 Y40.567 E0.2138
G1 X-20.558 Y42.275 E0.18613
G1 X-17.934 Y43.17 E0.10998
G1 X-13.119 Y44.552 E0.1987
G1 X-8.202 Y45.592 E0.19941
G1 X-3.751 Y46.196 E0.17816
G1 X0.215 Y46.456 E0.15767
G1 X2.38 Y46.485 E0.08589
G1 X6.114 Y46.349 E0.14822
G1 X8.238 Y46.166 E0.08457
G1 X12.872 Y45.508 E0.18569
G1 X18.004 Y44.376 E0.20845
G1 X21.601 Y43.34 E0.14849
G1 X25.089 Y42.151 E0.14619
G1 X27.5 Y41.226 E0.10244
G1 X31.917 Y39.322 E0.1908
G1 X34.554 Y38.06 E0.11598
G1 X38.834 Y35.791 E0.19216
G1 X40.724 Y34.131 E0.0998
G1 X41.633 Y32.206 E0.08445
G1 X44.633 Y20.641 E0.47397
G1 X44.816 Y19.206 E0.05739
G1 X44.816 Y-41.794 E2.41983
G1 X44.255 Y-44.264 E0.10046
G1 X42.994 Y-45.979 E0.08445
G1 X41.193 Y-47.113 E0.08445
G1 X39.101 Y-47.51 E0.08445
G1 X-34.899 Y-47.51 E2.93553
G1 X-37.369 Y-46.949 E0.10046
G1 X-39.084 Y-45.687 E0.08445
G1 X-40.218 Y-43.886 E0.08445
G1 X-40.615 Y-41.794 E0.08445
G1 X-40.615 Y-0.06 E1.65557
G1 X-40.138 Y-0.06 F10800
G1 F1200
G1 X-40.138 Y19.206 E0.76426
G1 X-39.97 Y20.521 E0.0526
G1 X-36.97 Y32.086 E0.47397
G1 X-35.97 Y34.068 E0.08804
G1 X-34.405 Y35.371 E0.08082
G1 X-29.623 Y37.89 E0.21439
G1 X-24.748 Y40.125 E0.21274
G1 X-20.39 Y41.828 E0.1856
G1 X-17.795 Y42.714 E0.1088
G1 X-12.996 Y44.091 E0.19804
G1 X-8.128 Y45.121 E0.19737
G1 X-3.712 Y45.721 E0.17681
G1 X-1.617 Y45.891 E0.08337
G1 X2.198 Y46.009 E0.1514
G1 X6.27 Y45.86 E0.16166
G1 X10.632 Y45.388 E0.17404
G1 X15.48 Y44.495 E0.19556
G1 X18.062 Y43.868 E0.10539
G1 X21.453 Y42.887 E0.14006
G1 X24.931 Y41.701 E0.14574
G1 X27.18 Y40.84 E0.09555
G1 X31.853 Y38.826 E0.20184
G1 X34.48 Y37.565 E0.11561
G1 X38.606 Y35.372 E0.18535
G1 X40.286 Y33.921 E0.08808
G1 X41.172 Y32.086 E0.08082
G1 X44.172 Y20.521 E0.47397
G1 X44.339 Y19.206 E0.0526
G1 X44.339 Y-41.794 E2.41983
G1 X43.933 Y-43.818 E0.08187
G1 X42.796 Y-45.508 E0.08082
G1 X41.099 Y-46.637 E0.08082
G1 X39.101 Y-47.033 E0.08082
G1 X-34.899 Y-47.033 E2.93553
G1 X-36.923 Y-46.626 E0.08187
G1 X-38.613 Y-45.489 E0.08082
G1 X-39.742 Y-43.793 E0.08082
G1 X-40.138 Y-41.794 E0.08082
G1 X-40.138 Y-0.12 E1.65319
G1 E-3.5 F3600
;WIPE_START
G1 F8640
G1 X-40.138 Y3.48 E-1.425
;WIPE_END
G1 E-0.075 F3600
; printing object Brio_Bridge_Sides.stl id:0 copy 0
; acceleration to travel
M204 S1500
G1 X6.895 Y20.637 F10800
; decel to extrusion
M204 S800
G1 X16.039 Y23.973
; end travel
G1 E5 F2400
;TYPE:Internal perimeter
;WIDTH:0.42
G1 F1200
G1 X15.892 Y24.362 E0.01304
G1 X15.776 Y24.802 E0.01426
G1 X15.706 Y25.252 E0.01426
G1 X15.683 Y25.706 E0.01426
G1 X15.706 Y26.16 E0.01426
G1 X15.776 Y26.61 E0.01426
G1 X15.892 Y27.049 E0.01426
G1 X16.052 Y27.475 E0.01426
G1 X16.256 Y27.882 E0.01426
G1 X16.5 Y28.266 E0.01426
G1 X16.782 Y28.623 E0.01426
G1 X17.1 Y28.948 E0.01426
G1 X17.449 Y29.24 E0.01426
G1 X17.826 Y29.494 E0.01426
G1 X18.228 Y29.707 E0.01426
G1 X18.649 Y29.879 E0.01426
G1 X19.086 Y30.006 E0.01426
G1 X19.534 Y30.088 E0.01426
G1 X19.987 Y30.123 E0.01426
G1 X20.442 Y30.111 E0.01426
G1 X20.893 Y30.052 E0.01426
G1 X21.336 Y29.948 E0.01426
G1 X21.765 Y29.799 E0.01426
G1 X22.177 Y29.606 E0.01426
G1 X22.567 Y29.372 E0.01426
G1 X22.931 Y29.099 E0.01426
G1 X23.265 Y28.79 E0.01426
G1 X23.565 Y28.448 E0.01426
G1 X23.829 Y28.077 E0.01426
G1 X24.053 Y27.681 E0.01426
G1 X24.235 Y27.264 E0.01426
G1 X24.373 Y26.831 E0.01426
G1 X24.467 Y26.386 E0.01426
G1 X24.513 Y25.933 E0.01426
G1 X24.513 Y25.478 E0.01426
G1 X24.467 Y25.026 E0.01426
G1 X24.373 Y24.581 E0.01426
G1 X24.235 Y24.147 E0.01426
G1 X24.053 Y23.73 E0.01426
G1 X23.829 Y23.335 E0.01426
G1 X23.565 Y22.964 E0.01426
G1 X23.265 Y22.622 E0.01426
G1 X22.931 Y22.313 E0.01426
G1 X22.567 Y22.04 E0.01426
G1 X22.177 Y21.806 E0.01426
G1 X21.765 Y21.613 E0.01426
G1 X21.336 Y21.464 E0.01426
G1 X20.893 Y21.359 E0.01426
G1 X20.442 Y21.301 E0.01426
G1 X19.987 Y21.289 E0.01426
G1 X19.534 Y21.324 E0.01426
G1 X19.086 Y21.406 E0.01426
G1 X18.649 Y21.533 E0.01426
G1 X18.228 Y21.704 E0.01426
G1 X17.826 Y21.918 E0.01426
G1 X17.449 Y22.172 E0.01426
G1 X17.1 Y22.463 E0.01426
G1 X16.782 Y22.789 E0.01426
G1 X16.5 Y23.146 E0.01426
G1 X16.256 Y23.53 E0.01426
G1 X16.062 Y23.918 E0.0136
G1 X16.391 Y24.106 F10800
G1 F1200
G1 X16.252 Y24.477 E0.01243
G1 X16.146 Y24.879 E0.01304
G1 X16.082 Y25.29 E0.01304
G1 X16.06 Y25.706 E0.01304
G1 X16.082 Y26.121 E0.01304
G1 X16.146 Y26.532 E0.01304
G1 X16.252 Y26.935 E0.01304
G1 X16.398 Y27.324 E0.01304
G1 X16.584 Y27.696 E0.01304
G1 X16.808 Y28.047 E0.01304
G1 X17.066 Y28.373 E0.01304
G1 X17.356 Y28.671 E0.01304
G1 X17.676 Y28.938 E0.01304
G1 X18.021 Y29.17 E0.01304
G1 X18.388 Y29.365 E0.01304
G1 X18.773 Y29.522 E0.01304
G1 X19.173 Y29.638 E0.01304
G1 X19.582 Y29.713 E0.01304
G1 X19.997 Y29.745 E0.01304
G1 X20.413 Y29.734 E0.01304
G1 X20.825 Y29.681 E0.01304
G1 X21.23 Y29.585 E0.01304
G1 X21.623 Y29.449 E0.01304
G1 X22 Y29.272 E0.01304
G1 X22.357 Y29.058 E0.01304
G1 X22.689 Y28.809 E0.01304
G1 X22.995 Y28.526 E0.01304
G1 X23.269 Y28.213 E0.01304
G1 X23.51 Y27.874 E0.01304
G1 X23.715 Y27.512 E0.01304
G1 X23.882 Y27.131 E0.01304
G1 X24.008 Y26.735 E0.01304
G1 X24.093 Y26.328 E0.01304
G1 X24.136 Y25.914 E0.01304
G1 X24.136 Y25.498 E0.01304
G1 X24.093 Y25.084 E0.01304
G1 X24.008 Y24.677 E0.01304
G1 X23.882 Y24.28 E0.01304
G1 X23.715 Y23.899 E0.01304
G1 X23.51 Y23.537 E0.01304
G1 X23.269 Y23.198 E0.01304
G1 X22.995 Y22.886 E0.01304
G1 X22.689 Y22.603 E0.01304
G1 X22.357 Y22.353 E0.01304
G1 X22 Y22.139 E0.01304
G1 X21.623 Y21.963 E0.01304
G1 X21.23 Y21.826 E0.01304
G1 X20.825 Y21.731 E0.01304
G1 X20.413 Y21.677 E0.01304
G1 X19.997 Y21.666 E0.01304
G1 X19.582 Y21.699 E0.01304
G1 X19.173 Y21.773 E0.01304
G1 X18.773 Y21.889 E0.01304
G1 X18.388 Y22.046 E0.01304
G1 X18.021 Y22.242 E0.01304
G1 X17.676 Y22.474 E0.01304
G1 X17.356 Y22.74 E0.01304
G1 X17.066 Y23.038 E0.01304
G1 X16.808 Y23.365 E0.01304
G1 X16.584 Y23.716 E0.01304
G1 X16.416 Y24.051 E0.01177
G1 X16.744 Y24.239 F10800
;TYPE:External perimeter
G1 F1200
G1 X16.611 Y24.592 E0.01183
G1 X16.515 Y24.956 E0.01183
G1 X16.457 Y25.329 E0.01183
G1 X16.438 Y25.706 E0.01183
G1 X16.457 Y26.082 E0.01183
G1 X16.515 Y26.455 E0.01183
G1 X16.611 Y26.82 E0.01183
G1 X16.744 Y27.173 E0.01183
G1 X16.913 Y27.51 E0.01183
G1 X17.115 Y27.828 E0.01182
G1 X17.349 Y28.124 E0.01183
G1 X17.613 Y28.394 E0.01183
G1 X17.902 Y28.636 E0.01182
G1 X18.215 Y28.846 E0.01183
G1 X18.548 Y29.024 E0.01183
G1 X18.897 Y29.166 E0.01183
G1 X19.259 Y29.271 E0.01182
G1 X19.631 Y29.339 E0.01183
G1 X20.007 Y29.368 E0.01183
G1 X20.384 Y29.358 E0.01183
G1 X20.758 Y29.31 E0.01183
G1 X21.125 Y29.223 E0.01183
G1 X21.481 Y29.099 E0.01183
G1 X21.822 Y28.939 E0.01182
G1 X22.146 Y28.745 E0.01183
G1 X22.447 Y28.519 E0.01182
G1 X22.724 Y28.262 E0.01183
G1 X22.973 Y27.979 E0.01183
G1 X23.192 Y27.672 E0.01182
G1 X23.377 Y27.344 E0.01183
G1 X23.529 Y26.998 E0.01183
G1 X23.643 Y26.639 E0.01182
G1 X23.72 Y26.27 E0.01183
G1 X23.759 Y25.894 E0.01182
G1 X23.759 Y25.517 E0.01183
G1 X23.72 Y25.142 E0.01182
G1 X23.643 Y24.773 E0.01183
G1 X23.529 Y24.414 E0.01183
G1 X23.377 Y24.068 E0.01182
G1 X23.192 Y23.74 E0.01183
G1 X22.973 Y23.432 E0.01183
G1 X22.724 Y23.149 E0.01183
G1 X22.447 Y22.893 E0.01183
G1 X22.146 Y22.667 E0.01182
G1 X21.822 Y22.472 E0.01183
G1 X21.481 Y22.313 E0.01183
G1 X21.125 Y22.189 E0.01183
G1 X20.758 Y22.102 E0.01183
G1 X20.384 Y22.054 E0.01183
G1 X20.007 Y22.044 E0.01183
G1 X19.631 Y22.073 E0.01183
G1 X19.259 Y22.141 E0.01183
G1 X18.897 Y22.246 E0.01182
G1 X18.548 Y22.388 E0.01183
G1 X18.215 Y22.565 E0.01182
G1 X17.902 Y22.776 E0.01183
G1 X17.613 Y23.017 E0.01183
G1 X17.349 Y23.288 E0.01183
G1 X17.115 Y23.583 E0.01183
G1 X16.913 Y23.902 E0.01183
G1 X16.771 Y24.185 E0.00994
;WIPE_START
M204 S1000
G1 X16.348 Y24.29 F10800
;WIPE_END
G1 E-3.5 F3600
;WIPE_START
G1 F8640
G1 X16.42 Y24.531 E-0.09952
G1 X16.319 Y24.916 E-0.15745
G1 X16.258 Y25.309 E-0.15745
G1 X16.237 Y25.706 E-0.15745
G1 X16.258 Y26.103 E-0.15745
G1 X16.319 Y26.496 E-0.15745
G1 X16.42 Y26.881 E-0.15745
G1 X16.561 Y27.253 E-0.15745
G1 X16.739 Y27.609 E-0.15745
G1 X16.828 Y27.749 E-0.06588
;WIPE_END
G1 E-0.075 F3600
; acceleration to travel
M204 S1500
G1 X-6.878 Y25.88 F10800
; decel to extrusion
M204 S800
G1 X-11.487 Y25.517
; end travel
G1 E5 F2400
;TYPE:Internal perimeter
G1 F1200
G1 X-11.487 Y25.478 E0.00122
G1 X-11.533 Y25.026 E0.01426
G1 X-11.627 Y24.581 E0.01426
G1 X-11.765 Y24.147 E0.01426
G1 X-11.947 Y23.73 E0.01426
G1 X-12.171 Y23.335 E0.01426
G1 X-12.435 Y22.964 E0.01426
G1 X-12.735 Y22.622 E0.01426
G1 X-13.069 Y22.313 E0.01426
G1 X-13.433 Y22.04 E0.01426
G1 X-13.823 Y21.806 E0.01426
G1 X-14.235 Y21.613 E0.01426
G1 X-14.664 Y21.464 E0.01426
G1 X-15.107 Y21.359 E0.01426
G1 X-15.558 Y21.301 E0.01426
G1 X-16.013 Y21.289 E0.01426
G1 X-16.466 Y21.324 E0.01426
G1 X-16.914 Y21.406 E0.01426
G1 X-17.351 Y21.533 E0.01426
G1 X-17.772 Y21.704 E0.01426
G1 X-18.174 Y21.918 E0.01426
G1 X-18.551 Y22.172 E0.01426
G1 X-18.9 Y22.463 E0.01426
G1 X-19.218 Y22.789 E0.01426
G1 X-19.5 Y23.146 E0.01426
G1 X-19.744 Y23.53 E0.01426
G1 X-19.948 Y23.936 E0.01426
G1 X-20.108 Y24.362 E0.01426
G1 X-20.224 Y24.802 E0.01426
G1 X-20.294 Y25.251 E0.01426
G1 X-20.317 Y25.706 E0.01426
G1 X-20.294 Y26.16 E0.01426
G1 X-20.224 Y26.61 E0.01426
G1 X-20.108 Y27.049 E0.01426
G1 X-19.948 Y27.475 E0.01426
G1 X-19.744 Y27.882 E0.01426
G1 X-19.5 Y28.266 E0.01426
G1 X-19.218 Y28.623 E0.01426
G1 X-18.9 Y28.948 E0.01426
G1 X-18.551 Y29.24 E0.01426
G1 X-18.174 Y29.494 E0.01426
G1 X-17.772 Y29.707 E0.01426
G1 X-17.351 Y29.879 E0.01426
G1 X-16.914 Y30.006 E0.01426
G1 X-16.466 Y30.088 E0.01426
G1 X-16.013 Y30.123 E0.01426
G1 X-15.558 Y30.111 E0.01426
G1 X-15.107 Y30.052 E0.01426
G1 X-14.664 Y29.948 E0.01426
G1 X-14.235 Y29.799 E0.01426
G1 X-13.823 Y29.606 E0.01426
G1 X-13.433 Y29.372 E0.01426
G1 X-13.069 Y29.099 E0.01426
G1 X-12.735 Y28.79 E0.01426
G1 X-12.435 Y28.448 E0.01426
G1 X-12.171 Y28.077 E0.01426
G1 X-11.947 Y27.681 E0.01426
G1 X-11.765 Y27.264 E0.01426
G1 X-11.627 Y26.831 E0.01426
G1 X-11.533 Y26.386 E0.01426
G1 X-11.487 Y25.933 E0.01426
G1 X-11.487 Y25.577 E0.01116
G1 X-11.864 Y25.498 F10800
G1 F1200
G1 X-11.907 Y25.084 E0.01304
G1 X-11.992 Y24.677 E0.01304
G1 X-12.118 Y24.28 E0.01304
G1 X-12.285 Y23.899 E0.01304
G1 X-12.49 Y23.537 E0.01304
G1 X-12.731 Y23.198 E0.01304
G1 X-13.005 Y22.886 E0.01304
G1 X-13.311 Y22.603 E0.01304
G1 X-13.643 Y22.353 E0.01304
G1 X-14 Y22.139 E0.01304
G1 X-14.377 Y21.963 E0.01304
G1 X-14.77 Y21.826 E0.01304
G1 X-15.175 Y21.731 E0.01304
G1 X-15.587 Y21.677 E0.01304
G1 X-16.003 Y21.666 E0.01304
G1 X-16.418 Y21.699 E0.01304
G1 X-16.827 Y21.773 E0.01304
G1 X-17.227 Y21.889 E0.01304
G1 X-17.612 Y22.046 E0.01304
G1 X-17.979 Y22.242 E0.01304
G1 X-18.324 Y22.474 E0.01304
G1 X-18.644 Y22.74 E0.01304
G1 X-18.934 Y23.038 E0.01304
G1 X-19.192 Y23.365 E0.01304
G1 X-19.416 Y23.716 E0.01304
G1 X-19.602 Y24.088 E0.01304
G1 X-19.748 Y24.477 E0.01304
G1 X-19.854 Y24.879 E0.01304
G1 X-19.918 Y25.29 E0.01304
G1 X-19.94 Y25.706 E0.01304
G1 X-19.918 Y26.121 E0.01304
G1 X-19.854 Y26.532 E0.01304
G1 X-19.748 Y26.935 E0.01304
G1 X-19.602 Y27.324 E0.01304
G1 X-19.416 Y27.696 E0.01304
G1 X-19.192 Y28.047 E0.01304
G1 X-18.934 Y28.373 E0.01304
G1 X-18.644 Y28.671 E0.01304
G1 X-18.324 Y28.938 E0.01304
G1 X-17.979 Y29.17 E0.01304
G1 X-17.612 Y29.365 E0.01304
G1 X-17.227 Y29.522 E0.01304
G1 X-16.827 Y29.638 E0.01304
G1 X-16.418 Y29.713 E0.01304
G1 X-16.003 Y29.745 E0.01304
G1 X-15.587 Y29.734 E0.01304
G1 X-15.175 Y29.681 E0.01304
G1 X-14.77 Y29.585 E0.01304
G1 X-14.377 Y29.449 E0.01304
G1 X-14 Y29.272 E0.01304
G1 X-13.643 Y29.058 E0.01304
G1 X-13.311 Y28.809 E0.01304
G1 X-13.005 Y28.526 E0.01304
G1 X-12.731 Y28.213 E0.01304
G1 X-12.49 Y27.874 E0.01304
G1 X-12.285 Y27.512 E0.01304
G1 X-12.118 Y27.131 E0.01304
G1 X-11.992 Y26.735 E0.01304
G1 X-11.907 Y26.328 E0.01304
G1 X-11.864 Y25.914 E0.01304
G1 X-11.864 Y25.558 E0.01116
G1 X-12.241 Y25.517 F10800
;TYPE:External perimeter
G1 F1200
G1 X-12.28 Y25.142 E0.01182
G1 X-12.357 Y24.773 E0.01183
G1 X-12.471 Y24.414 E0.01182
G1 X-12.623 Y24.068 E0.01183
G1 X-12.808 Y23.74 E0.01182
G1 X-13.027 Y23.432 E0.01183
G1 X-13.276 Y23.149 E0.01183
G1 X-13.553 Y22.893 E0.01182
G1 X-13.854 Y22.667 E0.01182
G1 X-14.178 Y22.472 E0.01183
G1 X-14.519 Y22.313 E0.01183
G1 X-14.875 Y22.189 E0.01183
G1 X-15.242 Y22.102 E0.01183
G1 X-15.616 Y22.054 E0.01183
G1 X-15.993 Y22.044 E0.01183
G1 X-16.369 Y22.073 E0.01183
G1 X-16.741 Y22.141 E0.01183
G1 X-17.103 Y22.246 E0.01182
G1 X-17.452 Y22.388 E0.01183
G1 X-17.785 Y22.565 E0.01182
G1 X-18.098 Y22.776 E0.01183
G1 X-18.387 Y23.017 E0.01182
G1 X-18.651 Y23.288 E0.01183
G1 X-18.885 Y23.583 E0.01183
G1 X-19.087 Y23.902 E0.01183
G1 X-19.256 Y24.239 E0.01183
G1 X-19.389 Y24.592 E0.01183
G1 X-19.485 Y24.956 E0.01183
G1 X-19.543 Y25.329 E0.01183
G1 X-19.562 Y25.706 E0.01183
G1 X-19.543 Y26.082 E0.01183
G1 X-19.485 Y26.455 E0.01183
G1 X-19.389 Y26.82 E0.01183
G1 X-19.256 Y27.173 E0.01183
G1 X-19.087 Y27.51 E0.01182
G1 X-18.885 Y27.828 E0.01183
G1 X-18.651 Y28.124 E0.01183
G1 X-18.387 Y28.394 E0.01183
G1 X-18.098 Y28.636 E0.01182
G1 X-17.785 Y28.846 E0.01183
G1 X-17.452 Y29.024 E0.01183
G1 X-17.103 Y29.166 E0.01183
G1 X-16.741 Y29.271 E0.01182
G1 X-16.369 Y29.339 E0.01183
G1 X-15.993 Y29.368 E0.01183
G1 X-15.616 Y29.358 E0.01183
G1 X-15.242 Y29.31 E0.01183
G1 X-14.875 Y29.223 E0.01183
G1 X-14.519 Y29.099 E0.01183
G1 X-14.178 Y28.939 E0.01182
G1 X-13.854 Y28.745 E0.01183
G1 X-13.553 Y28.519 E0.01182
G1 X-13.276 Y28.262 E0.01183
G1 X-13.027 Y27.979 E0.01183
G1 X-12.808 Y27.672 E0.01182
G1 X-12.623 Y27.344 E0.01183
G1 X-12.471 Y26.998 E0.01183
G1 X-12.357 Y26.639 E0.01182
G1 X-12.28 Y26.27 E0.01183
G1 X-12.241 Y25.894 E0.01182
G1 X-12.241 Y25.577 E0.00994
;WIPE_START
M204 S1000
G1 X-11.909 Y25.294 F10800
;WIPE_END
G1 E-3.5 F3600
;WIPE_START
G1 F8640
G1 X-12.082 Y25.111 E-0.09952
G1 X-12.163 Y24.722 E-0.15746
G1 X-12.284 Y24.343 E-0.15745
G1 X-12.443 Y23.978 E-0.15745
G1 X-12.639 Y23.632 E-0.15745
G1 X-12.87 Y23.308 E-0.15745
G1 X-13.132 Y23.009 E-0.15745
G1 X-13.424 Y22.739 E-0.15744
G1 X-13.742 Y22.5 E-0.15745
G1 X-13.885 Y22.415 E-0.06589
;WIPE_END
G1 E-0.075 F3600
; acceleration to travel
M204 S1500
G1 X-11.451 Y20.541 F10800
; decel to extrusion
M204 S800
G1 X-10.978 Y20.177
; end travel
G1 E5 F2400
;TYPE:Internal perimeter
G1 F1200
G1 X-10.355 Y20.325 E0.02006
G1 X-8.786 Y20.654 E0.05028
G1 X-6.467 Y21.062 E0.07383
G1 X-4.943 Y21.279 E0.04826
G1 X-3.417 Y21.454 E0.04817
G1 X-1.953 Y21.583 E0.04607
G1 X-0.482 Y21.673 E0.04621
G1 X0.974 Y21.723 E0.04567
G1 X2.415 Y21.733 E0.04519
G1 X3.843 Y21.707 E0.04478
G1 X5.258 Y21.643 E0.04441
G1 X6.661 Y21.543 E0.04409
G1 X8.052 Y21.409 E0.04382
G1 X9.432 Y21.241 E0.04361
G1 X10.802 Y21.041 E0.04339
G1 X12.155 Y20.811 E0.04306
G1 X13.479 Y20.554 E0.04227
