; generated by SuperSlicer 2.4 on 2023-03-11 at 03:32:55 UTC


;
;

;
;
; 

; external perimeters extrusion width = 0.45mm
; perimeters extrusion width = 0.45mm
; infill extrusion width = 0.45mm
; solid infill extrusion width = 0.45mm
; top infill extrusion width = 0.40mm
; first layer extrusion width = 0.42mm

; object:{"name":"brio_cross_fixed","id":"brio_cross_fixed.stl id:0 copy 0","object_center":[0.000000,0.000000,0.000000],"boundingbox_center":[0.000000,0.000000,6.000000],"boundingbox_size":[71.955704,71.955704,12.000001]}
; plater:{"center":[0.000000,0.000000,0.000000],"boundingbox_center":[0.000000,0.000000,6.000000],"boundingbox_size":[71.955704,71.955704,12.000001]}

;TYPE:Custom
START_PRINT
M107
G21 ; set units to millimeters
G90 ; use absolute coordinates
M83 ; use relative distances for extrusion
; Filament gcode
;_TOOLCHANGE 0
M104 S200 ; set temperature
M109 S200 ; set temperature and wait for it to be reached
M190 S60 ; set bed temperature and wait for it to be reached
M107
;LAYER_CHANGE
;Z:0.2
;HEIGHT:0.2
;BEFORE_LAYER_CHANGE
G92 E0
;0.2
G1 E-5 F3600
G1 Z0.2 F10800
;AFTER_LAYER_CHANGE
;0.2
M204 S1000
G1 X23.976 Y-22.049
G1 E5 F2400
;TYPE:Skirt
;WIDTH:0.52
G1 F1200
G1 X22.887 Y-23.233 E0.0638
G1 X6.358 Y-38.406 E0.89007
G1 X4.599 Y-39.711 E0.08688
G1 X2.8 Y-40.585 E0.07938
G1 X0.868 Y-41.132 E0.07964
G1 X-0.631 Y-41.305 E0.05985
G1 X-1.826 Y-41.305 E0.04741
G1 X-3.324 Y-41.132 E0.05985
G1 X-4.593 Y-40.808 E0.05195
G1 X-5.717 Y-40.391 E0.04755
G1 X-38.517 Y-24.143 E1.45206
G1 X-40.162 Y-22.915 E0.08144
G1 X-41.297 Y-21.114 E0.08445
G1 X-41.693 Y-19.022 E0.08445
G1 X-41.693 Y21.478 E1.60663
G1 X-41.218 Y23.76 E0.09247
G1 X-40.019 Y25.52 E0.08445
G1 X-25.52 Y40.019 E0.81344
G1 X-23.57 Y41.297 E0.09247
G1 X-21.478 Y41.693 E0.08445
G1 X19.022 Y41.693 E1.60663
G1 X21.042 Y41.325 E0.08144
G1 X22.858 Y40.215 E0.08445
G1 X24.143 Y38.517 E0.08445
G1 X40.008 Y6.522 E1.41668
G1 X40.808 Y4.594 E0.08282
G1 X41.168 Y3.129 E0.05982
G1 X41.305 Y1.826 E0.05199
G1 X41.305 Y0.631 E0.04741
G1 X41.132 Y-0.868 E0.05985
G1 X40.655 Y-2.612 E0.07171
G1 X40.052 Y-3.976 E0.05919
G1 X39.429 Y-5.033 E0.04866
G1 X38.403 Y-6.361 E0.06654
G1 X24.017 Y-22.005 E0.84313
G1 X23.667 Y-21.683 F10800
G1 F1200
G1 X22.565 Y-22.881 E0.06458
G1 X6.036 Y-38.054 E0.89007
G1 X4.357 Y-39.3 E0.08291
G1 X2.634 Y-40.138 E0.07604
G1 X0.784 Y-40.663 E0.07627
G1 X-0.672 Y-40.83 E0.05814
G1 X-1.784 Y-40.83 E0.04411
G1 X-3.24 Y-40.663 E0.05814
G1 X-4.903 Y-40.208 E0.0684
G1 X-6.31 Y-39.58 E0.06112
G1 X-38.305 Y-23.715 E1.41667
G1 X-39.692 Y-22.717 E0.06778
G1 X-40.82 Y-21.021 E0.08082
G1 X-41.216 Y-19.022 E0.08082
G1 X-41.216 Y21.478 E1.60663
G1 X-40.815 Y23.489 E0.08135
G1 X-39.682 Y25.183 E0.08082
G1 X-25.183 Y39.682 E0.81344
G1 X-23.477 Y40.82 E0.08135
G1 X-21.478 Y41.216 E0.08082
G1 X19.022 Y41.216 E1.60663
G1 X20.708 Y40.938 E0.06778
G1 X22.473 Y39.919 E0.08082
G1 X23.715 Y38.305 E0.08082
G1 X39.58 Y6.31 E1.41668
G1 X40.348 Y4.467 E0.0792
G1 X40.698 Y3.045 E0.05811
G1 X40.83 Y1.784 E0.05028
G1 X40.83 Y0.672 E0.04411
G1 X40.663 Y-0.784 E0.05814
G1 X40.208 Y-2.446 E0.06835
G1 X39.621 Y-3.772 E0.05754
G1 X39.041 Y-4.755 E0.04526
G1 X38.052 Y-6.038 E0.06427
G1 X23.707 Y-21.639 E0.84073
G1 E-3.5 F3600
;WIPE_START
G1 F8640
G1 X22.565 Y-22.881 E-0.66812
G1 X21.156 Y-24.174 E-0.75688
;WIPE_END
G1 E-0.075 F3600
; printing object brio_cross_fixed.stl id:0 copy 0
; acceleration to travel
M204 S1500
G1 X-11.863 Y11.372 F10800
; decel to extrusion
M204 S800
G1 X-18.282 Y18.282
; end travel
G1 E5 F2400
;TYPE:Internal perimeter
;WIDTH:0.42
G1 F1200
G1 X-18.282 Y35.391 E0.53643
G1 X-20.891 Y35.391 E0.08181
G1 X-20.891 Y20.891 E0.45462
G1 X-35.391 Y20.891 E0.45462
G1 X-35.391 Y18.282 E0.08181
G1 X-18.342 Y18.282 E0.53455
G1 X-17.905 Y17.905 F10800
;TYPE:External perimeter
G1 F1200
G1 X-17.905 Y35.768 E0.56008
G1 X-21.268 Y35.768 E0.10545
G1 X-21.268 Y21.268 E0.45462
G1 X-35.768 Y21.268 E0.45462
G1 X-35.768 Y17.905 E0.10545
G1 X-17.965 Y17.905 E0.5582
;WIPE_START
M204 S1000
G1 X-18.105 Y18.251 F10800
;WIPE_END
G1 X-18.395 Y19.157
;TYPE:Solid infill
;WIDTH:0.422932
G1 F1200
G1 X-18.995 Y18.557 E0.0268
G1 X-19.529 Y18.557 E0.01684
G1 X-18.557 Y19.529 E0.04337
G1 X-18.557 Y20.062 E0.01684
G1 X-20.062 Y18.557 E0.06718
G1 X-20.595 Y18.557 E0.01684
G1 X-18.557 Y20.595 E0.09099
G1 X-18.557 Y21.128 E0.01684
G1 X-21.128 Y18.557 E0.1148
G1 X-21.662 Y18.557 E0.01684
G1 X-18.557 Y21.662 E0.13861
G1 X-18.557 Y22.195 E0.01684
G1 X-22.195 Y18.557 E0.16242
G1 X-22.728 Y18.557 E0.01684
G1 X-18.557 Y22.728 E0.18623
G1 X-18.557 Y23.261 E0.01684
G1 X-20.616 Y21.203 E0.09192
G1 X-20.616 Y21.736 E0.01684
G1 X-18.557 Y23.795 E0.09192
G1 X-18.557 Y24.328 E0.01684
G1 X-20.616 Y22.269 E0.09192
G1 X-20.616 Y22.803 E0.01684
G1 X-18.557 Y24.861 E0.09192
G1 X-18.557 Y25.395 E0.01684
G1 X-20.616 Y23.336 E0.09192
G1 X-20.616 Y23.869 E0.01684
G1 X-18.557 Y25.928 E0.09192
G1 X-18.557 Y26.461 E0.01684
G1 X-20.616 Y24.402 E0.09192
G1 X-20.616 Y24.936 E0.01684
G1 X-18.557 Y26.994 E0.09192
G1 X-18.557 Y27.528 E0.01684
G1 X-20.616 Y25.469 E0.09192
G1 X-20.616 Y26.002 E0.01684
G1 X-18.557 Y28.061 E0.09192
G1 X-18.557 Y28.594 E0.01684
G1 X-20.616 Y26.535 E0.09192
G1 X-20.616 Y27.069 E0.01684
G1 X-18.557 Y29.127 E0.09192
G1 X-18.557 Y29.661 E0.01684
G1 X-20.616 Y27.602 E0.09192
G1 X-20.616 Y28.135 E0.01684
G1 X-18.557 Y30.194 E0.09192
G1 X-18.557 Y30.727 E0.01684
G1 X-20.616 Y28.669 E0.09192
G1 X-20.616 Y29.202 E0.01684
G1 X-18.557 Y31.261 E0.09192
G1 X-18.557 Y31.794 E0.01684
G1 X-20.616 Y29.735 E0.09192
G1 X-20.616 Y30.268 E0.01684
G1 X-18.557 Y32.327 E0.09192
G1 X-18.557 Y32.86 E0.01684
G1 X-20.616 Y30.802 E0.09192
G1 X-20.616 Y31.335 E0.01684
G1 X-18.557 Y33.394 E0.09192
G1 X-18.557 Y33.927 E0.01684
G1 X-20.616 Y31.868 E0.09192
G1 X-20.616 Y32.401 E0.01684
G1 X-18.557 Y34.46 E0.09192
G1 X-18.557 Y34.993 E0.01684
G1 X-20.616 Y32.935 E0.09192
G1 X-20.616 Y33.468 E0.01684
G1 X-18.968 Y35.116 E0.07356
G1 X-19.502 Y35.116 E0.01684
G1 X-20.616 Y34.001 E0.04975
G1 X-20.616 Y34.535 E0.01684
G1 X-20.035 Y35.116 E0.02594
G1 X-20.568 Y35.116 E0.01684
G1 X-20.778 Y34.906 E0.00937
G1 E-3.5 F3600
;WIPE_START
G1 F8640
G1 X-20.568 Y35.116 E-0.11749
G1 X-20.035 Y35.116 E-0.21109
G1 X-20.616 Y34.535 E-0.32524
G1 X-20.616 Y34.001 E-0.21109
G1 X-19.615 Y35.002 E-0.5601
;WIPE_END
G1 E-0.075 F3600
; acceleration to travel
M204 S1500
G1 X-20.762 Y23.559 F10800
; decel to extrusion
M204 S1000
G1 X-21.041 Y20.778
; end travel
G1 E5 F2400
G1 F1200
G1 X-23.261 Y18.557 E0.09916
G1 X-23.795 Y18.557 E0.01684
G1 X-21.736 Y20.616 E0.09192
G1 X-22.269 Y20.616 E0.01684
G1 X-24.328 Y18.557 E0.09192
G1 X-24.861 Y18.557 E0.01684
G1 X-22.803 Y20.616 E0.09192
G1 X-23.336 Y20.616 E0.01684
G1 X-25.395 Y18.557 E0.09192
G1 X-25.928 Y18.557 E0.01684
G1 X-23.869 Y20.616 E0.09192
G1 X-24.402 Y20.616 E0.01684
G1 X-26.461 Y18.557 E0.09192
G1 X-26.994 Y18.557 E0.01684
G1 X-24.936 Y20.616 E0.09192
G1 X-25.469 Y20.616 E0.01684
G1 X-27.528 Y18.557 E0.09192
G1 X-28.061 Y18.557 E0.01684
G1 X-26.002 Y20.616 E0.09192
G1 X-26.535 Y20.616 E0.01684
G1 X-28.594 Y18.557 E0.09192
G1 X-29.127 Y18.557 E0.01684
G1 X-27.069 Y20.616 E0.09192
G1 X-27.602 Y20.616 E0.01684
G1 X-29.661 Y18.557 E0.09192
G1 X-30.194 Y18.557 E0.01684
G1 X-28.135 Y20.616 E0.09192
G1 X-28.669 Y20.616 E0.01684
G1 X-30.727 Y18.557 E0.09192
G1 X-31.261 Y18.557 E0.01684
G1 X-29.202 Y20.616 E0.09192
G1 X-29.735 Y20.616 E0.01684
G1 X-31.794 Y18.557 E0.09192
G1 X-32.327 Y18.557 E0.01684
G1 X-30.268 Y20.616 E0.09192
G1 X-30.802 Y20.616 E0.01684
G1 X-32.86 Y18.557 E0.09192
G1 X-33.394 Y18.557 E0.01684
G1 X-31.335 Y20.616 E0.09192
G1 X-31.868 Y20.616 E0.01684
G1 X-33.927 Y18.557 E0.09192
G1 X-34.46 Y18.557 E0.01684
G1 X-32.401 Y20.616 E0.09192
G1 X-32.935 Y20.616 E0.01684
G1 X-34.993 Y18.557 E0.09192
G1 X-35.116 Y18.557 E0.00386
G1 X-35.116 Y18.968 E0.01298
G1 X-33.468 Y20.616 E0.07356
G1 X-34.001 Y20.616 E0.01684
G1 X-35.116 Y19.502 E0.04975
G1 X-35.116 Y20.035 E0.01684
G1 X-34.535 Y20.616 E0.02594
G1 X-35.068 Y20.616 E0.01684
G1 X-35.278 Y20.406 E0.00937
G1 E-3.5 F3600
;WIPE_START
G1 F8640
G1 X-35.068 Y20.616 E-0.11749
G1 X-34.535 Y20.616 E-0.21109
G1 X-35.116 Y20.035 E-0.32524
G1 X-35.116 Y19.502 E-0.21109
G1 X-34.115 Y20.502 E-0.5601
;WIPE_END
G1 E-0.075 F3600
; acceleration to travel
M204 S1500
G1 X-35.088 Y11.855 F10800
; decel to extrusion
M204 S800
G1 X-35.278 Y10.174
; end travel
G1 E5 F2400
;TYPE:Internal perimeter
;WIDTH:0.42
G1 F1200
G1 X-35.391 Y10.174 E0.00355
G1 X-35.391 Y5.464 E0.14768
G1 X-32.136 Y5.464 E0.10205
G1 X-31.559 Y6.173 E0.02866
G1 X-30.617 Y6.983 E0.03895
G1 X-29.547 Y7.616 E0.03898
G1 X-28.385 Y8.055 E0.03895
G1 X-27.164 Y8.283 E0.03896
G1 X-25.921 Y8.294 E0.03897
G1 X-24.696 Y8.09 E0.03894
G1 X-23.524 Y7.672 E0.03901
G1 X-22.443 Y7.057 E0.03899
G1 X-21.487 Y6.263 E0.03896
G1 X-20.684 Y5.314 E0.03898
G1 X-20.06 Y4.239 E0.03897
G1 X-19.634 Y3.073 E0.03893
G1 X-19.417 Y1.849 E0.03899
G1 X-19.417 Y0.606 E0.03895
G1 X-19.634 Y-0.618 E0.039
G1 X-20.06 Y-1.783 E0.03889
G1 X-20.684 Y-2.859 E0.03901
G1 X-21.487 Y-3.807 E0.03895
G1 X-22.443 Y-4.602 E0.03897
G1 X-23.524 Y-5.218 E0.03903
G1 X-24.696 Y-5.634 E0.03898
G1 X-25.92 Y-5.84 E0.03893
G1 X-27.164 Y-5.829 E0.03899
G1 X-28.385 Y-5.602 E0.03896
G1 X-29.548 Y-5.162 E0.03896
G1 X-30.618 Y-4.528 E0.03901
G1 X-31.559 Y-3.717 E0.03896
G1 X-32.136 Y-3.009 E0.02863
G1 X-35.391 Y-3.009 E0.10206
G1 X-35.391 Y-7.718 E0.14764
G1 X-18.282 Y-7.718 E0.53643
G1 X-18.282 Y10.174 E0.56098
G1 X-35.218 Y10.174 E0.531
G1 X-35.278 Y10.551 F10800
;TYPE:External perimeter
G1 F1200
G1 X-35.768 Y10.551 E0.01537
G1 X-35.768 Y5.087 E0.17133
G1 X-31.957 Y5.087 E0.1195
G1 X-31.288 Y5.909 E0.03323
G1 X-30.396 Y6.675 E0.03686
G1 X-29.383 Y7.275 E0.03691
G1 X-28.283 Y7.691 E0.03688
G1 X-27.127 Y7.906 E0.03687
G1 X-25.95 Y7.917 E0.0369
G1 X-24.791 Y7.724 E0.03686
G1 X-23.682 Y7.328 E0.03692
G1 X-22.658 Y6.746 E0.03691
G1 X-21.754 Y5.995 E0.03688
G1 X-20.994 Y5.096 E0.0369
G1 X-20.402 Y4.079 E0.03689
G1 X-19.999 Y2.975 E0.03685
G1 X-19.794 Y1.815 E0.03692
G1 X-19.794 Y0.64 E0.03687
G1 X-19.999 Y-0.52 E0.03692
G1 X-20.402 Y-1.623 E0.03682
G1 X-20.994 Y-2.641 E0.03692
G1 X-21.754 Y-3.538 E0.03687
G1 X-22.658 Y-4.291 E0.03689
G1 X-23.682 Y-4.874 E0.03694
G1 X-24.791 Y-5.267 E0.03689
G1 X-25.95 Y-5.463 E0.03686
G1 X-27.127 Y-5.453 E0.03691
G1 X-28.283 Y-5.237 E0.03687
G1 X-29.383 Y-4.821 E0.03688
G1 X-30.397 Y-4.22 E0.03693
G1 X-31.288 Y-3.453 E0.03688
G1 X-31.957 Y-2.632 E0.0332
G1 X-35.768 Y-2.632 E0.1195
G1 X-35.768 Y-8.095 E0.17129
G1 X-17.905 Y-8.095 E0.56008
G1 X-17.905 Y10.551 E0.58462
G1 X-35.218 Y10.551 E0.54283
;WIPE_START
M204 S1000
G1 X-35.478 Y10.205 F10800
;WIPE_END
G1 E-3.5 F3600
;WIPE_START
G1 F8640
G1 X-35.544 Y6.605 E-1.425
;WIPE_END
G1 E-0.075 F3600
; acceleration to travel
M204 S1500
G1 X-22.361 Y-4.827 F10800
; decel to extrusion
M204 S1000
G1 X-19.157 Y-7.605
; end travel
G1 E5 F2400
;TYPE:Solid infill
;WIDTH:0.421094
G1 F1200
G1 X-18.557 Y-7.004 E0.02668
G1 X-18.557 Y-6.471 E0.01676
G1 X-19.529 Y-7.442 E0.04318
G1 X-20.062 Y-7.442 E0.01676
G1 X-18.557 Y-5.938 E0.06689
G1 X-18.557 Y-5.405 E0.01676
G1 X-20.595 Y-7.442 E0.09059
G1 X-21.128 Y-7.442 E0.01676
G1 X-18.557 Y-4.871 E0.1143
G1 X-18.557 Y-4.338 E0.01676
G1 X-21.662 Y-7.442 E0.13801
G1 X-22.195 Y-7.442 E0.01676
G1 X-18.557 Y-3.805 E0.16172
G1 X-18.557 Y-3.272 E0.01676
G1 X-22.728 Y-7.442 E0.18543
G1 X-23.261 Y-7.442 E0.01676
G1 X-18.557 Y-2.738 E0.20913
G1 X-18.557 Y-2.205 E0.01676
G1 X-23.795 Y-7.442 E0.23284
G1 X-24.328 Y-7.442 E0.01676
G1 X-18.557 Y-1.672 E0.25655
G1 X-18.557 Y-1.139 E0.01676
G1 X-24.861 Y-7.442 E0.28026
G1 X-25.395 Y-7.442 E0.01676
G1 X-23.429 Y-5.477 E0.0874
G1 X-24.255 Y-5.77 E0.02756
G1 X-25.928 Y-7.442 E0.07438
G1 X-26.461 Y-7.442 E0.01676
G1 X-24.979 Y-5.961 E0.06587
G1 X-25.621 Y-6.069 E0.02044
G1 X-26.994 Y-7.442 E0.06107
G1 X-27.528 Y-7.442 E0.01676
G1 X-26.198 Y-6.113 E0.05911
G1 X-26.727 Y-6.108 E0.01662
G1 X-28.061 Y-7.442 E0.05931
G1 X-28.594 Y-7.442 E0.01676
G1 X-27.246 Y-6.094 E0.05994
G1 X-27.695 Y-6.01 E0.01437
G1 X-29.127 Y-7.442 E0.06367
G1 X-29.661 Y-7.442 E0.01676
G1 X-28.145 Y-5.927 E0.0674
G1 X-28.46 Y-5.868 E0.01007
G1 X-28.576 Y-5.824 E0.00389
G1 X-30.194 Y-7.442 E0.07195
G1 X-30.727 Y-7.442 E0.01676
G1 X-28.963 Y-5.678 E0.07846
G1 X-29.349 Y-5.531 E0.01301
G1 X-31.261 Y-7.442 E0.08496
G1 X-31.794 Y-7.442 E0.01676
G1 X-29.727 Y-5.376 E0.09188
G1 X-30.062 Y-5.177 E0.01223
G1 X-32.327 Y-7.442 E0.10071
G1 X-32.86 Y-7.442 E0.01676
G1 X-30.397 Y-4.979 E0.10953
G1 X-30.731 Y-4.78 E0.01223
G1 X-33.394 Y-7.442 E0.11836
G1 X-33.927 Y-7.442 E0.01676
G1 X-31.025 Y-4.54 E0.12903
G1 X-31.311 Y-4.293 E0.01189
G1 X-34.46 Y-7.442 E0.14
G1 X-34.993 Y-7.442 E0.01676
G1 X-31.598 Y-4.047 E0.15097
G1 X-31.757 Y-3.909 E0.00661
G1 X-31.863 Y-3.779 E0.00529
G1 X-35.116 Y-7.031 E0.14459
G1 X-35.116 Y-6.498 E0.01676
G1 X-32.103 Y-3.485 E0.13395
G1 X-32.266 Y-3.284 E0.00815
G1 X-32.435 Y-3.284 E0.0053
G1 X-35.116 Y-5.965 E0.11917
G1 X-35.116 Y-5.432 E0.01676
G1 X-32.968 Y-3.284 E0.09547
G1 X-33.501 Y-3.284 E0.01676
G1 X-35.116 Y-4.898 E0.07176
G1 X-35.116 Y-4.365 E0.01676
G1 X-34.035 Y-3.284 E0.04805
G1 X-34.568 Y-3.284 E0.01676
G1 X-35.116 Y-3.832 E0.02434
G1 X-35.116 Y-3.298 E0.01676
G1 X-34.939 Y-3.122 E0.00784
G1 E-3.5 F3600
;WIPE_START
G1 F8640
G1 X-35.116 Y-3.298 E-0.09877
G1 X-35.116 Y-3.832 E-0.21109
G1 X-34.568 Y-3.284 E-0.30653
G1 X-34.035 Y-3.284 E-0.21109
G1 X-35.102 Y-4.352 E-0.59753
;WIPE_END
G1 E-0.075 F3600
; acceleration to travel
M204 S1500
G1 X-23.111 Y-2.657 F10800
; decel to extrusion
M204 S1000
G1 X-20.197 Y-2.245
; end travel
G1 E5 F2400
G1 F1200
G1 X-18.557 Y-0.605 E0.07289
G1 X-18.557 Y-0.072 E0.01676
G1 X-19.477 Y-0.992 E0.04089
G1 X-19.367 Y-0.69 E0.0101
G1 X-19.293 Y-0.275 E0.01326
G1 X-18.557 Y0.461 E0.03272
G1 X-18.557 Y0.995 E0.01676
G1 X-19.178 Y0.373 E0.02761
G1 X-19.141 Y0.582 E0.00666
G1 X-19.141 Y0.944 E0.01136
G1 X-18.557 Y1.528 E0.02597
G1 X-18.557 Y2.061 E0.01676
G1 X-19.141 Y1.477 E0.02597
G1 X-19.141 Y1.873 E0.01244
G1 X-19.162 Y1.99 E0.00373
G1 X-18.557 Y2.594 E0.02689
G1 X-18.557 Y3.128 E0.01676
G1 X-19.242 Y2.443 E0.03046
G1 X-19.323 Y2.896 E0.01446
G1 X-18.557 Y3.661 E0.03402
G1 X-18.557 Y4.194 E0.01676
G1 X-19.431 Y3.321 E0.03884
G1 X-19.574 Y3.711 E0.01307
G1 X-18.557 Y4.727 E0.04518
G1 X-18.557 Y5.261 E0.01676
G1 X-19.716 Y4.102 E0.05153
G1 X-19.809 Y4.357 E0.00854
G1 X-19.878 Y4.474 E0.00426
G1 X-18.557 Y5.794 E0.05869
G1 X-18.557 Y6.327 E0.01676
G1 X-20.074 Y4.811 E0.06741
G1 X-20.27 Y5.148 E0.01226
G1 X-18.557 Y6.861 E0.07612
G1 X-18.557 Y7.394 E0.01676
G1 X-20.467 Y5.484 E0.08491
G1 X-20.712 Y5.773 E0.0119
G1 X-18.557 Y7.927 E0.09578
G1 X-18.557 Y8.46 E0.01676
G1 X-20.956 Y6.062 E0.10664
G1 X-21.2 Y6.351 E0.0119
G1 X-18.557 Y8.994 E0.1175
G1 X-18.557 Y9.527 E0.01676
G1 X-21.474 Y6.61 E0.12967
G1 X-21.765 Y6.852 E0.0119
G1 X-18.719 Y9.899 E0.13544
G1 X-19.252 Y9.899 E0.01676
G1 X-22.057 Y7.094 E0.12469
G1 X-22.286 Y7.284 E0.00937
G1 X-22.358 Y7.326 E0.00262
G1 X-19.785 Y9.899 E0.11439
G1 X-20.319 Y9.899 E0.01676
G1 X-22.698 Y7.519 E0.1058
G1 X-23.038 Y7.712 E0.01229
G1 X-20.852 Y9.899 E0.0972
G1 X-21.385 Y9.899 E0.01676
G1 X-23.378 Y7.906 E0.0886
G1 X-23.409 Y7.923 E0.00111
G1 X-23.766 Y8.051 E0.01194
G1 X-21.918 Y9.899 E0.08215
G1 X-22.452 Y9.899 E0.01676
G1 X-24.159 Y8.191 E0.07592
G1 X-24.552 Y8.331 E0.01312
G1 X-22.985 Y9.899 E0.06968
G1 X-23.518 Y9.899 E0.01676
G1 X-24.998 Y8.419 E0.06577
G1 X-25.455 Y8.495 E0.01457
G1 X-24.052 Y9.899 E0.06239
G1 X-24.585 Y9.899 E0.01676
G1 X-25.914 Y8.569 E0.05911
G1 X-26.452 Y8.565 E0.01691
G1 X-25.118 Y9.899 E0.05931
G1 X-25.651 Y9.899 E0.01676
G1 X-26.99 Y8.56 E0.05952
G1 X-27.19 Y8.558 E0.0063
G1 X-27.602 Y8.482 E0.01316
G1 X-26.185 Y9.899 E0.063
G1 X-26.718 Y9.899 E0.01676
G1 X-28.257 Y8.359 E0.06844
G1 X-28.46 Y8.322 E0.00647
G1 X-29.052 Y8.098 E0.01991
G1 X-27.251 Y9.899 E0.08007
G1 X-27.784 Y9.899 E0.01676
G1 X-30.037 Y7.646 E0.10014
G1 X-30.778 Y7.207 E0.02708
G1 X-31.757 Y6.366 E0.04058
G1 X-32.267 Y5.739 E0.02539
G1 X-32.477 Y5.739 E0.00662
