; generated by SuperSlicer 2.4 on 2023-12-31 at 01:47:05 UTC


;
;

;
;
; 

; external perimeters extrusion width = 0.45mm
; perimeters extrusion width = 0.45mm
; infill extrusion width = 0.45mm
; solid infill extrusion width = 0.45mm
; top infill extrusion width = 0.40mm
; first layer extrusion width = 0.42mm

; object:{"name":"SprintCap","id":"SprintCap.obj id:0 copy 0","object_center":[0.000000,0.000000,0.000000],"boundingbox_center":[0.000000,0.000000,3.000000],"boundingbox_size":[12.000000,11.998212,6.000000]}
; object:{"name":"SprintCap","id":"SprintCap.obj id:0 copy 1","object_center":[0.000000,17.998212,0.000000],"boundingbox_center":[0.000000,17.998212,3.000000],"boundingbox_size":[12.000000,11.998212,6.000000]}
; object:{"name":"SprintCap","id":"SprintCap.obj id:0 copy 2","object_center":[18.000000,0.000000,0.000000],"boundingbox_center":[18.000000,0.000000,3.000000],"boundingbox_size":[12.000000,11.998212,6.000000]}
; object:{"name":"SprintCap","id":"SprintCap.obj id:0 copy 3","object_center":[18.000000,17.998212,0.000000],"boundingbox_center":[18.000000,17.998212,3.000000],"boundingbox_size":[12.000000,11.998212,6.000000]}
; object:{"name":"SprintCap","id":"SprintCap.obj id:0 copy 4","object_center":[0.000000,-17.998212,0.000000],"boundingbox_center":[0.000000,-17.998212,3.000000],"boundingbox_size":[12.000000,11.998212,6.000000]}
; object:{"name":"SprintCap","id":"SprintCap.obj id:0 copy 5","object_center":[18.000000,-17.998212,0.000000],"boundingbox_center":[18.000000,-17.998212,3.000000],"boundingbox_size":[12.000000,11.998212,6.000000]}
; object:{"name":"SprintCap","id":"SprintCap.obj id:0 copy 6","object_center":[-18.000000,0.000000,0.000000],"boundingbox_center":[-18.000000,0.000000,3.000000],"boundingbox_size":[12.000000,11.998212,6.000000]}
; object:{"name":"SprintCap","id":"SprintCap.obj id:0 copy 7","object_center":[-18.000000,17.998213,0.000000],"boundingbox_center":[-18.000000,17.998213,3.000000],"boundingbox_size":[12.000000,11.998212,6.000000]}
; plater:{"center":[0.000000,0.000001,0.000000],"boundingbox_center":[0.000000,0.000001,3.000000],"boundingbox_size":[48.000000,47.994637,6.000000]}

;TYPE:Custom
START_PRINT
M107
G21 ; set units to millimeters
G90 ; use absolute coordinates
M83 ; use relative distances for extrusion
; Filament gcode
;_TOOLCHANGE 0
M104 S200 ; set temperature
M109 S200 ; set temperature and wait for it to be reached
M190 S60 ; set bed temperature and wait for it to be reached
M107
;LAYER_CHANGE
;Z:0.2
;HEIGHT:0.2
;BEFORE_LAYER_CHANGE
G92 E0
;0.2
G1 E-5 F3600
G1 Z0.2 F10800
;AFTER_LAYER_CHANGE
;0.2
M204 S1000
G1 X-17.196 Y-17.198
G1 E5 F2400
;TYPE:Skirt
;WIDTH:0.52
G1 F1200
G1 X-26.017 Y-8.377 E0.49488
G1 X-27.251 Y-6.988 E0.07369
G1 X-28.172 Y-5.568 E0.06715
G1 X-28.806 Y-4.201 E0.05979
G1 X-29.324 Y-2.486 E0.07104
G1 X-29.553 Y-0.997 E0.05979
G1 X-29.573 Y18.694 E0.78112
G1 X-29.439 Y19.887 E0.04761
G1 X-29.183 Y21.059 E0.04761
G1 X-28.844 Y22.108 E0.04371
G1 X-28.217 Y23.478 E0.05979
G1 X-27.596 Y24.505 E0.04761
G1 X-26.872 Y25.463 E0.04761
G1 X-26.052 Y26.34 E0.04761
G1 X-25.147 Y27.128 E0.04761
G1 X-23.656 Y28.119 E0.07104
G1 X-22.296 Y28.769 E0.05979
G1 X-20.682 Y29.278 E0.06714
G1 X-18.895 Y29.558 E0.07172
G1 X18.304 Y29.588 E1.4757
G1 X19.691 Y29.468 E0.0552
G1 X20.868 Y29.232 E0.04762
G1 X22.014 Y28.875 E0.04761
G1 X23.117 Y28.402 E0.04761
G1 X24.165 Y27.817 E0.04761
G1 X25.616 Y26.74 E0.07172
G1 X26.479 Y25.905 E0.04761
G1 X27.251 Y24.986 E0.04761
G1 X28.172 Y23.566 E0.06715
G1 X29.007 Y21.642 E0.0832
G1 X29.439 Y19.887 E0.07172
G1 X29.583 Y18.503 E0.0552
G1 X29.594 Y-18.201 E1.45602
G1 X29.439 Y-19.887 E0.06714
G1 X29.007 Y-21.642 E0.07172
G1 X28.217 Y-23.478 E0.07929
G1 X27.251 Y-24.986 E0.07104
G1 X26.052 Y-26.34 E0.07172
G1 X24.672 Y-27.48 E0.07104
G1 X23.656 Y-28.119 E0.04761
G1 X22.67 Y-28.612 E0.04371
G1 X20.682 Y-29.278 E0.0832
G1 X18.895 Y-29.558 E0.07172
G1 X-0.797 Y-29.567 E0.78119
G1 X-2.868 Y-29.232 E0.0832
G1 X-4.014 Y-28.875 E0.04761
G1 X-5.117 Y-28.402 E0.04761
G1 X-6.672 Y-27.48 E0.07172
G1 X-8.017 Y-26.375 E0.06908
G1 X-17.153 Y-17.24 E0.51251
G1 X-16.816 Y-16.903 F10800
G1 F1200
G1 X-25.68 Y-8.039 E0.49726
G1 X-26.878 Y-6.691 E0.07156
G1 X-27.75 Y-5.346 E0.06356
G1 X-28.366 Y-4.016 E0.05816
G1 X-28.856 Y-2.396 E0.06713
G1 X-29.079 Y-0.947 E0.05816
G1 X-29.098 Y18.653 E0.77753
G1 X-28.971 Y19.797 E0.04565
G1 X-28.726 Y20.921 E0.04565
G1 X-28.401 Y21.931 E0.04208
G1 X-27.791 Y23.264 E0.05816
G1 X-27.194 Y24.248 E0.04566
G1 X-26.499 Y25.165 E0.04566
G1 X-25.712 Y26.005 E0.04565
G1 X-24.843 Y26.76 E0.04566
G1 X-23.434 Y27.697 E0.06712
G1 X-22.111 Y28.329 E0.05816
G1 X-20.583 Y28.811 E0.06356
G1 X-18.846 Y29.083 E0.06976
G1 X18.304 Y29.111 E1.47374
G1 X19.609 Y28.998 E0.05193
G1 X20.737 Y28.773 E0.04566
G1 X21.837 Y28.432 E0.04565
G1 X22.895 Y27.98 E0.04566
G1 X23.901 Y27.42 E0.04565
G1 X25.312 Y26.372 E0.06976
G1 X26.139 Y25.571 E0.04566
G1 X26.878 Y24.689 E0.04565
G1 X27.75 Y23.344 E0.06356
G1 X28.366 Y22.014 E0.05816
G1 X28.856 Y20.395 E0.06713
G1 X29.106 Y18.494 E0.07603
G1 X29.117 Y-18.201 E1.45569
G1 X28.971 Y-19.797 E0.06355
G1 X28.55 Y-21.504 E0.06976
G1 X27.791 Y-23.264 E0.07603
G1 X26.878 Y-24.689 E0.06713
G1 X25.712 Y-26.005 E0.06976
G1 X24.408 Y-27.083 E0.06712
G1 X23.434 Y-27.697 E0.04565
G1 X22.486 Y-28.172 E0.04208
G1 X20.583 Y-28.811 E0.07961
G1 X18.846 Y-29.083 E0.06976
G1 X-0.756 Y-29.092 E0.7776
G1 X-2.737 Y-28.773 E0.07961
G1 X-3.837 Y-28.432 E0.04565
G1 X-4.895 Y-27.98 E0.04566
G1 X-6.408 Y-27.083 E0.06976
G1 X-7.68 Y-26.038 E0.06533
G1 X-16.774 Y-16.945 E0.51013
G1 E-3.5 F3600
;WIPE_START
G1 F8640
G1 X-19.319 Y-14.4 E-1.425
;WIPE_END
G1 E-0.075 F3600
; printing object SprintCap.obj id:0 copy 0
; acceleration to travel
M204 S1500
G1 X-5.209 Y-4.321 F10800
; decel to extrusion
M204 S800
G1 X-2.466 Y-2.361
; end travel
G1 E5 F2400
;TYPE:Internal perimeter
;WIDTH:0.42
G1 F1200
G1 X-2.496 Y-2.333 E0.00127
G1 X-2.731 Y-2.052 E0.0115
G1 X-2.936 Y-1.748 E0.0115
G1 X-3.106 Y-1.423 E0.0115
G1 X-3.245 Y-1.07 E0.01191
G1 X-3.371 Y-0.561 E0.01643
G1 X-3.412 Y-0.183 E0.01191
G1 X-3.412 Y0.183 E0.0115
G1 X-3.372 Y0.548 E0.0115
G1 X-3.291 Y0.919 E0.01191
G1 X-3.108 Y1.424 E0.01684
G1 X-2.845 Y1.892 E0.01684
G1 X-2.617 Y2.196 E0.01191
G1 X-2.367 Y2.464 E0.0115
G1 X-2.089 Y2.704 E0.0115
G1 X-1.787 Y2.912 E0.0115
G1 X-1.465 Y3.087 E0.0115
G1 X-1.125 Y3.226 E0.0115
G1 X-0.773 Y3.328 E0.0115
G1 X-0.399 Y3.394 E0.01191
G1 X0.125 Y3.415 E0.01643
G1 X0.503 Y3.379 E0.01191
G1 X0.875 Y3.303 E0.01191
G1 X1.37 Y3.131 E0.01643
G1 X1.708 Y2.959 E0.01191
G1 X2.026 Y2.752 E0.01191
G1 X2.423 Y2.409 E0.01643
G1 X2.675 Y2.125 E0.01191
G1 X2.888 Y1.826 E0.0115
G1 X3.067 Y1.506 E0.0115
G1 X3.21 Y1.169 E0.0115
G1 X3.317 Y0.818 E0.0115
G1 X3.388 Y0.445 E0.01191
G1 X3.416 Y-0.079 E0.01643
G1 X3.386 Y-0.457 E0.01191
G1 X3.317 Y-0.818 E0.0115
G1 X3.21 Y-1.169 E0.0115
G1 X3.062 Y-1.518 E0.01191
G1 X2.794 Y-1.968 E0.01643
G1 X2.557 Y-2.266 E0.01191
G1 X2.3 Y-2.527 E0.0115
G1 X2.016 Y-2.759 E0.0115
G1 X1.708 Y-2.959 E0.0115
G1 X1.381 Y-3.125 E0.0115
G1 X1.026 Y-3.26 E0.01191
G1 X0.516 Y-3.378 E0.01643
G1 X0.138 Y-3.414 E0.01191
G1 X-0.242 Y-3.409 E0.01191
G1 X-0.761 Y-3.332 E0.01643
G1 X-1.125 Y-3.226 E0.01191
G1 X-1.477 Y-3.082 E0.01191
G1 X-1.931 Y-2.82 E0.01643
G1 X-2.231 Y-2.587 E0.01191
G1 X-2.423 Y-2.403 E0.00835
G1 X-2.205 Y-2.09 F10800
G1 F1200
G1 X-2.22 Y-2.076 E0.00064
G1 X-2.429 Y-1.826 E0.01023
G1 X-2.611 Y-1.555 E0.01023
G1 X-2.763 Y-1.266 E0.01023
G1 X-2.885 Y-0.955 E0.01048
G1 X-2.999 Y-0.495 E0.01484
G1 X-3.035 Y-0.163 E0.01048
G1 X-3.035 Y0.163 E0.01023
G1 X-3 Y0.487 E0.01023
G1 X-2.928 Y0.814 E0.01048
G1 X-2.764 Y1.266 E0.01509
G1 X-2.529 Y1.686 E0.01509
G1 X-2.328 Y1.953 E0.01048
G1 X-2.105 Y2.192 E0.01023
G1 X-1.858 Y2.405 E0.01023
G1 X-1.59 Y2.59 E0.01023
G1 X-1.303 Y2.745 E0.01023
G1 X-1.001 Y2.869 E0.01023
G1 X-0.688 Y2.96 E0.01023
G1 X-0.359 Y3.018 E0.01048
G1 X0.114 Y3.037 E0.01484
G1 X0.447 Y3.006 E0.01048
G1 X0.775 Y2.939 E0.01048
G1 X1.222 Y2.783 E0.01484
G1 X1.519 Y2.632 E0.01048
G1 X1.799 Y2.449 E0.01048
G1 X2.158 Y2.14 E0.01484
G1 X2.38 Y1.89 E0.01048
G1 X2.568 Y1.624 E0.01023
G1 X2.728 Y1.339 E0.01023
G1 X2.856 Y1.039 E0.01023
G1 X2.951 Y0.727 E0.01023
G1 X3.013 Y0.399 E0.01048
G1 X3.038 Y-0.074 E0.01484
G1 X3.012 Y-0.407 E0.01048
G1 X2.951 Y-0.727 E0.01023
G1 X2.856 Y-1.039 E0.01023
G1 X2.725 Y-1.347 E0.01048
G1 X2.482 Y-1.754 E0.01484
G1 X2.275 Y-2.015 E0.01048
G1 X2.046 Y-2.247 E0.01023
G1 X1.793 Y-2.454 E0.01023
G1 X1.519 Y-2.632 E0.01023
G1 X1.229 Y-2.779 E0.01023
G1 X0.916 Y-2.898 E0.01048
G1 X0.455 Y-3.005 E0.01484
G1 X0.122 Y-3.036 E0.01048
G1 X-0.212 Y-3.032 E0.01048
G1 X-0.68 Y-2.962 E0.01484
G1 X-1.001 Y-2.869 E0.01048
G1 X-1.31 Y-2.742 E0.01048
G1 X-1.72 Y-2.506 E0.01484
G1 X-1.984 Y-2.302 E0.01048
G1 X-2.162 Y-2.131 E0.00771
G1 X-1.944 Y-1.818 F10800
;TYPE:External perimeter
G1 F1200
G1 X-2.128 Y-1.599 E0.00896
G1 X-2.287 Y-1.361 E0.00896
G1 X-2.419 Y-1.108 E0.00896
G1 X-2.525 Y-0.84 E0.00905
G1 X-2.627 Y-0.43 E0.01325
G1 X-2.657 Y-0.143 E0.00905
G1 X-2.657 Y0.143 E0.00896
G1 X-2.627 Y0.427 E0.00896
G1 X-2.565 Y0.709 E0.00905
G1 X-2.42 Y1.109 E0.01334
G1 X-2.212 Y1.48 E0.01334
G1 X-2.039 Y1.711 E0.00905
G1 X-1.844 Y1.919 E0.00896
G1 X-1.627 Y2.106 E0.00896
G1 X-1.392 Y2.268 E0.00896
G1 X-1.141 Y2.404 E0.00896
G1 X-0.877 Y2.513 E0.00896
G1 X-0.602 Y2.592 E0.00896
G1 X-0.318 Y2.642 E0.00905
G1 X0.104 Y2.659 E0.01325
G1 X0.392 Y2.632 E0.00905
G1 X0.674 Y2.575 E0.00905
G1 X1.073 Y2.435 E0.01325
G1 X1.331 Y2.305 E0.00905
G1 X1.572 Y2.147 E0.00905
G1 X1.893 Y1.871 E0.01325
G1 X2.084 Y1.655 E0.00905
G1 X2.249 Y1.422 E0.00896
G1 X2.389 Y1.173 E0.00896
G1 X2.501 Y0.91 E0.00896
G1 X2.584 Y0.637 E0.00896
G1 X2.638 Y0.353 E0.00905
G1 X2.661 Y-0.069 E0.01325
G1 X2.637 Y-0.356 E0.00905
G1 X2.584 Y-0.637 E0.00896
G1 X2.501 Y-0.91 E0.00896
G1 X2.388 Y-1.176 E0.00905
G1 X2.171 Y-1.539 E0.01325
G1 X1.992 Y-1.765 E0.00905
G1 X1.791 Y-1.968 E0.00896
G1 X1.57 Y-2.149 E0.00896
G1 X1.331 Y-2.305 E0.00896
G1 X1.076 Y-2.434 E0.00896
G1 X0.806 Y-2.536 E0.00905
G1 X0.394 Y-2.632 E0.01325
G1 X0.107 Y-2.659 E0.00905
G1 X-0.181 Y-2.655 E0.00905
G1 X-0.599 Y-2.593 E0.01325
G1 X-0.877 Y-2.513 E0.00905
G1 X-1.143 Y-2.403 E0.00905
G1 X-1.51 Y-2.192 E0.01325
G1 X-1.738 Y-2.016 E0.00905
G1 X-1.901 Y-1.859 E0.00708
;WIPE_START
M204 S1000
G1 X-2.335 Y-1.901 F10800
;WIPE_END
M204 S800
G1 X-3.548 Y-3.395
;TYPE:Internal perimeter
G1 F1200
G1 X-3.324 Y-3.624 E0.01006
G1 X-2.931 Y-3.948 E0.01596
G1 X-2.507 Y-4.23 E0.01596
G1 X-2.057 Y-4.466 E0.01596
G1 X-1.584 Y-4.655 E0.01596
G1 X-1.094 Y-4.794 E0.01596
G1 X-0.584 Y-4.882 E0.01622
G1 X-0.263 Y-4.91 E0.01012
G1 X0.255 Y-4.91 E0.01622
G1 X0.761 Y-4.858 E0.01596
G1 X1.259 Y-4.753 E0.01596
G1 X1.752 Y-4.595 E0.01622
G1 X2.049 Y-4.47 E0.01012
G1 X2.507 Y-4.23 E0.01622
G1 X2.931 Y-3.948 E0.01596
G1 X3.324 Y-3.624 E0.01596
G1 X3.68 Y-3.261 E0.01596
G1 X3.998 Y-2.863 E0.01596
G1 X4.272 Y-2.434 E0.01596
G1 X4.505 Y-1.972 E0.01622
G1 X4.624 Y-1.672 E0.01012
G1 X4.774 Y-1.177 E0.01622
G1 X4.87 Y-0.677 E0.01596
G1 X4.914 Y-0.17 E0.01596
G1 X4.905 Y0.348 E0.01622
G1 X4.872 Y0.669 E0.01012
G1 X4.774 Y1.177 E0.01622
G1 X4.627 Y1.664 E0.01596
G1 X4.427 Y2.141 E0.01622
G1 X4.277 Y2.427 E0.01012
G1 X3.998 Y2.863 E0.01622
G1 X3.68 Y3.261 E0.01596
G1 X3.324 Y3.624 E0.01596
G1 X2.931 Y3.948 E0.01596
G1 X2.507 Y4.23 E0.01596
G1 X2.057 Y4.466 E0.01596
G1 X1.584 Y4.655 E0.01596
G1 X1.094 Y4.794 E0.01596
G1 X0.584 Y4.882 E0.01622
G1 X0.263 Y4.91 E0.01012
G1 X-0.255 Y4.91 E0.01622
G1 X-0.761 Y4.858 E0.01596
G1 X-1.259 Y4.753 E0.01596
G1 X-1.752 Y4.595 E0.01622
G1 X-2.049 Y4.47 E0.01012
G1 X-2.507 Y4.23 E0.01622
G1 X-2.931 Y3.948 E0.01596
G1 X-3.324 Y3.624 E0.01596
G1 X-3.68 Y3.261 E0.01596
G1 X-3.998 Y2.863 E0.01596
G1 X-4.272 Y2.434 E0.01596
G1 X-4.505 Y1.972 E0.01622
G1 X-4.624 Y1.672 E0.01012
G1 X-4.774 Y1.177 E0.01622
G1 X-4.87 Y0.677 E0.01596
G1 X-4.914 Y0.17 E0.01596
G1 X-4.905 Y-0.348 E0.01622
G1 X-4.872 Y-0.669 E0.01012
G1 X-4.774 Y-1.177 E0.01622
G1 X-4.627 Y-1.664 E0.01596
G1 X-4.427 Y-2.141 E0.01622
G1 X-4.277 Y-2.427 E0.01012
G1 X-3.998 Y-2.863 E0.01622
G1 X-3.68 Y-3.261 E0.01596
G1 X-3.591 Y-3.352 E0.00402
G1 X-3.817 Y-3.659 F10800
G1 F1200
G1 X-3.579 Y-3.902 E0.01067
G1 X-3.156 Y-4.251 E0.01718
G1 X-2.7 Y-4.554 E0.01719
G1 X-2.215 Y-4.809 E0.01718
G1 X-1.705 Y-5.012 E0.01719
G1 X-1.178 Y-5.162 E0.01718
G1 X-0.633 Y-5.257 E0.01735
G1 X-0.279 Y-5.287 E0.01114
G1 X0.274 Y-5.287 E0.01735
G1 X0.819 Y-5.231 E0.01719
G1 X1.356 Y-5.118 E0.01718
G1 X1.882 Y-4.949 E0.01735
G1 X2.21 Y-4.811 E0.01114
G1 X2.7 Y-4.554 E0.01734
G1 X3.156 Y-4.251 E0.01719
G1 X3.579 Y-3.902 E0.01718
G1 X3.963 Y-3.511 E0.01719
G1 X4.305 Y-3.082 E0.01719
G1 X4.6 Y-2.621 E0.01719
G1 X4.849 Y-2.127 E0.01734
G1 X4.981 Y-1.797 E0.01114
G1 X5.141 Y-1.267 E0.01734
G1 X5.244 Y-0.729 E0.01718
G1 X5.291 Y-0.183 E0.01719
G1 X5.282 Y0.37 E0.01734
G1 X5.245 Y0.724 E0.01114
G1 X5.141 Y1.267 E0.01734
G1 X4.982 Y1.792 E0.01719
G1 X4.768 Y2.302 E0.01734
G1 X4.603 Y2.617 E0.01114
G1 X4.305 Y3.082 E0.01734
G1 X3.963 Y3.511 E0.01719
G1 X3.579 Y3.902 E0.01719
G1 X3.156 Y4.251 E0.01718
G1 X2.7 Y4.554 E0.01719
G1 X2.215 Y4.809 E0.01718
G1 X1.705 Y5.012 E0.01719
G1 X1.178 Y5.162 E0.01718
G1 X0.633 Y5.257 E0.01735
G1 X0.279 Y5.287 E0.01114
G1 X-0.274 Y5.287 E0.01735
G1 X-0.819 Y5.231 E0.01719
G1 X-1.356 Y5.118 E0.01718
G1 X-1.882 Y4.949 E0.01735
G1 X-2.21 Y4.811 E0.01114
G1 X-2.7 Y4.554 E0.01734
G1 X-3.156 Y4.251 E0.01719
G1 X-3.579 Y3.902 E0.01718
G1 X-3.963 Y3.511 E0.01719
G1 X-4.305 Y3.082 E0.01719
G1 X-4.6 Y2.621 E0.01719
G1 X-4.849 Y2.127 E0.01734
G1 X-4.981 Y1.797 E0.01114
G1 X-5.141 Y1.267 E0.01734
G1 X-5.244 Y0.729 E0.01718
G1 X-5.291 Y0.183 E0.01719
G1 X-5.282 Y-0.37 E0.01734
G1 X-5.245 Y-0.724 E0.01114
G1 X-5.141 Y-1.267 E0.01734
G1 X-4.982 Y-1.792 E0.01719
G1 X-4.768 Y-2.302 E0.01734
G1 X-4.603 Y-2.617 E0.01114
G1 X-4.305 Y-3.082 E0.01734
G1 X-3.963 Y-3.511 E0.01719
G1 X-3.859 Y-3.616 E0.00463
G1 X-4.086 Y-3.923 F10800
;TYPE:External perimeter
G1 F1200
G1 X-3.834 Y-4.18 E0.01129
G1 X-3.381 Y-4.554 E0.01841
G1 X-2.892 Y-4.879 E0.01841
G1 X-2.372 Y-5.152 E0.01841
G1 X-1.827 Y-5.37 E0.01841
G1 X-1.262 Y-5.53 E0.01841
G1 X-0.682 Y-5.631 E0.01847
G1 X-0.295 Y-5.664 E0.01216
G1 X0.294 Y-5.664 E0.01847
G1 X0.878 Y-5.604 E0.01841
G1 X1.452 Y-5.483 E0.01841
G1 X2.013 Y-5.303 E0.01847
G1 X2.371 Y-5.153 E0.01216
G1 X2.892 Y-4.879 E0.01847
G1 X3.381 Y-4.554 E0.01841
G1 X3.834 Y-4.18 E0.01841
G1 X4.246 Y-3.761 E0.01841
G1 X4.612 Y-3.302 E0.01841
G1 X4.928 Y-2.808 E0.01841
G1 X5.193 Y-2.282 E0.01847
G1 X5.337 Y-1.921 E0.01216
G1 X5.507 Y-1.357 E0.01847
G1 X5.618 Y-0.781 E0.01841
G1 X5.669 Y-0.196 E0.01841
G1 X5.659 Y0.393 E0.01847
G1 X5.618 Y0.779 E0.01216
G1 X5.507 Y1.357 E0.01847
G1 X5.337 Y1.919 E0.01841
G1 X5.11 Y2.463 E0.01847
G1 X4.929 Y2.806 E0.01216
G1 X4.612 Y3.302 E0.01847
G1 X4.246 Y3.761 E0.01841
G1 X3.834 Y4.18 E0.01841
G1 X3.381 Y4.554 E0.01841
G1 X2.892 Y4.879 E0.01841
G1 X2.372 Y5.152 E0.01841
G1 X1.827 Y5.37 E0.01841
G1 X1.262 Y5.53 E0.01841
G1 X0.682 Y5.631 E0.01847
G1 X0.295 Y5.664 E0.01216
G1 X-0.294 Y5.664 E0.01847
G1 X-0.878 Y5.604 E0.01841
G1 X-1.452 Y5.483 E0.01841
G1 X-2.013 Y5.303 E0.01847
G1 X-2.371 Y5.153 E0.01216
G1 X-2.892 Y4.879 E0.01847
G1 X-3.381 Y4.554 E0.01841
G1 X-3.834 Y4.18 E0.01841
G1 X-4.246 Y3.761 E0.01841
G1 X-4.612 Y3.302 E0.01841
G1 X-4.928 Y2.808 E0.01841
G1 X-5.193 Y2.282 E0.01847
G1 X-5.337 Y1.921 E0.01216
G1 X-5.507 Y1.357 E0.01847
G1 X-5.618 Y0.781 E0.01841
G1 X-5.669 Y0.196 E0.01841
G1 X-5.659 Y-0.393 E0.01847
G1 X-5.618 Y-0.779 E0.01216
G1 X-5.507 Y-1.357 E0.01847
G1 X-5.337 Y-1.919 E0.01841
G1 X-5.11 Y-2.463 E0.01847
G1 X-4.929 Y-2.806 E0.01216
G1 X-4.612 Y-3.302 E0.01847
G1 X-4.246 Y-3.761 E0.01841
G1 X-4.128 Y-3.881 E0.00524
;WIPE_START
M204 S1000
G1 X-3.699 Y-3.823 F10800
;WIPE_END
G1 E-3.5 F3600
;WIPE_START
G1 F8640
G1 X-3.262 Y-4.393 E-0.28436
G1 X-2.79 Y-4.707 E-0.22422
G1 X-2.289 Y-4.97 E-0.22422
G1 X-1.763 Y-5.18 E-0.22423
G1 X-1.218 Y-5.335 E-0.22421
G1 X-0.656 Y-5.433 E-0.22565
