; generated by SuperSlicer 2.4 on 2023-10-04 at 16:52:00 UTC


;
;

;
;
; 

; external perimeters extrusion width = 0.45mm
; perimeters extrusion width = 0.45mm
; infill extrusion width = 0.45mm
; solid infill extrusion width = 0.45mm
; top infill extrusion width = 0.40mm
; first layer extrusion width = 0.42mm

; external perimeters extrusion width = 0.45mm
; perimeters extrusion width = 0.45mm
; infill extrusion width = 0.45mm
; solid infill extrusion width = 0.45mm
; top infill extrusion width = 0.40mm
; first layer extrusion width = 0.42mm

; external perimeters extrusion width = 0.45mm
; perimeters extrusion width = 0.45mm
; infill extrusion width = 0.45mm
; solid infill extrusion width = 0.45mm
; top infill extrusion width = 0.40mm
; first layer extrusion width = 0.42mm

; external perimeters extrusion width = 0.45mm
; perimeters extrusion width = 0.45mm
; infill extrusion width = 0.45mm
; solid infill extrusion width = 0.45mm
; top infill extrusion width = 0.40mm
; first layer extrusion width = 0.42mm

; external perimeters extrusion width = 0.45mm
; perimeters extrusion width = 0.45mm
; infill extrusion width = 0.45mm
; solid infill extrusion width = 0.45mm
; top infill extrusion width = 0.40mm
; first layer extrusion width = 0.42mm

; object:{"name":"vertical_blind","id":"vertical_blind.stl id:0 copy 0","object_center":[1.244617,-50.829907,0.000000],"boundingbox_center":[1.244617,-50.829907,0.462067],"boundingbox_size":[85.143303,15.581781,0.924133]}
; object:{"name":"vertical_blind","id":"vertical_blind.stl id:1 copy 0","object_center":[1.000820,-26.926133,0.000000],"boundingbox_center":[1.000820,-26.926133,0.577583],"boundingbox_size":[85.143303,15.581781,1.155166]}
; object:{"name":"vertical_blind","id":"vertical_blind.stl id:2 copy 0","object_center":[1.142614,-0.812945,0.000000],"boundingbox_center":[1.142614,-0.812945,0.693100],"boundingbox_size":[85.143303,15.581781,1.386200]}
; object:{"name":"vertical_blind","id":"vertical_blind.stl id:3 copy 0","object_center":[0.380214,25.176530,0.000000],"boundingbox_center":[0.380214,25.176530,0.808616],"boundingbox_size":[85.143303,15.581781,1.617233]}
; object:{"name":"vertical_blind","id":"vertical_blind.stl id:4 copy 0","object_center":[0.764234,53.554318,0.000000],"boundingbox_center":[0.764234,53.554318,0.924133],"boundingbox_size":[85.143303,15.581781,1.848266]}
; plater:{"center":[0.812415,1.362205,0.000000],"boundingbox_center":[0.812415,1.362205,0.924133],"boundingbox_size":[86.007705,119.966006,1.848266]}

;TYPE:Custom
START_PRINT
M107
G21 ; set units to millimeters
G90 ; use absolute coordinates
M83 ; use relative distances for extrusion
; Filament gcode
;_TOOLCHANGE 0
M109 S200 ; set temperature and wait for it to be reached
M190 S60 ; set bed temperature and wait for it to be reached
M107
;LAYER_CHANGE
;Z:0.2
;HEIGHT:0.2
;BEFORE_LAYER_CHANGE
G92 E0
;0.2
G1 E-5 F3600
G1 Z0.2 F10800
;AFTER_LAYER_CHANGE
;0.2
M204 S1000
G1 X-47.703 Y-0.542
G1 E5 F2400
;TYPE:Skirt
;WIDTH:0.52
G1 F1200
G1 X-47.907 Y17.386 E0.71123
G1 X-47.907 Y33.045 E0.62119
G1 X-47.523 Y61.423 E1.12583
G1 X-46.962 Y63.815 E0.09747
G1 X-45.701 Y65.53 E0.08445
G1 X-43.899 Y66.664 E0.08445
G1 X-41.807 Y67.061 E0.08445
G1 X43.336 Y67.061 E3.37758
G1 X45.769 Y66.517 E0.09892
G1 X47.493 Y65.267 E0.08445
G1 X48.64 Y63.474 E0.08445
G1 X49.051 Y61.385 E0.08445
G1 X49.43 Y6.99 E2.15788
G1 X49.532 Y-58.621 E2.60272
G1 X48.971 Y-61.09 E0.10046
G1 X47.709 Y-62.805 E0.08445
G1 X45.908 Y-63.94 E0.08445
G1 X43.816 Y-64.336 E0.08445
G1 X-41.327 Y-64.336 E3.37758
G1 X-43.738 Y-63.803 E0.09795
G1 X-45.467 Y-62.561 E0.08445
G1 X-46.622 Y-60.773 E0.08445
G1 X-47.042 Y-58.686 E0.08445
G1 X-47.703 Y-0.602 E2.30428
G1 X-47.226 Y-0.597 F10800
G1 F1200
G1 X-47.43 Y17.386 E0.7134
G1 X-47.429 Y33.038 E0.62093
G1 X-47.045 Y61.416 E1.12583
G1 X-46.639 Y63.369 E0.07911
G1 X-45.502 Y65.059 E0.08082
G1 X-43.806 Y66.188 E0.08082
G1 X-41.807 Y66.584 E0.08082
G1 X43.336 Y66.584 E3.37758
G1 X45.326 Y66.191 E0.08045
G1 X47.024 Y65.066 E0.08082
G1 X48.164 Y63.377 E0.08082
G1 X48.574 Y61.382 E0.08082
G1 X48.953 Y6.989 E2.15779
G1 X49.055 Y-58.621 E2.60269
G1 X48.648 Y-60.644 E0.08187
G1 X47.511 Y-62.335 E0.08082
G1 X45.815 Y-63.463 E0.08082
G1 X43.816 Y-63.859 E0.08082
G1 X-41.327 Y-63.859 E3.37758
G1 X-43.295 Y-63.475 E0.07955
G1 X-44.999 Y-62.357 E0.08082
G1 X-46.146 Y-60.674 E0.08082
G1 X-46.565 Y-58.68 E0.08082
G1 X-47.225 Y-0.657 E2.3019
G1 E-3.5 F3600
;WIPE_START
G1 F8640
G1 X-47.266 Y2.943 E-1.425
;WIPE_END
G1 E-0.075 F3600
; printing object vertical_blind.stl id:0 copy 0
; acceleration to travel
M204 S1500
G1 X-10.349 Y-38.24 F10800
; decel to extrusion
M204 S800
G1 X-3.173 Y-46.246
; end travel
G1 E5 F2400
;TYPE:Internal perimeter
;WIDTH:0.42
G1 F1200
G1 X5.45 Y-46.246 E0.27036
G1 X5.45 Y-51.459 E0.16346
G1 X-3.55 Y-51.459 E0.28219
G1 X-3.55 Y-46.246 E0.16346
G1 X-3.233 Y-46.246 E0.00994
G1 X-3.173 Y-46.623 F10800
;TYPE:External perimeter
G1 F1200
G1 X5.073 Y-46.623 E0.25854
G1 X5.073 Y-51.082 E0.13981
G1 X-3.173 Y-51.082 E0.25854
G1 X-3.173 Y-46.683 E0.13793
;WIPE_START
M204 S1000
G1 X-3.173 Y-46.223 F10800
;WIPE_END
G1 E-3.5 F3600
;WIPE_START
G1 F8640
G1 X0.426 Y-46.308 E-1.425
;WIPE_END
G1 E-0.075 F3600
; acceleration to travel
M204 S1500
G1 X-2.587 Y-44.063 F10800
; decel to extrusion
M204 S800
G1 X-3.173 Y-43.626
; end travel
G1 E5 F2400
;TYPE:Internal perimeter
G1 F1200
G1 X-40.74 Y-43.626 E1.17789
G1 X-40.74 Y-58.034 E0.45174
G1 X43.229 Y-58.034 E2.63279
G1 X43.229 Y-43.626 E0.45174
G1 X-3.113 Y-43.626 E1.45302
G1 X-3.173 Y-43.249 F10800
;TYPE:External perimeter
G1 F1200
G1 X-41.117 Y-43.249 E1.18971
G1 X-41.117 Y-58.411 E0.47539
G1 X43.606 Y-58.411 E2.65644
G1 X43.606 Y-43.249 E0.47539
G1 X-3.113 Y-43.249 E1.46485
;WIPE_START
M204 S1000
G1 X-3.373 Y-43.595 F10800
;WIPE_END
G1 E-3.5 F3600
;WIPE_START
G1 F8640
G1 X-6.973 Y-43.581 E-1.425
;WIPE_END
G1 E-0.075 F3600
; acceleration to travel
M204 S1500
G1 X33.324 Y-54.504 F10800
; decel to extrusion
M204 S1000
G1 X43.116 Y-57.158
; end travel
G1 E5 F2400
;TYPE:Solid infill
;WIDTH:0.420522
G1 F1200
G1 X42.516 Y-57.758 E0.02664
G1 X41.983 Y-57.758 E0.01674
G1 X42.954 Y-56.787 E0.04312
G1 X42.954 Y-56.254 E0.01674
G1 X41.449 Y-57.758 E0.0668
G1 X40.916 Y-57.758 E0.01674
G1 X42.954 Y-55.721 E0.09047
G1 X42.954 Y-55.187 E0.01674
G1 X40.383 Y-57.758 E0.11415
G1 X39.85 Y-57.758 E0.01674
G1 X42.954 Y-54.654 E0.13782
G1 X42.954 Y-54.121 E0.01674
G1 X39.316 Y-57.758 E0.1615
G1 X38.783 Y-57.758 E0.01674
G1 X42.954 Y-53.588 E0.18517
G1 X42.954 Y-53.054 E0.01674
G1 X38.25 Y-57.758 E0.20885
G1 X37.717 Y-57.758 E0.01674
G1 X42.954 Y-52.521 E0.23252
G1 X42.954 Y-51.988 E0.01674
G1 X37.183 Y-57.758 E0.2562
G1 X36.65 Y-57.758 E0.01674
G1 X42.954 Y-51.455 E0.27988
G1 X42.954 Y-50.921 E0.01674
G1 X36.117 Y-57.758 E0.30355
G1 X35.583 Y-57.758 E0.01674
G1 X42.954 Y-50.388 E0.32723
G1 X42.954 Y-49.855 E0.01674
G1 X35.05 Y-57.758 E0.3509
G1 X34.517 Y-57.758 E0.01674
G1 X42.954 Y-49.321 E0.37458
G1 X42.954 Y-48.788 E0.01674
G1 X33.984 Y-57.758 E0.39825
G1 X33.45 Y-57.758 E0.01674
G1 X42.954 Y-48.255 E0.42193
G1 X42.954 Y-47.722 E0.01674
G1 X32.917 Y-57.758 E0.4456
G1 X32.384 Y-57.758 E0.01674
G1 X42.954 Y-47.188 E0.46928
G1 X42.954 Y-46.655 E0.01674
G1 X31.851 Y-57.758 E0.49295
G1 X31.317 Y-57.758 E0.01674
G1 X42.954 Y-46.122 E0.51663
G1 X42.954 Y-45.589 E0.01674
G1 X30.784 Y-57.758 E0.54031
G1 X30.251 Y-57.758 E0.01674
G1 X42.954 Y-45.055 E0.56398
G1 X42.954 Y-44.522 E0.01674
G1 X29.717 Y-57.758 E0.58766
G1 X29.184 Y-57.758 E0.01674
G1 X42.954 Y-43.989 E0.61133
G1 X42.954 Y-43.901 E0.00274
G1 X42.508 Y-43.901 E0.014
G1 X28.651 Y-57.758 E0.61521
G1 X28.118 Y-57.758 E0.01674
G1 X41.975 Y-43.901 E0.61521
G1 X41.442 Y-43.901 E0.01674
G1 X27.584 Y-57.758 E0.61521
G1 X27.051 Y-57.758 E0.01674
G1 X40.908 Y-43.901 E0.61521
G1 X40.375 Y-43.901 E0.01674
G1 X26.518 Y-57.758 E0.61521
G1 X25.985 Y-57.758 E0.01674
G1 X39.842 Y-43.901 E0.61521
G1 X39.308 Y-43.901 E0.01674
G1 X25.451 Y-57.758 E0.61521
G1 X24.918 Y-57.758 E0.01674
G1 X38.775 Y-43.901 E0.61521
G1 X38.242 Y-43.901 E0.01674
G1 X24.385 Y-57.758 E0.61521
G1 X23.852 Y-57.758 E0.01674
G1 X37.709 Y-43.901 E0.61521
G1 X37.175 Y-43.901 E0.01674
G1 X23.318 Y-57.758 E0.61521
G1 X22.785 Y-57.758 E0.01674
G1 X36.642 Y-43.901 E0.61521
G1 X36.109 Y-43.901 E0.01674
G1 X22.252 Y-57.758 E0.61521
G1 X21.718 Y-57.758 E0.01674
G1 X35.576 Y-43.901 E0.61521
G1 X35.042 Y-43.901 E0.01674
G1 X21.185 Y-57.758 E0.61521
G1 X20.652 Y-57.758 E0.01674
G1 X34.509 Y-43.901 E0.61521
G1 X33.976 Y-43.901 E0.01674
G1 X20.119 Y-57.758 E0.61521
G1 X19.585 Y-57.758 E0.01674
G1 X33.442 Y-43.901 E0.61521
G1 X32.909 Y-43.901 E0.01674
G1 X19.052 Y-57.758 E0.61521
G1 X18.519 Y-57.758 E0.01674
G1 X32.376 Y-43.901 E0.61521
G1 X31.843 Y-43.901 E0.01674
G1 X17.986 Y-57.758 E0.61521
G1 X17.452 Y-57.758 E0.01674
G1 X31.309 Y-43.901 E0.61521
G1 X30.776 Y-43.901 E0.01674
G1 X16.919 Y-57.758 E0.61521
G1 X16.386 Y-57.758 E0.01674
G1 X30.243 Y-43.901 E0.61521
G1 X29.71 Y-43.901 E0.01674
G1 X15.852 Y-57.758 E0.61521
G1 X15.319 Y-57.758 E0.01674
G1 X29.176 Y-43.901 E0.61521
G1 X28.643 Y-43.901 E0.01674
G1 X14.786 Y-57.758 E0.61521
G1 X14.253 Y-57.758 E0.01674
G1 X28.11 Y-43.901 E0.61521
G1 X27.577 Y-43.901 E0.01674
G1 X13.719 Y-57.758 E0.61521
G1 X13.186 Y-57.758 E0.01674
G1 X27.043 Y-43.901 E0.61521
G1 X26.51 Y-43.901 E0.01674
G1 X12.653 Y-57.758 E0.61521
G1 X12.12 Y-57.758 E0.01674
G1 X25.977 Y-43.901 E0.61521
G1 X25.443 Y-43.901 E0.01674
G1 X11.586 Y-57.758 E0.61521
G1 X11.053 Y-57.758 E0.01674
G1 X24.91 Y-43.901 E0.61521
G1 X24.377 Y-43.901 E0.01674
G1 X10.52 Y-57.758 E0.61521
G1 X9.986 Y-57.758 E0.01674
G1 X23.844 Y-43.901 E0.61521
G1 X23.31 Y-43.901 E0.01674
G1 X9.453 Y-57.758 E0.61521
G1 X8.92 Y-57.758 E0.01674
G1 X22.777 Y-43.901 E0.61521
G1 X22.244 Y-43.901 E0.01674
G1 X8.387 Y-57.758 E0.61521
G1 X7.853 Y-57.758 E0.01674
G1 X21.711 Y-43.901 E0.61521
G1 X21.177 Y-43.901 E0.01674
G1 X7.32 Y-57.758 E0.61521
G1 X6.787 Y-57.758 E0.01674
G1 X20.644 Y-43.901 E0.61521
G1 X20.111 Y-43.901 E0.01674
G1 X6.254 Y-57.758 E0.61521
G1 X5.72 Y-57.758 E0.01674
G1 X19.577 Y-43.901 E0.61521
G1 X19.044 Y-43.901 E0.01674
G1 X5.187 Y-57.758 E0.61521
G1 X4.654 Y-57.758 E0.01674
G1 X18.511 Y-43.901 E0.61521
G1 X17.978 Y-43.901 E0.01674
G1 X4.121 Y-57.758 E0.61521
G1 X3.587 Y-57.758 E0.01674
G1 X17.444 Y-43.901 E0.61521
G1 X16.911 Y-43.901 E0.01674
G1 X3.054 Y-57.758 E0.61521
G1 X2.521 Y-57.758 E0.01674
G1 X16.378 Y-43.901 E0.61521
G1 X15.845 Y-43.901 E0.01674
G1 X1.987 Y-57.758 E0.61521
G1 X1.454 Y-57.758 E0.01674
G1 X15.311 Y-43.901 E0.61521
G1 X14.778 Y-43.901 E0.01674
G1 X0.921 Y-57.758 E0.61521
G1 X0.388 Y-57.758 E0.01674
G1 X14.245 Y-43.901 E0.61521
G1 X13.711 Y-43.901 E0.01674
G1 X-0.146 Y-57.758 E0.61521
G1 X-0.679 Y-57.758 E0.01674
G1 X5.345 Y-51.734 E0.26745
G1 X5.725 Y-51.734 E0.01193
G1 X5.725 Y-51.354 E0.01193
G1 X13.178 Y-43.901 E0.33089
G1 X12.645 Y-43.901 E0.01674
G1 X5.725 Y-50.821 E0.30722
G1 X5.725 Y-50.288 E0.01674
G1 X12.112 Y-43.901 E0.28354
G1 X11.578 Y-43.901 E0.01674
G1 X5.725 Y-49.755 E0.25987
G1 X5.725 Y-49.221 E0.01674
G1 X11.045 Y-43.901 E0.23619
G1 X10.512 Y-43.901 E0.01674
G1 X5.725 Y-48.688 E0.21251
G1 X5.725 Y-48.155 E0.01674
G1 X9.979 Y-43.901 E0.18884
G1 X9.445 Y-43.901 E0.01674
G1 X5.725 Y-47.622 E0.16516
G1 X5.725 Y-47.088 E0.01674
G1 X8.912 Y-43.901 E0.14149
G1 X8.379 Y-43.901 E0.01674
G1 X5.725 Y-46.555 E0.11781
G1 X5.725 Y-46.022 E0.01674
G1 X7.846 Y-43.901 E0.09414
G1 X7.312 Y-43.901 E0.01674
G1 X5.243 Y-45.971 E0.09187
G1 X4.71 Y-45.971 E0.01674
G1 X6.779 Y-43.901 E0.09187
G1 X6.246 Y-43.901 E0.01674
G1 X4.176 Y-45.971 E0.09187
G1 X3.643 Y-45.971 E0.01674
G1 X5.712 Y-43.901 E0.09187
G1 X5.179 Y-43.901 E0.01674
G1 X3.11 Y-45.971 E0.09187
G1 X2.577 Y-45.971 E0.01674
G1 X4.646 Y-43.901 E0.09187
G1 X4.113 Y-43.901 E0.01674
G1 X2.043 Y-45.971 E0.09187
G1 X1.51 Y-45.971 E0.01674
G1 X3.579 Y-43.901 E0.09187
G1 X3.046 Y-43.901 E0.01674
G1 X0.977 Y-45.971 E0.09187
G1 X0.444 Y-45.971 E0.01674
G1 X2.513 Y-43.901 E0.09187
G1 X1.98 Y-43.901 E0.01674
G1 X-0.09 Y-45.971 E0.09187
G1 X-0.623 Y-45.971 E0.01674
G1 X1.446 Y-43.901 E0.09187
G1 X0.913 Y-43.901 E0.01674
G1 X-1.156 Y-45.971 E0.09187
G1 X-1.69 Y-45.971 E0.01674
G1 X0.38 Y-43.901 E0.09187
G1 X-0.154 Y-43.901 E0.01674
G1 X-2.223 Y-45.971 E0.09187
G1 X-2.756 Y-45.971 E0.01674
G1 X-0.687 Y-43.901 E0.09187
G1 X-1.22 Y-43.901 E0.01674
G1 X-3.451 Y-46.133 E0.09907
G1 E-3.5 F3600
;WIPE_START
G1 F8640
G1 X-1.22 Y-43.901 E-1.24911
G1 X-0.776 Y-43.901 E-0.17589
;WIPE_END
G1 E-0.075 F3600
; acceleration to travel
M204 S1500
G1 X3.85 Y-50.073 F10800
; decel to extrusion
M204 S1000
G1 X4.974 Y-51.572
; end travel
G1 E5 F2400
G1 F1200
G1 X-1.212 Y-57.758 E0.27465
G1 X-1.745 Y-57.758 E0.01674
G1 X4.279 Y-51.734 E0.26745
G1 X3.745 Y-51.734 E0.01674
G1 X-2.279 Y-57.758 E0.26745
G1 X-2.812 Y-57.758 E0.01674
G1 X3.212 Y-51.734 E0.26745
G1 X2.679 Y-51.734 E0.01674
G1 X-3.345 Y-57.758 E0.26745
G1 X-3.879 Y-57.758 E0.01674
G1 X2.146 Y-51.734 E0.26745
G1 X1.612 Y-51.734 E0.01674
G1 X-4.412 Y-57.758 E0.26745
G1 X-4.945 Y-57.758 E0.01674
G1 X1.079 Y-51.734 E0.26745
G1 X0.546 Y-51.734 E0.01674
G1 X-5.478 Y-57.758 E0.26745
G1 X-6.012 Y-57.758 E0.01674
G1 X0.013 Y-51.734 E0.26745
G1 X-0.521 Y-51.734 E0.01674
G1 X-6.545 Y-57.758 E0.26745
G1 X-7.078 Y-57.758 E0.01674
G1 X-1.054 Y-51.734 E0.26745
G1 X-1.587 Y-51.734 E0.01674
G1 X-7.611 Y-57.758 E0.26745
G1 X-8.145 Y-57.758 E0.01674
G1 X-2.121 Y-51.734 E0.26745
G1 X-2.654 Y-51.734 E0.01674
G1 X-8.678 Y-57.758 E0.26745
G1 X-9.211 Y-57.758 E0.01674
G1 X-3.187 Y-51.734 E0.26745
G1 X-3.72 Y-51.734 E0.01674
G1 X-9.745 Y-57.758 E0.26745
G1 X-10.278 Y-57.758 E0.01674
G1 X-3.825 Y-51.306 E0.28647
G1 X-3.825 Y-50.773 E0.01674
G1 X-10.811 Y-57.758 E0.31015
G1 X-11.344 Y-57.758 E0.01674
G1 X-3.825 Y-50.239 E0.33382
G1 X-3.825 Y-49.706 E0.01674
G1 X-11.878 Y-57.758 E0.3575
G1 X-12.411 Y-57.758 E0.01674
G1 X-3.825 Y-49.173 E0.38117
G1 X-3.825 Y-48.64 E0.01674
G1 X-12.944 Y-57.758 E0.40485
G1 X-13.477 Y-57.758 E0.01674
G1 X-3.825 Y-48.106 E0.42852
G1 X-3.825 Y-47.573 E0.01674
G1 X-14.011 Y-57.758 E0.4522
G1 X-14.544 Y-57.758 E0.01674
G1 X-3.825 Y-47.04 E0.47588
G1 X-3.825 Y-46.507 E0.01674
G1 X-15.077 Y-57.758 E0.49955
G1 X-15.61 Y-57.758 E0.01674
G1 X-1.753 Y-43.901 E0.61521
G1 X-2.287 Y-43.901 E0.01674
G1 X-16.144 Y-57.758 E0.61521
G1 X-16.677 Y-57.758 E0.01674
G1 X-2.82 Y-43.901 E0.61521
G1 X-3.353 Y-43.901 E0.01674
G1 X-17.21 Y-57.758 E0.61521
G1 X-17.744 Y-57.758 E0.01674
G1 X-3.886 Y-43.901 E0.61521
G1 X-4.42 Y-43.901 E0.01674
G1 X-18.277 Y-57.758 E0.61521
G1 X-18.81 Y-57.758 E0.01674
G1 X-4.953 Y-43.901 E0.61521
G1 X-5.486 Y-43.901 E0.01674
G1 X-19.343 Y-57.758 E0.61521
G1 X-19.877 Y-57.758 E0.01674
G1 X-6.02 Y-43.901 E0.61521
G1 X-6.553 Y-43.901 E0.01674
G1 X-20.41 Y-57.758 E0.61521
G1 X-20.943 Y-57.758 E0.01674
G1 X-7.086 Y-43.901 E0.61521
G1 X-7.619 Y-43.901 E0.01674
G1 X-21.476 Y-57.758 E0.61521
G1 X-22.01 Y-57.758 E0.01674
G1 X-8.153 Y-43.901 E0.61521
G1 X-8.686 Y-43.901 E0.01674
G1 X-22.543 Y-57.758 E0.61521
G1 X-23.076 Y-57.758 E0.01674
G1 X-9.219 Y-43.901 E0.61521
G1 X-9.752 Y-43.901 E0.01674
G1 X-23.61 Y-57.758 E0.61521
G1 X-24.143 Y-57.758 E0.01674
G1 X-10.286 Y-43.901 E0.61521
G1 X-10.819 Y-43.901 E0.01674
G1 X-24.676 Y-57.758 E0.61521
G1 X-25.209 Y-57.758 E0.01674
G1 X-11.352 Y-43.901 E0.61521
G1 X-11.885 Y-43.901 E0.01674
G1 X-25.743 Y-57.758 E0.61521
G1 X-26.276 Y-57.758 E0.01674
G1 X-12.419 Y-43.901 E0.61521
G1 X-12.952 Y-43.901 E0.01674
G1 X-26.809 Y-57.758 E0.61521
G1 X-27.342 Y-57.758 E0.01674
G1 X-13.485 Y-43.901 E0.61521
G1 X-14.019 Y-43.901 E0.01674
G1 X-27.876 Y-57.758 E0.61521
G1 X-28.409 Y-57.758 E0.01674
G1 X-14.552 Y-43.901 E0.61521
G1 X-15.085 Y-43.901 E0.01674
G1 X-28.942 Y-57.758 E0.61521
G1 X-29.476 Y-57.758 E0.01674
G1 X-15.618 Y-43.901 E0.61521
G1 X-16.152 Y-43.901 E0.01674
G1 X-30.009 Y-57.758 E0.61521
G1 X-30.542 Y-57.758 E0.01674
G1 X-16.685 Y-43.901 E0.61521
G1 X-17.218 Y-43.901 E0.01674
G1 X-31.075 Y-57.758 E0.61521
G1 X-31.609 Y-57.758 E0.01674
