; generated by SuperSlicer 2.4 on 2023-03-09 at 02:19:14 UTC


;
;

;
;
; 

; external perimeters extrusion width = 0.41mm
; perimeters extrusion width = 0.44mm
; infill extrusion width = 0.42mm
; solid infill extrusion width = 0.44mm
; top infill extrusion width = 0.42mm
; first layer extrusion width = 0.54mm

; object:{"name":"delta_rod_dampener","id":"delta_rod_dampener.stl id:0 copy 0","object_center":[115.500000,98.000000,0.000000],"boundingbox_center":[115.500000,98.000000,1.000000],"boundingbox_size":[64.500000,11.500000,2.000000]}
; object:{"name":"delta_rod_dampener","id":"delta_rod_dampener.stl id:0 copy 1","object_center":[115.500000,115.500000,0.000000],"boundingbox_center":[115.500000,115.500000,1.000000],"boundingbox_size":[64.500000,11.500000,2.000000]}
; object:{"name":"delta_rod_dampener","id":"delta_rod_dampener.stl id:0 copy 2","object_center":[115.500000,133.000000,0.000000],"boundingbox_center":[115.500000,133.000000,1.000000],"boundingbox_size":[64.500000,11.500000,2.000000]}
; plater:{"center":[115.500000,115.500000,0.000000],"boundingbox_center":[115.500000,115.500000,1.000000],"boundingbox_size":[64.500000,46.500000,2.000000]}

;TYPE:Custom
START_PRINT
M107
G21 ; set units to millimeters
G90 ; use absolute coordinates
M82 ; use absolute distances for extrusion
G92 E0
; Filament gcode
;_TOOLCHANGE 0
M104 S210 ; set temperature
M109 S210 ; set temperature and wait for it to be reached
M190 S60 ; set bed temperature and wait for it to be reached
M107
;LAYER_CHANGE
;Z:0.2
;HEIGHT:0.2
;BEFORE_LAYER_CHANGE
;0.2


G1 E-5 F3600
G1 Z0.2 F9000
;AFTER_LAYER_CHANGE
;0.2
G92 E0
M204 S500
G1 X83.035 Y91.883
G1 E5 F2400
;TYPE:Skirt
;WIDTH:0.48
G1 F1200
G1 X81.931 Y92.936 E5.05546
G1 X81.15 Y94.021 E5.10407
G1 X80.484 Y95.436 E5.16089
G1 X80.214 Y96.383 E5.19667
G1 X80.041 Y97.709 E5.24528
G1 X80.034 Y133.195 E6.53496
G1 X80.244 Y134.853 E6.59569
G1 X80.698 Y136.204 E6.64749
G1 X81.15 Y137.079 E6.68327
G1 X81.587 Y137.735 E6.71196
G1 X82.761 Y138.994 E6.7745
G1 X83.505 Y139.559 E6.80845
G1 X84.355 Y140.055 E6.84423
G1 X85.125 Y140.393 E6.87477
G1 X86.131 Y140.674 E6.91275
G1 X95.815 Y141.951 E7.26774
G1 X134.882 Y141.966 E8.68758
G1 X136.039 Y141.868 E8.72975
G1 X144.869 Y140.674 E9.05359
G1 X145.534 Y140.511 E9.07848
G1 X146.94 Y139.899 E9.13423
G1 X147.769 Y139.366 E9.17001
G1 X148.524 Y138.735 E9.20579
G1 X149.194 Y138.013 E9.24158
G1 X149.85 Y137.079 E9.28308
G1 X150.516 Y135.664 E9.33991
G1 X150.861 Y134.32 E9.39034
G1 X150.959 Y133.34 E9.42612
G1 X150.959 Y97.76 E10.71924
G1 X150.861 Y96.78 E10.75502
G1 X150.696 Y96.008 E10.7837
G1 X150.2 Y94.672 E10.83551
G1 X149.72 Y93.812 E10.8713
G1 X149.138 Y93.019 E10.90706
G1 X148.156 Y92.037 E10.95751
G1 X147.363 Y91.454 E10.99328
G1 X146.503 Y90.975 E11.02906
G1 X145.032 Y90.446 E11.08589
G1 X143.77 Y90.234 E11.1324
G1 X125.492 Y89.041 E11.79809
G1 X105.718 Y89.034 E12.51674
G1 X87.375 Y90.222 E13.18477
G1 X85.645 Y90.534 E13.24865
G1 X84.355 Y91.045 E13.29908
G1 X83.086 Y91.85 E13.35372
G92 E0
G1 E-3.5 F3600
;WIPE_START
G1 F7200
G1 X81.931 Y92.936 E-4.25284
G1 X81.15 Y94.021 E-4.88813
G1 X81.116 Y94.092 E-4.925
;WIPE_END
G1 E-5 F3600
; printing object delta_rod_dampener.stl id:0 copy 0
; acceleration to travel
M204 S1500
G1 X85.638 Y101.091 F9000
; decel to extrusion
M204 S500
G1 X86.191 Y101.947
; end travel
G1 E0 F2400
;TYPE:External perimeter
;WIDTH:0.544
G1 F1200
G1 X86.065 Y101.898 E0.0056
G1 X85.597 Y101.64 E0.02789
G1 X85.162 Y101.325 E0.05026
G1 X84.869 Y101.058 E0.06677
G1 X84.514 Y100.655 E0.08913
G1 X84.286 Y100.331 E0.10565
G1 X84.027 Y99.861 E0.12802
G1 X83.829 Y99.359 E0.15051
G1 X83.675 Y98.718 E0.17795
G1 X83.625 Y98.181 E0.20045
G1 X83.631 Y97.786 E0.21689
G1 X83.698 Y97.253 E0.23927
G1 X83.831 Y96.736 E0.26151
G1 X84.027 Y96.239 E0.28376
G1 X84.285 Y95.772 E0.30601
G1 X84.6 Y95.337 E0.32839
G1 X84.868 Y95.043 E0.34496
G1 X85.162 Y94.775 E0.36153
G1 X85.597 Y94.46 E0.3839
G1 X86.064 Y94.202 E0.40615
G1 X86.561 Y94.006 E0.4284
G1 X87.078 Y93.873 E0.45065
G1 X87.608 Y93.806 E0.47289
G1 X88.142 Y93.806 E0.49515
G1 X88.675 Y93.873 E0.51752
G1 X89.061 Y93.966 E0.53409
G1 X89.44 Y94.096 E0.55078
G1 X89.806 Y94.261 E0.56747
G1 X90.154 Y94.459 E0.58417
G1 X90.479 Y94.688 E0.60074
G1 X90.884 Y95.045 E0.62323
G1 X91.152 Y95.339 E0.6398
G1 X91.392 Y95.66 E0.65649
G1 X91.603 Y96.004 E0.67331
G1 X91.723 Y96.239 E0.68432
G1 X91.828 Y96.482 E0.69533
G1 X91.959 Y96.864 E0.71214
G1 X92.094 Y97.514 E0.73982
G1 X92.178 Y98.597 E0.78507
G1 X92.259 Y98.991 E0.80182
G1 X92.419 Y99.483 E0.82341
G1 X92.584 Y99.847 E0.84004
G1 X92.847 Y100.293 E0.86162
G1 X93.087 Y100.612 E0.87825
G1 X93.444 Y100.992 E0.89996
G1 X93.847 Y101.326 E0.92179
G1 X94.29 Y101.607 E0.94362
G1 X94.764 Y101.83 E0.96546
G1 X95.262 Y101.992 E0.98729
G1 X95.777 Y102.09 E1.00912
G1 X96.3 Y102.123 E1.03096
G1 X96.826 Y102.09 E1.05291
G1 X97.459 Y101.959 E1.07983
G1 X97.836 Y101.829 E1.09645
G1 X98.194 Y101.668 E1.11283
G1 X98.536 Y101.473 E1.12921
G1 X98.857 Y101.247 E1.14559
G1 X99.156 Y100.992 E1.16196
G1 X99.43 Y100.709 E1.17834
G1 X99.676 Y100.402 E1.19472
G1 X99.895 Y100.069 E1.21134
G1 X100.18 Y99.486 E1.23838
G1 X100.372 Y98.863 E1.26554
G1 X100.454 Y98.345 E1.28739
G1 X100.483 Y97.715 E1.31369
G1 X100.539 Y97.201 E1.33523
G1 X100.643 Y96.7 E1.35653
G1 X100.793 Y96.211 E1.37784
G1 X100.988 Y95.742 E1.39902
G1 X101.318 Y95.142 E1.42754
G1 X101.72 Y94.588 E1.45606
G1 X102.062 Y94.212 E1.47724
G1 X102.438 Y93.87 E1.49842
G1 X102.992 Y93.468 E1.52694
G1 X103.592 Y93.138 E1.55547
G1 X104.061 Y92.943 E1.57665
G1 X104.547 Y92.794 E1.59783
G1 X105.223 Y92.665 E1.62647
G1 X105.727 Y92.625 E1.64753
G1 X106.07 Y92.636 E1.66185
G1 X106.414 Y92.647 E1.67617
G1 X106.914 Y92.718 E1.69724
G1 X107.58 Y92.889 E1.72588
G1 X108.056 Y93.069 E1.74706
G1 X108.515 Y93.294 E1.76837
G1 X108.951 Y93.561 E1.78967
G1 X109.357 Y93.866 E1.81086
G1 X109.858 Y94.337 E1.8395
G1 X110.189 Y94.723 E1.86068
G1 X110.483 Y95.142 E1.88199
G1 X110.736 Y95.586 E1.90329
G1 X110.946 Y96.052 E1.9246
G1 X111.112 Y96.536 E1.9459
G1 X111.232 Y97.036 E1.96733
G1 X111.285 Y97.366 E1.98127
G1 X111.378 Y98.599 E2.03279
G1 X111.492 Y99.111 E2.05465
G1 X111.622 Y99.489 E2.07127
G1 X111.842 Y99.958 E2.09286
G1 X112.049 Y100.295 E2.10936
G1 X112.285 Y100.61 E2.12574
G1 X112.552 Y100.903 E2.14224
G1 X112.943 Y101.247 E2.16395
G1 X113.376 Y101.542 E2.18578
G1 X113.84 Y101.778 E2.20749
G1 X114.213 Y101.919 E2.22411
G1 X114.715 Y102.048 E2.24571
G1 X115.11 Y102.104 E2.26233
G1 X115.631 Y102.121 E2.28404
G1 X116.153 Y102.071 E2.30587
G1 X116.661 Y101.958 E2.32758
G1 X117.039 Y101.828 E2.34421
G1 X117.508 Y101.608 E2.36579
G1 X117.848 Y101.399 E2.38242
G1 X118.257 Y101.082 E2.40401
G1 X118.542 Y100.806 E2.4205
G1 X118.797 Y100.507 E2.43688
G1 X119.026 Y100.181 E2.45351
G1 X119.33 Y99.607 E2.48054
G1 X119.541 Y98.991 E2.50771
G1 X119.64 Y98.473 E2.52968
G1 X119.696 Y97.542 E2.56854
G1 X119.769 Y97.033 E2.58994
G1 X119.888 Y96.536 E2.61125
G1 X120.053 Y96.055 E2.63243
G1 X120.345 Y95.433 E2.66107
G1 X120.611 Y94.999 E2.68226
G1 X120.918 Y94.59 E2.70356
G1 X121.262 Y94.212 E2.72487
G1 X121.64 Y93.868 E2.74617
G1 X122.049 Y93.561 E2.76748
G1 X122.483 Y93.295 E2.78866
G1 X123.105 Y93.003 E2.8173
G1 X123.586 Y92.838 E2.83849
G1 X124.083 Y92.719 E2.85979
G1 X124.586 Y92.647 E2.88098
G1 X125.271 Y92.625 E2.9095
G1 X125.952 Y92.69 E2.93801
G1 X126.45 Y92.793 E2.9592
G1 X126.939 Y92.943 E2.9805
G1 X127.411 Y93.139 E3.00181
G1 X127.863 Y93.378 E3.02311
G1 X128.288 Y93.657 E3.0443
G1 X128.817 Y94.096 E3.07294
G1 X129.171 Y94.461 E3.09412
G1 X129.491 Y94.86 E3.11543
G1 X129.772 Y95.287 E3.13673
G1 X130.011 Y95.739 E3.15804
G1 X130.207 Y96.211 E3.17934
G1 X130.357 Y96.7 E3.20065
G1 X130.461 Y97.201 E3.22195
G1 X130.518 Y97.715 E3.24349
G1 X130.546 Y98.345 E3.26979
G1 X130.628 Y98.86 E3.29151
G1 X130.775 Y99.366 E3.31347
G1 X131.041 Y99.955 E3.34038
G1 X131.249 Y100.295 E3.35701
G1 X131.485 Y100.61 E3.37338
G1 X131.75 Y100.9 E3.38977
G1 X132.04 Y101.165 E3.40615
G1 X132.355 Y101.401 E3.42252
G1 X132.69 Y101.606 E3.4389
G1 X133.043 Y101.779 E3.45528
G1 X133.413 Y101.919 E3.47178
G1 X133.918 Y102.049 E3.49349
G1 X134.441 Y102.115 E3.51544
G1 X135.09 Y102.105 E3.54248
G1 X135.61 Y102.022 E3.56444
G1 X136.113 Y101.876 E3.58627
G1 X136.597 Y101.667 E3.60823
G1 X137.15 Y101.328 E3.63527
G1 X137.554 Y100.994 E3.6571
G1 X137.832 Y100.707 E3.67372
G1 X138.149 Y100.298 E3.69531
G1 X138.358 Y99.958 E3.71193
G1 X138.58 Y99.486 E3.73365
G1 X138.741 Y98.99 E3.75536
G1 X138.822 Y98.597 E3.77211
G1 X138.906 Y97.514 E3.81737
G1 X139.041 Y96.864 E3.84504
G1 X139.171 Y96.485 E3.86173
G1 X139.336 Y96.119 E3.87842
G1 X139.536 Y95.769 E3.89524
G1 X139.935 Y95.238 E3.92292
G1 X140.214 Y94.95 E3.93961
G1 X140.519 Y94.69 E3.95631
G1 X140.846 Y94.459 E3.973
G1 X141.194 Y94.261 E3.98969
G1 X141.557 Y94.097 E4.00626
G1 X142.07 Y93.93 E4.02876
G1 X142.457 Y93.85 E4.04521
G1 X142.991 Y93.8 E4.06758
G1 X143.525 Y93.817 E4.08982
G1 X144.053 Y93.9 E4.11208
G1 X144.565 Y94.049 E4.13433
G1 X145.055 Y94.261 E4.15657
G1 X145.515 Y94.533 E4.17882
G1 X145.937 Y94.86 E4.20107
G1 X146.315 Y95.238 E4.22332
G1 X146.642 Y95.66 E4.24557
G1 X146.914 Y96.12 E4.26782
G1 X147.128 Y96.615 E4.29032
G1 X147.302 Y97.25 E4.31775
G1 X147.369 Y97.783 E4.34012
G1 X147.369 Y98.317 E4.36237
G1 X147.302 Y98.847 E4.38462
G1 X147.169 Y99.364 E4.40687
G1 X146.973 Y99.861 E4.42912
G1 X146.714 Y100.331 E4.45149
G1 X146.487 Y100.654 E4.46794
G1 X146.132 Y101.057 E4.49031
G1 X145.731 Y101.41 E4.51256
G1 X145.29 Y101.71 E4.53481
G1 X144.81 Y101.954 E4.55725
G1 X144.81 Y100.518 E4.6171
G1 X145.035 Y100.361 E4.62855
G1 X145.374 Y100.033 E4.6482
G1 X145.658 Y99.654 E4.66793
G1 X145.912 Y99.156 E4.6912
G1 X146.052 Y98.701 E4.71104
G1 X146.122 Y98.147 E4.73431
G1 X146.1 Y97.674 E4.75404
G1 X146.004 Y97.211 E4.77376
G1 X145.797 Y96.689 E4.79716
G1 X145.498 Y96.217 E4.82042
G1 X145.247 Y95.932 E4.83623
G1 X145.029 Y95.735 E4.84849
G1 X144.57 Y95.422 E4.87164
G1 X144.052 Y95.198 E4.89515
G1 X143.501 Y95.075 E4.91867
G1 X142.943 Y95.057 E4.94194
G1 X142.566 Y95.105 E4.95775
G1 X142.28 Y95.174 E4.97
G1 X141.764 Y95.378 E4.99315
G1 X141.292 Y95.677 E5.01642
G1 X141.007 Y95.928 E5.03223
G1 X140.81 Y96.146 E5.04448
G1 X140.501 Y96.6 E5.06738
G1 X140.336 Y96.949 E5.08344
G1 X140.2 Y97.393 E5.10279
G1 X140.141 Y97.764 E5.11842
G1 X140.104 Y98.46 E5.14746
G1 X140.031 Y98.967 E5.16881
G1 X139.913 Y99.461 E5.19
G1 X139.68 Y100.108 E5.21864
G1 X139.458 Y100.562 E5.2397
G1 X139.091 Y101.14 E5.26822
G1 X138.654 Y101.667 E5.29674
G1 X138.289 Y102.021 E5.31792
G1 X137.893 Y102.339 E5.33911
G1 X137.315 Y102.706 E5.36762
G1 X136.698 Y102.996 E5.39602
G1 X136.047 Y103.208 E5.42454
G1 X135.552 Y103.31 E5.44561
G1 X134.871 Y103.375 E5.47412
G1 X134.189 Y103.353 E5.50252
G1 X133.513 Y103.246 E5.53104
G1 X133.023 Y103.112 E5.55222
G1 X132.544 Y102.931 E5.57353
G1 X132.085 Y102.706 E5.59483
G1 X131.649 Y102.439 E5.61614
G1 X131.24 Y102.132 E5.63745
G1 X130.862 Y101.788 E5.65875
G1 X130.518 Y101.41 E5.68006
G1 X130.211 Y101.001 E5.70136
G1 X129.942 Y100.562 E5.72279
G1 X129.789 Y100.261 E5.73687
G1 X129.655 Y99.951 E5.75096
G1 X129.488 Y99.464 E5.77239
G1 X129.368 Y98.964 E5.79381
G1 X129.315 Y98.634 E5.80775
G1 X129.222 Y97.404 E5.85915
G1 X129.141 Y97.012 E5.8758
G1 X129.026 Y96.637 E5.89218
G1 X128.875 Y96.273 E5.90856
G1 X128.691 Y95.926 E5.92493
G1 X128.476 Y95.598 E5.94131
G1 X128.23 Y95.291 E5.95769
G1 X127.954 Y95.006 E5.97419
G1 X127.555 Y94.676 E5.99578
G1 X127.222 Y94.457 E6.0124
G1 X126.757 Y94.22 E6.03411
G1 X126.267 Y94.044 E6.05582
G1 X125.882 Y93.951 E6.07233
G1 X125.493 Y93.896 E6.0887
G1 X125.097 Y93.877 E6.1052
G1 X124.577 Y93.91 E6.12692
G1 X124.062 Y94.008 E6.14875
G1 X123.564 Y94.17 E6.17058
G1 X123.09 Y94.393 E6.19242
G1 X122.647 Y94.674 E6.21425
G1 X122.246 Y95.006 E6.23596
G1 X121.968 Y95.293 E6.25258
G1 X121.651 Y95.702 E6.27417
G1 X121.444 Y96.04 E6.29067
G1 X121.268 Y96.398 E6.30729
G1 X121.058 Y97.012 E6.33433
G1 X120.946 Y97.652 E6.36138
G1 X120.918 Y98.285 E6.38781
G1 X120.861 Y98.799 E6.40934
G1 X120.757 Y99.3 E6.43065
G1 X120.607 Y99.789 E6.45195
G1 X120.412 Y100.258 E6.47314
G1 X120.081 Y100.861 E6.50178
G1 X119.789 Y101.277 E6.52296
G1 X119.457 Y101.665 E6.54427
G1 X119.089 Y102.021 E6.56557
G1 X118.69 Y102.341 E6.58688
G1 X118.263 Y102.622 E6.60818
G1 X117.811 Y102.861 E6.62949
G1 X117.339 Y103.057 E6.65079
G1 X116.847 Y103.208 E6.67222
G1 X116.52 Y103.281 E6.68618
G1 X116.014 Y103.353 E6.70749
G1 X115.327 Y103.375 E6.73613
G1 X114.823 Y103.335 E6.75719
G1 X114.147 Y103.206 E6.78583
G1 X113.661 Y103.057 E6.80702
G1 X113.192 Y102.862 E6.8282
G1 X112.592 Y102.532 E6.85672
G1 X112.038 Y102.13 E6.88524
G1 X111.662 Y101.788 E6.90642
G1 X111.318 Y101.41 E6.92773
G1 X111.011 Y101.001 E6.94903
G1 X110.745 Y100.567 E6.97022
G1 X110.453 Y99.945 E6.99886
G1 X110.288 Y99.464 E7.02004
G1 X110.169 Y98.967 E7.04135
G1 X110.096 Y98.458 E7.06275
G1 X110.04 Y97.527 E7.10161
G1 X109.941 Y97.009 E7.12358
G1 X109.73 Y96.393 E7.15074
G1 X109.426 Y95.819 E7.17778
G1 X109.197 Y95.493 E7.19441
G1 X108.942 Y95.194 E7.21078
G1 X108.657 Y94.918 E7.22729
G1 X108.248 Y94.601 E7.24887
G1 X107.908 Y94.392 E7.2655
G1 X107.439 Y94.172 E7.28708
G1 X107.061 Y94.042 E7.30371
G1 X106.553 Y93.929 E7.32542
G1 X106.031 Y93.879 E7.34725
G1 X105.51 Y93.896 E7.36896
G1 X105.115 Y93.952 E7.38558
G1 X104.613 Y94.081 E7.40717
G1 X104.24 Y94.222 E7.4238
G1 X103.776 Y94.458 E7.44551
G1 X103.343 Y94.753 E7.46734
G1 X102.952 Y95.097 E7.48905
G1 X102.683 Y95.393 E7.50568
G1 X102.379 Y95.812 E7.52726
G1 X102.181 Y96.158 E7.54389
G1 X101.975 Y96.634 E7.56547
G1 X101.859 Y97.012 E7.58197
G1 X101.778 Y97.404 E7.59862
G1 X101.685 Y98.634 E7.65002
G1 X101.632 Y98.964 E7.66396
G1 X101.512 Y99.464 E7.68539
G1 X101.345 Y99.951 E7.70681
G1 X101.212 Y100.258 E7.72078
G1 X100.972 Y100.713 E7.74221
G1 X100.691 Y101.14 E7.76351
G1 X100.371 Y101.539 E7.78482
G1 X100.015 Y101.907 E7.80612
G1 X99.627 Y102.239 E7.82743
G1 X99.208 Y102.533 E7.84873
G1 X98.764 Y102.786 E7.87004
G1 X98.298 Y102.996 E7.89134
G1 X97.814 Y103.162 E7.91265
G1 X97.317 Y103.281 E7.93395
G1 X96.814 Y103.353 E7.95514
G1 X96.13 Y103.375 E7.98366
G1 X95.451 Y103.31 E8.01205
G1 X94.786 Y103.162 E8.04045
G1 X94.142 Y102.93 E8.06897
G1 X93.688 Y102.708 E8.09003
G1 X93.11 Y102.341 E8.11855
G1 X92.585 Y101.906 E8.14695
G1 X92.116 Y101.407 E8.17547
G1 X91.811 Y101.001 E8.19665
G1 X91.545 Y100.567 E8.21783
G1 X91.253 Y99.945 E8.24647
G1 X91.088 Y99.464 E8.26766
G1 X90.969 Y98.967 E8.28897
G1 X90.896 Y98.46 E8.31032
G1 X90.859 Y97.764 E8.33935
G1 X90.8 Y97.393 E8.35499
G1 X90.663 Y96.949 E8.37434
G1 X90.499 Y96.601 E8.3904
G1 X90.186 Y96.139 E8.41367
G1 X89.789 Y95.742 E8.43706
G1 X89.399 Y95.468 E8.45691
G1 X88.896 Y95.231 E8.48005
G1 X88.532 Y95.125 E8.49586
G1 X88.242 Y95.075 E8.50812
G1 X87.687 Y95.057 E8.53126
G1 X87.129 Y95.146 E8.55478
G1 X86.598 Y95.337 E8.57829
G1 X86.118 Y95.621 E8.60156
G1 X85.825 Y95.863 E8.61737
G1 X85.62 Y96.074 E8.62963
G1 X85.297 Y96.519 E8.65253
G1 X85.125 Y96.857 E8.66834
G1 X85.021 Y97.132 E8.68059
G1 X84.901 Y97.671 E8.70362
G1 X84.878 Y98.147 E8.72346
G1 X84.948 Y98.701 E8.74673
G1 X85.087 Y99.154 E8.76646
G1 X85.296 Y99.579 E8.78618
G1 X85.624 Y100.031 E8.80945
G1 X85.965 Y100.361 E8.82922
G1 X86.191 Y100.518 E8.84068
G1 X86.191 Y101.887 E8.89772
;WIPE_START
G1 X85.904 Y101.668 F9000
;WIPE_END
G1 X85.96 Y101.215
;TYPE:Gap fill
;WIDTH:0.540933
G1 F1200
G1 X85.884 Y101.149 E8.90188
;WIDTH:0.585275
G1 X85.808 Y101.082 E8.90642
G1 X85.718 Y100.994 E8.91214
;WIDTH:0.614248
G1 X85.627 Y100.905 E8.91817
;WIDTH:0.733178
G1 X85.558 Y100.838 E8.92365
;WIDTH:0.833682
G1 X85.542 Y100.824 E8.92507
G1 X85.431 Y100.719 E8.93512
G1 X85.319 Y100.614 E8.94517
G1 X85.248 Y100.539 E8.952
G1 X85.176 Y100.464 E8.95883
G1 X85.131 Y100.413 E8.96328
G1 X85.071 Y100.338 E8.9696
G1 X85.011 Y100.263 E8.97591
G1 X84.916 Y100.13 E8.98666
G1 X84.821 Y99.997 E8.99741
G1 X84.778 Y99.93 E9.00266
G1 X84.745 Y99.871 E9.00712
G1 X84.672 Y99.731 E9.01748
G1 X84.599 Y99.591 E9.02784
G1 X84.56 Y99.501 E9.03431
