; generated by SuperSlicer 2.4 on 2024-01-04 at 03:43:56 UTC


;
;

;
;
; 

; external perimeters extrusion width = 0.45mm
; perimeters extrusion width = 0.45mm
; infill extrusion width = 0.45mm
; solid infill extrusion width = 0.45mm
; top infill extrusion width = 0.40mm
; first layer extrusion width = 0.42mm

; object:{"name":"pegboardtray_v1_builtinsupports","id":"pegboardtray_v1_builtinsupports.stl id:0 copy 0","object_center":[0.000000,0.000000,0.000000],"boundingbox_center":[0.000000,0.000000,10.160000],"boundingbox_size":[152.400009,36.512501,20.320000]}
; plater:{"center":[0.000000,0.000000,0.000000],"boundingbox_center":[0.000000,0.000000,10.160000],"boundingbox_size":[152.400009,36.512501,20.320000]}

;TYPE:Custom
START_PRINT
M107
G21 ; set units to millimeters
G90 ; use absolute coordinates
M83 ; use relative distances for extrusion
; Filament gcode
;_TOOLCHANGE 0
M104 S200 ; set temperature
M109 S200 ; set temperature and wait for it to be reached
M190 S60 ; set bed temperature and wait for it to be reached
M107
;LAYER_CHANGE
;Z:0.2
;HEIGHT:0.2
;BEFORE_LAYER_CHANGE
G92 E0
;0.2
G1 E-5 F3600
G1 Z0.2 F10800
;AFTER_LAYER_CHANGE
;0.2
M204 S1000
G1 X0 Y16.455
G1 E5 F2400
;TYPE:Skirt
;WIDTH:0.52
G1 F1200
G1 X63.375 Y16.455 E2.51406
G1 X65.69 Y15.965 E0.09386
G1 X74.123 Y12.23 E0.36588
G1 X75.993 Y10.897 E0.09109
G1 X77.128 Y9.095 E0.08445
G1 X77.524 Y7.004 E0.08445
G1 X77.474 Y-14.935 E0.87028
G1 X77.172 Y-16.27 E0.05432
G1 X76.53 Y-17.617 E0.05919
G1 X75.19 Y-19.165 E0.08122
G1 X73.714 Y-20.11 E0.06951
G1 X72.246 Y-20.587 E0.06123
G1 X71.058 Y-20.712 E0.0474
G1 X-71.058 Y-20.712 E5.63766
G1 X-72.246 Y-20.587 E0.0474
G1 X-73.714 Y-20.11 E0.06123
G1 X-75.19 Y-19.165 E0.06951
G1 X-76.53 Y-17.617 E0.08122
G1 X-77.172 Y-16.27 E0.05919
G1 X-77.474 Y-14.935 E0.05432
G1 X-77.524 Y7.004 E0.87028
G1 X-77.063 Y9.253 E0.09109
G1 X-75.875 Y11.02 E0.08445
G1 X-74.123 Y12.23 E0.08445
G1 X-65.69 Y15.965 E0.36588
G1 X-63.375 Y16.455 E0.09386
G1 X-0.06 Y16.455 E2.51168
G1 X-0.06 Y15.978 F10800
G1 F1200
G1 X63.375 Y15.978 E2.51644
G1 X65.497 Y15.529 E0.08602
G1 X73.93 Y11.793 E0.36588
G1 X75.522 Y10.698 E0.07666
G1 X76.651 Y9.002 E0.08082
G1 X77.047 Y7.004 E0.08082
G1 X77 Y-14.885 E0.8683
G1 X76.718 Y-16.123 E0.05036
G1 X76.129 Y-17.357 E0.05425
G1 X74.89 Y-18.795 E0.0753
G1 X73.52 Y-19.674 E0.06457
G1 X72.147 Y-20.12 E0.05727
G1 X71.058 Y-20.235 E0.04344
G1 X-71.058 Y-20.235 E5.63766
G1 X-72.147 Y-20.12 E0.04344
G1 X-73.52 Y-19.674 E0.05727
G1 X-74.89 Y-18.795 E0.06457
G1 X-76.129 Y-17.357 E0.0753
G1 X-76.718 Y-16.123 E0.05425
G1 X-77 Y-14.885 E0.05036
G1 X-77.047 Y7.004 E0.8683
G1 X-76.691 Y8.903 E0.07666
G1 X-75.597 Y10.622 E0.08082
G1 X-73.93 Y11.793 E0.08082
G1 X-65.497 Y15.529 E0.36588
G1 X-63.375 Y15.978 E0.08602
G1 X-0.12 Y15.978 E2.5093
G1 E-3.5 F3600
;WIPE_START
G1 F8640
G1 X3.48 Y15.978 E-1.425
;WIPE_END
G1 E-0.075 F3600
; printing object pegboardtray_v1_builtinsupports.stl id:0 copy 0
; acceleration to travel
M204 S1500
G1 X0.466 Y7.657 F10800
; decel to extrusion
M204 S800
G1 X-0.12 Y6.04
; end travel
G1 E5 F2400
;TYPE:Internal perimeter
;WIDTH:0.42
G1 F1200
G1 X-12.295 Y6.04 E0.38172
G1 X-12.295 Y9.775 E0.11712
G1 X-12.607 Y9.775 E0.00981
G1 X-12.607 Y6.04 E0.11712
G1 X-62.098 Y6.04 E1.55176
G1 X-62.098 Y9.775 E0.11712
G1 X-62.411 Y9.775 E0.00981
G1 X-62.411 Y6.04 E0.11712
G1 X-70.844 Y6.04 E0.26441
G1 X-70.844 Y-14.032 E0.62933
G1 X70.844 Y-14.032 E4.44255
G1 X70.844 Y6.04 E0.62933
G1 X62.411 Y6.04 E0.26441
G1 X62.411 Y9.775 E0.11712
G1 X62.098 Y9.775 E0.00981
G1 X62.098 Y6.04 E0.11712
G1 X12.607 Y6.04 E1.55176
G1 X12.607 Y9.775 E0.11712
G1 X12.295 Y9.775 E0.00981
G1 X12.295 Y6.04 E0.11712
G1 X-0.06 Y6.04 E0.38737
G1 X-0.12 Y6.417 F10800
G1 F1200
G1 X-11.917 Y6.417 E0.3699
G1 X-11.917 Y10.152 E0.11712
G1 X-12.984 Y10.152 E0.03346
G1 X-12.984 Y6.417 E0.11712
G1 X-61.721 Y6.417 E1.52811
G1 X-61.721 Y10.152 E0.11712
G1 X-62.788 Y10.152 E0.03346
G1 X-62.788 Y6.417 E0.11712
G1 X-71.221 Y6.417 E0.26441
G1 X-71.221 Y-14.132 E0.64429
G1 X-71.211 Y-14.235 E0.00322
G1 X-71.152 Y-14.326 E0.00341
G1 X-71.068 Y-14.394 E0.00339
G1 X-70.997 Y-14.409 E0.00227
G1 X70.996 Y-14.409 E4.4521
G1 X71.067 Y-14.394 E0.00226
G1 X71.151 Y-14.326 E0.00341
G1 X71.21 Y-14.235 E0.0034
G1 X71.221 Y-14.132 E0.00324
G1 X71.221 Y6.417 E0.6443
G1 X62.788 Y6.417 E0.26441
G1 X62.788 Y10.152 E0.11712
G1 X61.721 Y10.152 E0.03346
G1 X61.721 Y6.417 E0.11712
G1 X12.984 Y6.417 E1.52811
G1 X12.984 Y10.152 E0.11712
G1 X11.917 Y10.152 E0.03346
G1 X11.917 Y6.417 E0.11712
G1 X-0.06 Y6.417 E0.37555
G1 X-0.12 Y6.794 F10800
;TYPE:External perimeter
G1 F1200
G1 X-11.54 Y6.794 E0.35808
G1 X-11.54 Y10.529 E0.11712
G1 X-13.362 Y10.529 E0.0571
G1 X-13.362 Y6.794 E0.11712
G1 X-61.344 Y6.794 E1.50447
G1 X-61.344 Y10.529 E0.11712
G1 X-63.165 Y10.529 E0.0571
G1 X-63.165 Y6.794 E0.11712
G1 X-71.598 Y6.794 E0.26441
G1 X-71.598 Y-14.152 E0.65674
G1 X-71.584 Y-14.293 E0.00445
G1 X-71.545 Y-14.413 E0.00393
G1 X-71.435 Y-14.581 E0.00631
G1 X-71.279 Y-14.708 E0.00631
G1 X-71.164 Y-14.759 E0.00393
G1 X-71.036 Y-14.786 E0.00411
G1 X71.036 Y-14.786 E4.45457
G1 X71.164 Y-14.759 E0.00411
G1 X71.279 Y-14.708 E0.00393
G1 X71.435 Y-14.581 E0.00631
G1 X71.545 Y-14.413 E0.00631
G1 X71.584 Y-14.293 E0.00393
G1 X71.598 Y-14.152 E0.00445
G1 X71.598 Y6.794 E0.65674
G1 X63.165 Y6.794 E0.26441
G1 X63.165 Y10.529 E0.11712
G1 X61.344 Y10.529 E0.0571
G1 X61.344 Y6.794 E0.11712
G1 X13.362 Y6.794 E1.50447
G1 X13.362 Y10.529 E0.11712
G1 X11.54 Y10.529 E0.0571
G1 X11.54 Y6.794 E0.11712
G1 X-0.06 Y6.794 E0.36372
;WIPE_START
M204 S1000
G1 X-0.32 Y6.447 F10800
;WIPE_END
G1 E-3.5 F3600
;WIPE_START
G1 F8640
G1 X-3.92 Y6.493 E-1.425
;WIPE_END
G1 E-0.075 F3600
; acceleration to travel
M204 S1500
G1 X55.524 Y-9.928 F10800
; decel to extrusion
M204 S1000
G1 X69.969 Y-13.919
; end travel
G1 E5 F2400
;TYPE:Solid infill
;WIDTH:0.420287
G1 F1200
G1 X70.569 Y-13.319 E0.02663
G1 X70.569 Y-12.786 E0.01673
G1 X69.598 Y-13.757 E0.0431
G1 X69.065 Y-13.757 E0.01673
G1 X70.569 Y-12.252 E0.06676
G1 X70.569 Y-11.719 E0.01673
G1 X68.531 Y-13.757 E0.09042
G1 X67.998 Y-13.757 E0.01673
G1 X70.569 Y-11.186 E0.11408
G1 X70.569 Y-10.653 E0.01673
G1 X67.465 Y-13.757 E0.13775
G1 X66.931 Y-13.757 E0.01673
G1 X70.569 Y-10.119 E0.16141
G1 X70.569 Y-9.586 E0.01673
G1 X66.398 Y-13.757 E0.18507
G1 X65.865 Y-13.757 E0.01673
G1 X70.569 Y-9.053 E0.20873
G1 X70.569 Y-8.519 E0.01673
G1 X65.332 Y-13.757 E0.23239
G1 X64.798 Y-13.757 E0.01673
G1 X70.569 Y-7.986 E0.25606
G1 X70.569 Y-7.453 E0.01673
G1 X64.265 Y-13.757 E0.27972
G1 X63.732 Y-13.757 E0.01673
G1 X70.569 Y-6.92 E0.30338
G1 X70.569 Y-6.386 E0.01673
G1 X63.199 Y-13.757 E0.32704
G1 X62.665 Y-13.757 E0.01673
G1 X70.569 Y-5.853 E0.35071
G1 X70.569 Y-5.32 E0.01673
G1 X62.132 Y-13.757 E0.37437
G1 X61.599 Y-13.757 E0.01673
G1 X70.569 Y-4.787 E0.39803
G1 X70.569 Y-4.253 E0.01673
G1 X61.065 Y-13.757 E0.42169
G1 X60.532 Y-13.757 E0.01673
G1 X70.569 Y-3.72 E0.44535
G1 X70.569 Y-3.187 E0.01673
G1 X59.999 Y-13.757 E0.46902
G1 X59.466 Y-13.757 E0.01673
G1 X70.569 Y-2.653 E0.49268
G1 X70.569 Y-2.12 E0.01673
G1 X58.932 Y-13.757 E0.51634
G1 X58.399 Y-13.757 E0.01673
G1 X70.569 Y-1.587 E0.54
G1 X70.569 Y-1.054 E0.01673
G1 X57.866 Y-13.757 E0.56367
G1 X57.333 Y-13.757 E0.01673
G1 X70.569 Y-0.52 E0.58733
G1 X70.569 Y0.013 E0.01673
G1 X56.799 Y-13.757 E0.61099
G1 X56.266 Y-13.757 E0.01673
G1 X70.569 Y0.546 E0.63465
G1 X70.569 Y1.079 E0.01673
G1 X55.733 Y-13.757 E0.65832
G1 X55.2 Y-13.757 E0.01673
G1 X70.569 Y1.613 E0.68198
G1 X70.569 Y2.146 E0.01673
G1 X54.666 Y-13.757 E0.70564
G1 X54.133 Y-13.757 E0.01673
G1 X70.569 Y2.679 E0.7293
G1 X70.569 Y3.212 E0.01673
G1 X53.6 Y-13.757 E0.75296
G1 X53.066 Y-13.757 E0.01673
G1 X70.569 Y3.746 E0.77663
G1 X70.569 Y4.279 E0.01673
G1 X52.533 Y-13.757 E0.80029
G1 X52 Y-13.757 E0.01673
G1 X70.569 Y4.812 E0.82395
G1 X70.569 Y5.346 E0.01673
G1 X51.467 Y-13.757 E0.84761
G1 X50.933 Y-13.757 E0.01673
G1 X70.454 Y5.764 E0.86619
G1 X69.921 Y5.764 E0.01673
G1 X50.4 Y-13.757 E0.86619
G1 X49.867 Y-13.757 E0.01673
G1 X69.388 Y5.764 E0.86619
G1 X68.855 Y5.764 E0.01673
G1 X49.334 Y-13.757 E0.86619
G1 X48.8 Y-13.757 E0.01673
G1 X68.321 Y5.764 E0.86619
G1 X67.788 Y5.764 E0.01673
G1 X48.267 Y-13.757 E0.86619
G1 X47.734 Y-13.757 E0.01673
G1 X67.255 Y5.764 E0.86619
G1 X66.722 Y5.764 E0.01673
G1 X47.2 Y-13.757 E0.86619
G1 X46.667 Y-13.757 E0.01673
G1 X66.188 Y5.764 E0.86619
G1 X65.655 Y5.764 E0.01673
G1 X46.134 Y-13.757 E0.86619
G1 X45.601 Y-13.757 E0.01673
G1 X65.122 Y5.764 E0.86619
G1 X64.589 Y5.764 E0.01673
G1 X45.067 Y-13.757 E0.86619
G1 X44.534 Y-13.757 E0.01673
G1 X64.055 Y5.764 E0.86619
G1 X63.522 Y5.764 E0.01673
G1 X44.001 Y-13.757 E0.86619
G1 X43.468 Y-13.757 E0.01673
G1 X62.989 Y5.764 E0.86619
G1 X62.455 Y5.764 E0.01673
G1 X42.934 Y-13.757 E0.86619
G1 X42.401 Y-13.757 E0.01673
G1 X61.922 Y5.764 E0.86619
G1 X61.389 Y5.764 E0.01673
G1 X41.868 Y-13.757 E0.86619
G1 X41.334 Y-13.757 E0.01673
G1 X60.856 Y5.764 E0.86619
G1 X60.322 Y5.764 E0.01673
G1 X40.801 Y-13.757 E0.86619
G1 X40.268 Y-13.757 E0.01673
G1 X59.789 Y5.764 E0.86619
G1 X59.256 Y5.764 E0.01673
G1 X39.735 Y-13.757 E0.86619
G1 X39.201 Y-13.757 E0.01673
G1 X58.723 Y5.764 E0.86619
G1 X58.189 Y5.764 E0.01673
G1 X38.668 Y-13.757 E0.86619
G1 X38.135 Y-13.757 E0.01673
G1 X57.656 Y5.764 E0.86619
G1 X57.123 Y5.764 E0.01673
G1 X37.602 Y-13.757 E0.86619
G1 X37.068 Y-13.757 E0.01673
G1 X56.589 Y5.764 E0.86619
G1 X56.056 Y5.764 E0.01673
G1 X36.535 Y-13.757 E0.86619
G1 X36.002 Y-13.757 E0.01673
G1 X55.523 Y5.764 E0.86619
G1 X54.99 Y5.764 E0.01673
G1 X35.469 Y-13.757 E0.86619
G1 X34.935 Y-13.757 E0.01673
G1 X54.456 Y5.764 E0.86619
G1 X53.923 Y5.764 E0.01673
G1 X34.402 Y-13.757 E0.86619
G1 X33.869 Y-13.757 E0.01673
G1 X53.39 Y5.764 E0.86619
G1 X52.857 Y5.764 E0.01673
G1 X33.335 Y-13.757 E0.86619
G1 X32.802 Y-13.757 E0.01673
G1 X52.323 Y5.764 E0.86619
G1 X51.79 Y5.764 E0.01673
G1 X32.269 Y-13.757 E0.86619
G1 X31.736 Y-13.757 E0.01673
G1 X51.257 Y5.764 E0.86619
G1 X50.723 Y5.764 E0.01673
G1 X31.202 Y-13.757 E0.86619
G1 X30.669 Y-13.757 E0.01673
G1 X50.19 Y5.764 E0.86619
G1 X49.657 Y5.764 E0.01673
G1 X30.136 Y-13.757 E0.86619
G1 X29.603 Y-13.757 E0.01673
G1 X49.124 Y5.764 E0.86619
G1 X48.59 Y5.764 E0.01673
G1 X29.069 Y-13.757 E0.86619
G1 X28.536 Y-13.757 E0.01673
G1 X48.057 Y5.764 E0.86619
G1 X47.524 Y5.764 E0.01673
G1 X28.003 Y-13.757 E0.86619
G1 X27.469 Y-13.757 E0.01673
G1 X46.991 Y5.764 E0.86619
G1 X46.457 Y5.764 E0.01673
G1 X26.936 Y-13.757 E0.86619
G1 X26.403 Y-13.757 E0.01673
G1 X45.924 Y5.764 E0.86619
G1 X45.391 Y5.764 E0.01673
G1 X25.87 Y-13.757 E0.86619
G1 X25.336 Y-13.757 E0.01673
G1 X44.858 Y5.764 E0.86619
G1 X44.324 Y5.764 E0.01673
G1 X24.803 Y-13.757 E0.86619
G1 X24.27 Y-13.757 E0.01673
G1 X43.791 Y5.764 E0.86619
G1 X43.258 Y5.764 E0.01673
G1 X23.737 Y-13.757 E0.86619
G1 X23.203 Y-13.757 E0.01673
G1 X42.724 Y5.764 E0.86619
G1 X42.191 Y5.764 E0.01673
G1 X22.67 Y-13.757 E0.86619
G1 X22.137 Y-13.757 E0.01673
G1 X41.658 Y5.764 E0.86619
G1 X41.125 Y5.764 E0.01673
G1 X21.603 Y-13.757 E0.86619
G1 X21.07 Y-13.757 E0.01673
G1 X40.591 Y5.764 E0.86619
G1 X40.058 Y5.764 E0.01673
G1 X20.537 Y-13.757 E0.86619
G1 X20.004 Y-13.757 E0.01673
G1 X39.525 Y5.764 E0.86619
G1 X38.992 Y5.764 E0.01673
G1 X19.47 Y-13.757 E0.86619
G1 X18.937 Y-13.757 E0.01673
G1 X38.458 Y5.764 E0.86619
G1 X37.925 Y5.764 E0.01673
G1 X18.404 Y-13.757 E0.86619
G1 X17.871 Y-13.757 E0.01673
G1 X37.392 Y5.764 E0.86619
G1 X36.858 Y5.764 E0.01673
G1 X17.337 Y-13.757 E0.86619
G1 X16.804 Y-13.757 E0.01673
G1 X36.325 Y5.764 E0.86619
G1 X35.792 Y5.764 E0.01673
G1 X16.271 Y-13.757 E0.86619
G1 X15.738 Y-13.757 E0.01673
G1 X35.259 Y5.764 E0.86619
G1 X34.725 Y5.764 E0.01673
G1 X15.204 Y-13.757 E0.86619
G1 X14.671 Y-13.757 E0.01673
G1 X34.192 Y5.764 E0.86619
G1 X33.659 Y5.764 E0.01673
G1 X14.138 Y-13.757 E0.86619
G1 X13.604 Y-13.757 E0.01673
G1 X33.126 Y5.764 E0.86619
G1 X32.592 Y5.764 E0.01673
G1 X13.071 Y-13.757 E0.86619
G1 X12.538 Y-13.757 E0.01673
G1 X32.059 Y5.764 E0.86619
G1 X31.526 Y5.764 E0.01673
G1 X12.005 Y-13.757 E0.86619
G1 X11.471 Y-13.757 E0.01673
G1 X30.992 Y5.764 E0.86619
G1 X30.459 Y5.764 E0.01673
G1 X10.938 Y-13.757 E0.86619
G1 X10.405 Y-13.757 E0.01673
G1 X29.926 Y5.764 E0.86619
G1 X29.393 Y5.764 E0.01673
G1 X9.872 Y-13.757 E0.86619
G1 X9.338 Y-13.757 E0.01673
G1 X28.859 Y5.764 E0.86619
G1 X28.326 Y5.764 E0.01673
G1 X8.805 Y-13.757 E0.86619
G1 X8.272 Y-13.757 E0.01673
G1 X27.793 Y5.764 E0.86619
G1 X27.26 Y5.764 E0.01673
G1 X7.738 Y-13.757 E0.86619
G1 X7.205 Y-13.757 E0.01673
G1 X26.726 Y5.764 E0.86619
G1 X26.193 Y5.764 E0.01673
G1 X6.672 Y-13.757 E0.86619
G1 X6.139 Y-13.757 E0.01673
G1 X25.66 Y5.764 E0.86619
G1 X25.127 Y5.764 E0.01673
G1 X5.605 Y-13.757 E0.86619
G1 X5.072 Y-13.757 E0.01673
G1 X24.593 Y5.764 E0.86619
G1 X24.06 Y5.764 E0.01673
G1 X4.539 Y-13.757 E0.86619
G1 X4.006 Y-13.757 E0.01673
G1 X23.527 Y5.764 E0.86619
G1 X22.993 Y5.764 E0.01673
G1 X3.472 Y-13.757 E0.86619
G1 X2.939 Y-13.757 E0.01673
G1 X22.46 Y5.764 E0.86619
G1 X21.927 Y5.764 E0.01673
G1 X2.406 Y-13.757 E0.86619
G1 X1.872 Y-13.757 E0.01673
G1 X21.394 Y5.764 E0.86619
G1 X20.86 Y5.764 E0.01673
G1 X1.339 Y-13.757 E0.86619
G1 X0.806 Y-13.757 E0.01673
G1 X20.327 Y5.764 E0.86619
G1 X19.794 Y5.764 E0.01673
G1 X0.273 Y-13.757 E0.86619
G1 X-0.261 Y-13.757 E0.01673
G1 X19.261 Y5.764 E0.86619
G1 X18.727 Y5.764 E0.01673
G1 X-0.794 Y-13.757 E0.86619
G1 X-1.327 Y-13.757 E0.01673
G1 X18.194 Y5.764 E0.86619
G1 X17.661 Y5.764 E0.01673
G1 X-1.86 Y-13.757 E0.86619
G1 X-2.394 Y-13.757 E0.01673
G1 X17.127 Y5.764 E0.86619
G1 X16.594 Y5.764 E0.01673
G1 X-2.927 Y-13.757 E0.86619
G1 X-3.46 Y-13.757 E0.01673
G1 X16.061 Y5.764 E0.86619
G1 X15.528 Y5.764 E0.01673
G1 X-3.993 Y-13.757 E0.86619
G1 X-4.527 Y-13.757 E0.01673
G1 X14.994 Y5.764 E0.86619
G1 X14.461 Y5.764 E0.01673
G1 X-5.06 Y-13.757 E0.86619
G1 X-5.593 Y-13.757 E0.01673
G1 X13.928 Y5.764 E0.86619
G1 X13.395 Y5.764 E0.01673
G1 X-6.127 Y-13.757 E0.86619
G1 X-6.66 Y-13.757 E0.01673
G1 X12.861 Y5.764 E0.86619
G1 X12.328 Y5.764 E0.01673
G1 X-7.193 Y-13.757 E0.86619
G1 X-7.726 Y-13.757 E0.01673
G1 X11.795 Y5.764 E0.86619
G1 X11.261 Y5.764 E0.01673
G1 X-8.26 Y-13.757 E0.86619
G1 X-8.793 Y-13.757 E0.01673
G1 X10.728 Y5.764 E0.86619
G1 X10.195 Y5.764 E0.01673
G1 X-9.326 Y-13.757 E0.86619
G1 X-9.859 Y-13.757 E0.01673
G1 X9.662 Y5.764 E0.86619
G1 X9.128 Y5.764 E0.01673
G1 X-10.393 Y-13.757 E0.86619
G1 X-10.926 Y-13.757 E0.01673
G1 X8.595 Y5.764 E0.86619
G1 X8.062 Y5.764 E0.01673
G1 X-11.459 Y-13.757 E0.86619
G1 X-11.993 Y-13.757 E0.01673
G1 X7.529 Y5.764 E0.86619
G1 X6.995 Y5.764 E0.01673
G1 X-12.526 Y-13.757 E0.86619
G1 X-13.059 Y-13.757 E0.01673
G1 X6.462 Y5.764 E0.86619
G1 X5.929 Y5.764 E0.01673
G1 X-13.592 Y-13.757 E0.86619
G1 X-14.126 Y-13.757 E0.01673
G1 X5.396 Y5.764 E0.86619
G1 X4.862 Y5.764 E0.01673
G1 X-14.659 Y-13.757 E0.86619
G1 X-15.192 Y-13.757 E0.01673
G1 X4.329 Y5.764 E0.86619
G1 X3.796 Y5.764 E0.01673
G1 X-15.725 Y-13.757 E0.86619
G1 X-16.259 Y-13.757 E0.01673
G1 X3.262 Y5.764 E0.86619
G1 X2.729 Y5.764 E0.01673
G1 X-16.792 Y-13.757 E0.86619
G1 X-17.325 Y-13.757 E0.01673
G1 X2.196 Y5.764 E0.86619
G1 X1.663 Y5.764 E0.01673
G1 X-17.859 Y-13.757 E0.86619
G1 X-18.392 Y-13.757 E0.01673
G1 X1.129 Y5.764 E0.86619
G1 X0.596 Y5.764 E0.01673
G1 X-18.925 Y-13.757 E0.86619
G1 X-19.458 Y-13.757 E0.01673
G1 X0.063 Y5.764 E0.86619
G1 X-0.47 Y5.764 E0.01673
G1 X-19.992 Y-13.757 E0.86619
G1 X-20.525 Y-13.757 E0.01673
G1 X-1.004 Y5.764 E0.86619
G1 X-1.537 Y5.764 E0.01673
G1 X-21.058 Y-13.757 E0.86619
G1 X-21.591 Y-13.757 E0.01673
G1 X-2.07 Y5.764 E0.86619
G1 X-2.604 Y5.764 E0.01673
G1 X-22.125 Y-13.757 E0.86619
G1 X-22.658 Y-13.757 E0.01673
G1 X-3.137 Y5.764 E0.86619
G1 X-3.67 Y5.764 E0.01673
G1 X-23.191 Y-13.757 E0.86619
G1 X-23.724 Y-13.757 E0.01673
G1 X-4.203 Y5.764 E0.86619
G1 X-4.737 Y5.764 E0.01673
G1 X-24.258 Y-13.757 E0.86619
G1 X-24.791 Y-13.757 E0.01673
G1 X-5.27 Y5.764 E0.86619
G1 X-5.803 Y5.764 E0.01673
G1 X-25.324 Y-13.757 E0.86619
G1 X-25.858 Y-13.757 E0.01673
G1 X-6.336 Y5.764 E0.86619
G1 X-6.87 Y5.764 E0.01673
G1 X-26.391 Y-13.757 E0.86619
