; generated by SuperSlicer 2.4 on 2023-12-13 at 03:53:48 UTC


;
;

;
;
; 

; external perimeters extrusion width = 0.60mm
; perimeters extrusion width = 0.50mm
; infill extrusion width = 0.50mm
; solid infill extrusion width = 0.50mm
; top infill extrusion width = 0.45mm
; first layer extrusion width = 0.42mm

; object:{"name":"Next_Tee_Both_All_Caps","id":"Next_Tee_Both_All_Caps.stl id:0 copy 0","object_center":[8.126437,-2.107331,0.000000],"boundingbox_center":[8.126437,-2.107331,3.998500],"boundingbox_size":[145.000000,121.599998,7.997000]}
; plater:{"center":[8.126437,-2.107331,0.000000],"boundingbox_center":[8.126437,-2.107331,3.998500],"boundingbox_size":[145.000000,121.599998,7.997000]}

;TYPE:Custom
START_PRINT
M107
G21 ; set units to millimeters
G90 ; use absolute coordinates
M83 ; use relative distances for extrusion
; Filament gcode
;_TOOLCHANGE 0
M104 S200 ; set temperature
M109 S200 ; set temperature and wait for it to be reached
M190 S60 ; set bed temperature and wait for it to be reached
M107
;LAYER_CHANGE
;Z:0.2
;HEIGHT:0.2
;BEFORE_LAYER_CHANGE
G92 E0
;0.2
G1 E-5 F3600
G1 Z0.2 F10800
;AFTER_LAYER_CHANGE
;0.2
M204 S1000
G1 X-9.015 Y57.097
G1 E5 F2400
;TYPE:Skirt
;WIDTH:0.52
G1 F1200
G1 X29.294 Y63.146 E1.53853
G1 X30.908 Y63.17 E0.06402
G1 X32.932 Y62.513 E0.08445
G1 X34.576 Y61.16 E0.08445
G1 X83.596 Y2.336 E3.03752
G1 X84.524 Y0.769 E0.07226
G1 X84.92 Y-1.323 E0.08445
G1 X84.92 Y-2.892 E0.06223
G1 X84.63 Y-4.69 E0.07226
G1 X83.596 Y-6.551 E0.08445
G1 X34.576 Y-65.374 E3.03752
G1 X33.378 Y-66.456 E0.06402
G1 X31.422 Y-67.295 E0.08445
G1 X29.294 Y-67.361 E0.08445
G1 X-63.843 Y-52.655 E3.74046
G1 X-65.422 Y-52.164 E0.06556
G1 X-67.137 Y-50.903 E0.08445
G1 X-68.271 Y-49.101 E0.08445
G1 X-68.668 Y-47.009 E0.08445
G1 X-68.668 Y42.795 E3.56246
G1 X-68.429 Y44.43 E0.06556
G1 X-67.45 Y46.321 E0.08445
G1 X-65.848 Y47.722 E0.08445
G1 X-63.843 Y48.44 E0.08445
G1 X-9.075 Y57.088 E2.19956
G1 X-9 Y56.617 F10800
G1 F1200
G1 X29.368 Y62.675 E1.54091
G1 X30.673 Y62.716 E0.05178
G1 X32.626 Y62.136 E0.08082
G1 X34.21 Y60.854 E0.08082
G1 X83.229 Y2.031 E3.03752
G1 X84.047 Y0.675 E0.06279
G1 X84.443 Y-1.323 E0.08082
G1 X84.443 Y-2.892 E0.06223
G1 X84.204 Y-4.456 E0.06279
G1 X83.229 Y-6.245 E0.08082
G1 X34.21 Y-65.069 E3.03752
G1 X33.255 Y-65.96 E0.05178
G1 X31.404 Y-66.81 E0.08082
G1 X29.368 Y-66.89 E0.08082
G1 X-63.769 Y-52.184 E3.74046
G1 X-64.975 Y-51.841 E0.04975
G1 X-66.666 Y-50.704 E0.08082
G1 X-67.794 Y-49.008 E0.08082
G1 X-68.191 Y-47.009 E0.08082
G1 X-68.191 Y42.795 E3.56246
G1 X-68.04 Y44.04 E0.04975
G1 X-67.181 Y45.887 E0.08082
G1 X-65.681 Y47.266 E0.08082
G1 X-63.769 Y47.969 E0.08082
G1 X-9.059 Y56.607 E2.19718
G1 E-3.5 F3600
;WIPE_START
G1 F8640
G1 X-5.504 Y57.169 E-1.425
;WIPE_END
G1 E-0.075 F3600
; printing object Next_Tee_Both_All_Caps.stl id:0 copy 0
; acceleration to travel
M204 S1500
G1 X5.072 Y42.262 F10800
; decel to extrusion
M204 S800
G1 X7.128 Y39.364
; end travel
G1 E5 F2400
;TYPE:Internal perimeter
;WIDTH:0.42
G1 F1200
G1 X11.175 Y39.364 E0.12689
G1 X11.175 Y14.417 E0.7822
G1 X14.602 Y14.417 E0.10743
G1 X14.602 Y8.81 E0.17579
G1 X3.289 Y8.81 E0.35469
G1 X3.289 Y14.417 E0.17579
G1 X6.751 Y14.417 E0.10854
G1 X6.751 Y39.364 E0.7822
G1 X7.068 Y39.364 E0.00994
G1 X7.128 Y38.987 F10800
;TYPE:External perimeter
G1 F1200
G1 X10.798 Y38.987 E0.11507
G1 X10.798 Y14.04 E0.7822
G1 X14.225 Y14.04 E0.10743
G1 X14.225 Y9.188 E0.15214
G1 X3.666 Y9.188 E0.33105
G1 X3.666 Y14.04 E0.15214
G1 X7.128 Y14.04 E0.10854
G1 X7.128 Y38.927 E0.78032
;WIPE_START
M204 S1000
G1 X7.128 Y39.387 F10800
;WIPE_END
G1 E-3.5 F3600
;WIPE_START
G1 F8640
G1 X10.723 Y39.201 E-1.425
;WIPE_END
G1 E-0.075 F3600
; acceleration to travel
M204 S1500
G1 X15.164 Y39.338 F10800
; decel to extrusion
M204 S800
G1 X16.027 Y39.364
; end travel
G1 E5 F2400
;TYPE:Internal perimeter
G1 F1200
G1 X26.077 Y39.364 E0.31511
G1 X26.077 Y33.775 E0.17523
G1 X20.073 Y33.775 E0.18825
G1 X20.073 Y26.891 E0.21586
G1 X24.469 Y26.891 E0.13784
G1 X24.469 Y21.252 E0.1768
G1 X20.073 Y21.252 E0.13784
G1 X20.073 Y14.417 E0.2143
G1 X26.077 Y14.417 E0.18825
G1 X26.077 Y8.778 E0.1768
G1 X15.65 Y8.778 E0.32693
G1 X15.65 Y39.364 E0.959
G1 X15.967 Y39.364 E0.00994
G1 X16.027 Y38.987 F10800
;TYPE:External perimeter
G1 F1200
G1 X25.7 Y38.987 E0.30329
G1 X25.7 Y34.152 E0.15159
G1 X19.696 Y34.152 E0.18825
G1 X19.696 Y26.513 E0.23951
G1 X24.092 Y26.513 E0.13784
G1 X24.092 Y21.629 E0.15316
G1 X19.696 Y21.629 E0.13784
G1 X19.696 Y14.04 E0.23794
G1 X25.7 Y14.04 E0.18825
G1 X25.7 Y9.155 E0.15316
G1 X16.027 Y9.155 E0.30329
G1 X16.027 Y38.927 E0.93347
;WIPE_START
M204 S1000
G1 X16.027 Y39.387 F10800
;WIPE_END
G1 E-3.5 F3600
;WIPE_START
G1 F8640
G1 X19.626 Y39.314 E-1.425
;WIPE_END
G1 E-0.075 F3600
; acceleration to travel
M204 S1500
G1 X26.209 Y39.356 F10800
; decel to extrusion
M204 S800
G1 X27.489 Y39.364
; end travel
G1 E5 F2400
;TYPE:Internal perimeter
G1 F1200
G1 X37.54 Y39.364 E0.31514
G1 X37.54 Y33.775 E0.17523
G1 X31.536 Y33.775 E0.18825
G1 X31.536 Y26.891 E0.21586
G1 X35.932 Y26.891 E0.13784
G1 X35.932 Y21.252 E0.1768
G1 X31.536 Y21.252 E0.13784
G1 X31.536 Y14.417 E0.2143
G1 X37.54 Y14.417 E0.18825
G1 X37.54 Y8.778 E0.1768
G1 X27.112 Y8.778 E0.32697
G1 X27.112 Y39.364 E0.959
G1 X27.429 Y39.364 E0.00994
G1 X27.489 Y38.987 F10800
;TYPE:External perimeter
G1 F1200
G1 X37.163 Y38.987 E0.30332
G1 X37.163 Y34.152 E0.15159
G1 X31.159 Y34.152 E0.18825
G1 X31.159 Y26.513 E0.23951
G1 X35.555 Y26.513 E0.13784
G1 X35.555 Y21.629 E0.15316
G1 X31.159 Y21.629 E0.13784
G1 X31.159 Y14.04 E0.23794
G1 X37.163 Y14.04 E0.18825
G1 X37.163 Y9.155 E0.15316
G1 X27.489 Y9.155 E0.30332
G1 X27.489 Y38.927 E0.93347
;WIPE_START
M204 S1000
G1 X27.489 Y39.387 F10800
;WIPE_END
G1 E-3.5 F3600
;WIPE_START
G1 F8640
G1 X31.088 Y39.314 E-1.425
;WIPE_END
G1 E-0.075 F3600
; acceleration to travel
M204 S1500
G1 X2.207 Y39.04 F10800
; decel to extrusion
M204 S800
G1 X-3.407 Y38.987
; end travel
G1 E5 F2400
;TYPE:Internal perimeter
G1 F1200
G1 X-3.407 Y14.417 E0.77037
G1 X0.019 Y14.417 E0.10743
G1 X0.019 Y8.81 E0.17579
G1 X-11.294 Y8.81 E0.35472
G1 X-11.294 Y14.417 E0.17579
G1 X-7.831 Y14.417 E0.10857
G1 X-7.831 Y39.364 E0.7822
G1 X-3.407 Y39.364 E0.13872
G1 X-3.407 Y39.047 E0.00994
G1 X-3.784 Y38.987 F10800
;TYPE:External perimeter
G1 F1200
G1 X-3.784 Y14.04 E0.7822
G1 X-0.358 Y14.04 E0.10743
G1 X-0.358 Y9.188 E0.15214
G1 X-10.917 Y9.188 E0.33108
G1 X-10.917 Y14.04 E0.15214
G1 X-7.454 Y14.04 E0.10857
G1 X-7.454 Y38.987 E0.7822
G1 X-3.844 Y38.987 E0.11319
;WIPE_START
M204 S1000
G1 X-3.384 Y38.987 F10800
;WIPE_END
G1 E-3.5 F3600
;WIPE_START
G1 F8640
G1 X-3.413 Y35.387 E-1.425
;WIPE_END
G1 E-0.075 F3600
; acceleration to travel
M204 S1500
G1 X-11.146 Y38.717 F10800
; decel to extrusion
M204 S800
G1 X-12.65 Y39.364
; end travel
G1 E5 F2400
;TYPE:Internal perimeter
G1 F1200
G1 X-12.149 Y39.364 E0.01569
G1 X-16.548 Y24.032 E0.50013
G1 X-12.148 Y8.81 E0.49679
G1 X-16.961 Y8.81 E0.15092
G1 X-18.792 Y15.734 E0.22456
G1 X-19.024 Y15.734 E0.00728
G1 X-20.855 Y8.81 E0.22456
G1 X-25.692 Y8.81 E0.15167
G1 X-21.28 Y24.032 E0.49689
G1 X-25.691 Y39.364 E0.50024
G1 X-20.975 Y39.364 E0.14787
G1 X-19.027 Y32.13 E0.23491
G1 X-18.795 Y32.13 E0.00726
G1 X-16.866 Y39.364 E0.23475
G1 X-12.71 Y39.364 E0.13031
G1 X-12.65 Y38.987 F10800
;TYPE:External perimeter
G1 F1200
G1 X-16.94 Y24.031 E0.48785
G1 X-12.649 Y9.188 E0.48447
G1 X-16.671 Y9.188 E0.12609
G1 X-18.879 Y17.539 E0.27085
G1 X-18.937 Y17.539 E0.00182
G1 X-21.145 Y9.188 E0.27085
G1 X-25.19 Y9.188 E0.12683
G1 X-20.887 Y24.031 E0.48457
G1 X-25.19 Y38.987 E0.48795
G1 X-21.264 Y38.987 E0.1231
G1 X-18.938 Y30.349 E0.28048
G1 X-18.88 Y30.349 E0.00181
G1 X-16.576 Y38.987 E0.2803
G1 X-12.71 Y38.987 E0.12123
;WIPE_START
M204 S1000
G1 X-12.257 Y38.913 F10800
;WIPE_END
G1 E-3.5 F3600
;WIPE_START
G1 F8640
G1 X-13.293 Y35.465 E-1.425
;WIPE_END
G1 E-0.075 F3600
; acceleration to travel
M204 S1500
G1 X-24.379 Y38.414 F10800
; decel to extrusion
M204 S800
G1 X-26.535 Y38.987
; end travel
G1 E5 F2400
;TYPE:Internal perimeter
G1 F1200
G1 X-26.535 Y33.775 E0.16341
G1 X-32.537 Y33.775 E0.18822
G1 X-32.537 Y26.891 E0.21586
G1 X-28.141 Y26.891 E0.13784
G1 X-28.141 Y21.252 E0.1768
G1 X-32.537 Y21.252 E0.13784
G1 X-32.537 Y14.417 E0.2143
G1 X-26.535 Y14.417 E0.18822
G1 X-26.535 Y8.778 E0.1768
G1 X-36.962 Y8.778 E0.32693
G1 X-36.962 Y39.364 E0.959
G1 X-26.535 Y39.364 E0.32693
G1 X-26.535 Y39.047 E0.00994
G1 X-26.912 Y38.987 F10800
;TYPE:External perimeter
G1 F1200
G1 X-26.912 Y34.152 E0.15159
G1 X-32.915 Y34.152 E0.18822
G1 X-32.915 Y26.513 E0.23951
G1 X-28.518 Y26.513 E0.13784
G1 X-28.518 Y21.629 E0.15316
G1 X-32.915 Y21.629 E0.13784
G1 X-32.915 Y14.04 E0.23794
G1 X-26.912 Y14.04 E0.18822
G1 X-26.912 Y9.155 E0.15316
G1 X-36.585 Y9.155 E0.30329
G1 X-36.585 Y38.987 E0.93535
G1 X-26.972 Y38.987 E0.30141
;WIPE_START
M204 S1000
G1 X-26.512 Y38.987 F10800
;WIPE_END
G1 E-3.5 F3600
;WIPE_START
G1 F8640
G1 X-26.654 Y35.39 E-1.425
;WIPE_END
G1 E-0.075 F3600
; acceleration to travel
M204 S1500
G1 X-36.16 Y38.402 F10800
; decel to extrusion
M204 S800
G1 X-38.008 Y38.987
; end travel
G1 E5 F2400
;TYPE:Internal perimeter
G1 F1200
G1 X-38.008 Y8.778 E0.94718
G1 X-42.42 Y8.778 E0.13835
G1 X-42.42 Y22.409 E0.42738
G1 X-42.69 Y22.438 E0.00849
G1 X-45.674 Y8.778 E0.4384
G1 X-50.385 Y8.778 E0.1477
G1 X-50.385 Y39.364 E0.959
G1 X-45.962 Y39.364 E0.13869
G1 X-45.962 Y26.118 E0.41531
G1 X-45.695 Y26.087 E0.00841
G1 X-42.533 Y39.364 E0.42794
G1 X-38.008 Y39.364 E0.14189
G1 X-38.008 Y39.047 E0.00994
G1 X-38.385 Y38.987 F10800
;TYPE:External perimeter
G1 F1200
G1 X-38.385 Y9.155 E0.93535
G1 X-42.043 Y9.155 E0.1147
G1 X-42.043 Y26.847 E0.55472
G1 X-42.111 Y26.854 E0.00212
G1 X-45.978 Y9.155 E0.56804
G1 X-50.008 Y9.155 E0.12636
G1 X-50.008 Y38.987 E0.93535
G1 X-46.339 Y38.987 E0.11504
G1 X-46.339 Y22.045 E0.53121
G1 X-46.272 Y22.037 E0.0021
G1 X-42.235 Y38.987 E0.54632
G1 X-38.445 Y38.987 E0.11884
;WIPE_START
M204 S1000
G1 X-37.985 Y38.987 F10800
;WIPE_END
G1 E-3.5 F3600
;WIPE_START
G1 F8640
G1 X-38.009 Y35.387 E-1.425
;WIPE_END
G1 E-0.075 F3600
; acceleration to travel
M204 S1500
G1 X-38.324 Y41.097 F10800
; decel to extrusion
M204 S800
G1 X-38.385 Y42.208
; end travel
G1 E5 F2400
;TYPE:Internal perimeter
G1 F1200
G1 X-62.365 Y42.208 E0.75187
G1 X-62.365 Y-0.736 E1.34646
G1 X-53.735 Y-0.736 E0.27058
G1 X-53.735 Y6.758 E0.23496
G1 X-43.737 Y6.758 E0.31347
G1 X-43.737 Y-0.736 E0.23496
G1 X45.284 Y-0.736 E2.79122
G1 X45.284 Y6.758 E0.23496
G1 X55.282 Y6.758 E0.31347
G1 X55.282 Y-0.736 E0.23496
G1 X77.951 Y-0.736 E0.71078
G1 X30.772 Y55.879 E2.31069
G1 X30.772 Y42.208 E0.42866
G1 X-38.325 Y42.208 E2.1665
G1 X-38.385 Y42.585 F10800
;TYPE:External perimeter
G1 F1200
G1 X-62.742 Y42.585 E0.76369
G1 X-62.742 Y-1.113 E1.37011
G1 X-53.358 Y-1.113 E0.29423
G1 X-53.358 Y6.381 E0.23496
G1 X-44.115 Y6.381 E0.28982
G1 X-44.115 Y-1.113 E0.23496
G1 X45.662 Y-1.113 E2.81487
G1 X45.662 Y6.381 E0.23496
G1 X54.905 Y6.381 E0.28982
G1 X54.905 Y-1.113 E0.23496
G1 X78.757 Y-1.113 E0.74785
G1 X30.395 Y56.92 E2.36859
G1 X30.395 Y42.585 E0.44949
G1 X-38.325 Y42.585 E2.15468
;WIPE_START
M204 S1000
G1 X-38.585 Y42.238 F10800
;WIPE_END
G1 E-3.5 F3600
;WIPE_START
G1 F8640
G1 X-42.185 Y42.26 E-1.425
;WIPE_END
G1 E-0.075 F3600
; acceleration to travel
M204 S1500
G1 X-42.242 Y27.996 F10800
; decel to extrusion
M204 S800
G1 X-42.253 Y25.223
; end travel
G1 E5 F2400
;TYPE:Gap fill
;WIDTH:0.12356
G1 F1200
G1 X-42.257 Y25.183 E0.00027
G1 X-42.276 Y25.006 E0.00119
;WIDTH:0.164955
G1 X-42.295 Y24.829 E0.00181
;WIDTH:0.206349
G1 X-42.314 Y24.652 E0.00242
;WIDTH:0.247744
G1 X-42.334 Y24.475 E0.00303
;WIDTH:0.289138
G1 X-42.353 Y24.298 E0.00364
;WIDTH:0.330533
G1 X-42.372 Y24.121 E0.00426
;WIDTH:0.371927
G1 X-42.391 Y23.945 E0.00487
;WIDTH:0.413322
G1 X-42.41 Y23.768 E0.00548
;WIDTH:0.454716
G1 X-42.429 Y23.591 E0.00609
;WIDTH:0.496111
G1 X-42.448 Y23.414 E0.00671
;WIDTH:0.537505
G1 X-42.467 Y23.237 E0.00732
;WIDTH:0.5789
G1 X-42.486 Y23.06 E0.00793
;WIDTH:0.620294
G1 X-42.505 Y22.883 E0.00854
G1 X-42.521 Y22.739 E0.00693
;WIDTH:0.685995
G1 X-42.536 Y22.596 E0.00772
G1 E-3.5 F3600
;WIPE_START
G1 F8640
M204 S1000
G1 X-42.521 Y22.739 E-0.05714
;WIPE_END
G1 E-1.44286 F3600
; acceleration to travel
M204 S1500
G1 X-45.543 Y23.407 F10800
; decel to extrusion
M204 S800
G1 X-46.13 Y23.537
; end travel
G1 E5 F2400
;WIDTH:0.12356
G1 F1200
G1 X-46.125 Y23.577 E0.00027
G1 X-46.107 Y23.737 E0.00108
;WIDTH:0.164106
G1 X-46.088 Y23.896 E0.00162
;WIDTH:0.204651
G1 X-46.069 Y24.055 E0.00216
;WIDTH:0.245196
G1 X-46.05 Y24.215 E0.0027
;WIDTH:0.285741
G1 X-46.032 Y24.374 E0.00324
;WIDTH:0.326286
G1 X-46.013 Y24.533 E0.00378
;WIDTH:0.366831
G1 X-45.994 Y24.693 E0.00432
;WIDTH:0.407377
G1 X-45.976 Y24.852 E0.00486
;WIDTH:0.447922
G1 X-45.957 Y25.011 E0.0054
;WIDTH:0.488467
G1 X-45.938 Y25.171 E0.00594
;WIDTH:0.529012
G1 X-45.919 Y25.33 E0.00648
;WIDTH:0.569557
G1 X-45.901 Y25.489 E0.00703
;WIDTH:0.610102
G1 X-45.882 Y25.649 E0.00757
G1 X-45.865 Y25.789 E0.00669
;WIDTH:0.680612
G1 X-45.849 Y25.93 E0.00752
G1 E-3.5 F3600
;WIPE_START
G1 F8640
M204 S1000
G1 X-45.865 Y25.789 E-0.05613
;WIPE_END
G1 E-1.44387 F3600
; acceleration to travel
M204 S1500
G1 X-23.297 Y30.174 F10800
; decel to extrusion
M204 S800
G1 X-18.91 Y31.027
; end travel
G1 E5 F2400
;WIDTH:0.123559
G1 F1200
G1 X-18.91 Y31.067 E0.00027
G1 X-18.91 Y31.134 E0.00045
;WIDTH:0.162359
G1 X-18.91 Y31.202 E0.00067
;WIDTH:0.20116
G1 X-18.91 Y31.269 E0.00089
;WIDTH:0.23996
G1 X-18.91 Y31.337 E0.00111
;WIDTH:0.27876
G1 X-18.91 Y31.404 E0.00132
;WIDTH:0.31756
G1 X-18.91 Y31.472 E0.00154
;WIDTH:0.35636
G1 X-18.91 Y31.539 E0.00176
;WIDTH:0.39516
G1 X-18.91 Y31.607 E0.00198
;WIDTH:0.43396
G1 X-18.911 Y31.674 E0.00219
;WIDTH:0.47276
G1 X-18.911 Y31.741 E0.00241
G1 X-18.911 Y31.784 E0.00154
;WIDTH:0.521645
G1 X-18.911 Y31.87 E0.00342
;WIDTH:0.586825
G1 X-18.911 Y31.956 E0.00389
G1 E-3.5 F3600
;WIPE_START
G1 F8640
M204 S1000
G1 X-18.911 Y31.87 E-0.03403
;WIPE_END
G1 E-1.46597 F3600
; acceleration to travel
M204 S1500
G1 X-18.908 Y19.297 F10800
; decel to extrusion
M204 S800
G1 X-18.908 Y16.853
; end travel
G1 E5 F2400
;WIDTH:0.12356
G1 F1200
G1 X-18.908 Y16.744 E0.00073
;WIDTH:0.162667
G1 X-18.908 Y16.675 E0.00069
;WIDTH:0.201773
G1 X-18.908 Y16.606 E0.00091
;WIDTH:0.24088
G1 X-18.908 Y16.537 E0.00113
;WIDTH:0.279986
G1 X-18.908 Y16.468 E0.00136
;WIDTH:0.319093
G1 X-18.908 Y16.4 E0.00158
;WIDTH:0.358199
G1 X-18.908 Y16.331 E0.0018
;WIDTH:0.397305
G1 X-18.908 Y16.262 E0.00203
;WIDTH:0.436412
G1 X-18.908 Y16.193 E0.00225
;WIDTH:0.475518
G1 X-18.908 Y16.081 E0.00403
;WIDTH:0.523991
G1 X-18.908 Y15.994 E0.00346
;WIDTH:0.588621
G1 X-18.908 Y15.908 E0.00393
G1 E-3.5 F3600
;WIPE_START
G1 F8640
M204 S1000
G1 X-18.908 Y15.994 E-0.03425
;WIPE_END
G1 E-1.46575 F3600
; acceleration to travel
M204 S1500
G1 X32.056 Y2.626 F10800
; decel to extrusion
M204 S1000
G1 X44.44 Y-0.623
; end travel
G1 E5 F2400
;TYPE:Solid infill
;WIDTH:0.42087
G1 F1200
G1 X45.009 Y-0.053 E0.02531
G1 X45.009 Y0.48 E0.01675
G1 X44.068 Y-0.461 E0.0418
G1 X43.535 Y-0.461 E0.01675
G1 X45.009 Y1.013 E0.06549
G1 X45.009 Y1.547 E0.01675
G1 X43.002 Y-0.461 E0.08919
G1 X42.469 Y-0.461 E0.01675
G1 X45.009 Y2.08 E0.11289
G1 X45.009 Y2.613 E0.01675
G1 X41.935 Y-0.461 E0.13658
G1 X41.402 Y-0.461 E0.01675
G1 X45.009 Y3.146 E0.16028
G1 X45.009 Y3.68 E0.01675
G1 X40.869 Y-0.461 E0.18397
G1 X40.336 Y-0.461 E0.01675
G1 X45.009 Y4.213 E0.20767
G1 X45.009 Y4.746 E0.01675
G1 X39.802 Y-0.461 E0.23136
G1 X39.269 Y-0.461 E0.01675
G1 X45.009 Y5.279 E0.25506
G1 X45.009 Y5.813 E0.01675
G1 X38.736 Y-0.461 E0.27875
G1 X38.203 Y-0.461 E0.01675
G1 X45.171 Y6.508 E0.30965
G1 E-3.5 F3600
;WIPE_START
G1 F8640
G1 X42.626 Y3.963 E-1.425
;WIPE_END
G1 E-0.075 F3600
; acceleration to travel
M204 S1500
G1 X70.255 Y0.274 F10800
; decel to extrusion
M204 S1000
G1 X76.969 Y-0.623
; end travel
G1 E5 F2400
G1 F1200
G1 X77.258 Y-0.334 E0.01284
G1 X77.016 Y-0.043 E0.0119
G1 X76.598 Y-0.461 E0.01856
G1 X76.065 Y-0.461 E0.01675
G1 X76.773 Y0.248 E0.03149
G1 X76.531 Y0.539 E0.0119
G1 X75.531 Y-0.461 E0.04441
