; HEADER_BLOCK_START
; generated by OrcaSlicer 1.9.1 on 2024-02-17 at 14:39:40
; total layer number: 7
; filament_density: 1.27
; filament_diameter: 1.75
; max_z_height: 1.40
; HEADER_BLOCK_END

; THUMBNAIL_BLOCK_START

;
; THUMBNAIL_BLOCK_END

; external perimeters extrusion width = 0.40mm
; perimeters extrusion width = 0.45mm
; infill extrusion width = 0.45mm
; solid infill extrusion width = 0.48mm
; top infill extrusion width = 0.48mm
; first layer extrusion width = 0.50mm

; external perimeters extrusion width = 0.40mm
; perimeters extrusion width = 0.45mm
; infill extrusion width = 0.45mm
; solid infill extrusion width = 0.48mm
; top infill extrusion width = 0.48mm
; first layer extrusion width = 0.50mm

; external perimeters extrusion width = 0.40mm
; perimeters extrusion width = 0.45mm
; infill extrusion width = 0.45mm
; solid infill extrusion width = 0.48mm
; top infill extrusion width = 0.48mm
; first layer extrusion width = 0.50mm

; external perimeters extrusion width = 0.40mm
; perimeters extrusion width = 0.45mm
; infill extrusion width = 0.45mm
; solid infill extrusion width = 0.48mm
; top infill extrusion width = 0.48mm
; first layer extrusion width = 0.50mm

; external perimeters extrusion width = 0.40mm
; perimeters extrusion width = 0.45mm
; infill extrusion width = 0.45mm
; solid infill extrusion width = 0.48mm
; top infill extrusion width = 0.48mm
; first layer extrusion width = 0.50mm

; external perimeters extrusion width = 0.40mm
; perimeters extrusion width = 0.45mm
; infill extrusion width = 0.45mm
; solid infill extrusion width = 0.48mm
; top infill extrusion width = 0.48mm
; first layer extrusion width = 0.50mm

; external perimeters extrusion width = 0.40mm
; perimeters extrusion width = 0.45mm
; infill extrusion width = 0.45mm
; solid infill extrusion width = 0.48mm
; top infill extrusion width = 0.48mm
; first layer extrusion width = 0.50mm

; external perimeters extrusion width = 0.40mm
; perimeters extrusion width = 0.45mm
; infill extrusion width = 0.45mm
; solid infill extrusion width = 0.48mm
; top infill extrusion width = 0.48mm
; first layer extrusion width = 0.50mm

; external perimeters extrusion width = 0.40mm
; perimeters extrusion width = 0.45mm
; infill extrusion width = 0.45mm
; solid infill extrusion width = 0.48mm
; top infill extrusion width = 0.48mm
; first layer extrusion width = 0.50mm

; EXECUTABLE_BLOCK_START
EXCLUDE_OBJECT_DEFINE NAME=flowrate_0_id_0_copy_0 CENTER=110,110 POLYGON=[[90,95],[130,95],[130,115],[120,125],[100,125],[90,115],[90,95]]
EXCLUDE_OBJECT_DEFINE NAME=flowrate_10_id_1_copy_0 CENTER=152,142 POLYGON=[[132,127],[172,127],[172,147],[162,157],[142,157],[132,147],[132,127]]
EXCLUDE_OBJECT_DEFINE NAME=flowrate_15_id_2_copy_0 CENTER=110,142 POLYGON=[[90,127],[130,127],[130,147],[120,157],[100,157],[90,147],[90,127]]
EXCLUDE_OBJECT_DEFINE NAME=flowrate_20_id_3_copy_0 CENTER=68,142 POLYGON=[[48,127],[88,127],[88,147],[78,157],[58,157],[48,147],[48,127]]
EXCLUDE_OBJECT_DEFINE NAME=flowrate_5_id_4_copy_0 CENTER=68,110 POLYGON=[[48,95],[88,95],[88,115],[78,125],[58,125],[48,115],[48,95]]
EXCLUDE_OBJECT_DEFINE NAME=flowrate_m10_id_5_copy_0 CENTER=152,78 POLYGON=[[132,63],[172,63],[172,83],[162,93],[142,93],[132,83],[132,63]]
EXCLUDE_OBJECT_DEFINE NAME=flowrate_m15_id_6_copy_0 CENTER=110,78 POLYGON=[[90,63],[130,63],[130,83],[120,93],[100,93],[90,83],[90,63]]
EXCLUDE_OBJECT_DEFINE NAME=flowrate_m20_id_7_copy_0 CENTER=68,78 POLYGON=[[48,63],[88,63],[88,83],[78,93],[58,93],[48,83],[48,63]]
EXCLUDE_OBJECT_DEFINE NAME=flowrate_m5_id_8_copy_0 CENTER=152,110 POLYGON=[[132,95],[172,95],[172,115],[162,125],[142,125],[132,115],[132,95]]
M73 P0 R52
;TYPE:Custom
M190 S80
M109 S235
PRINT_START EXTRUDER=235 BED=80
START_PRINT
G90
G21
M83 ; use relative distances for extrusion
; filament start gcode
M106 S0
;LAYER_CHANGE
;Z:0.2
;HEIGHT:0.2
;BEFORE_LAYER_CHANGE
;0.2
G92 E0

G10 ; retract
;AFTER_LAYER_CHANGE
;0.2
;_SET_FAN_SPEED_CHANGING_LAYER
SET_VELOCITY_LIMIT ACCEL=500 ACCEL_TO_DECEL=250
; printing object flowrate_m20 id:7 copy 0
EXCLUDE_OBJECT_START NAME=flowrate_m20_id_7_copy_0
G1 Z.4 F10800
G1 X59.141 Y82.835
G1 Z.2
G11 ; unretract
;TYPE:Inner wall
;WIDTH:0.499999
G1 F1800
G1 X59.116 Y82.65 E.0054
G1 X58.969 Y82.339 E.00994
G1 X58.707 Y82.064 E.01096
G1 X58.392 Y81.898 E.0103
G1 X58.021 Y81.836 E.01085
G1 X49.164 Y81.836 E.25584
G1 X49.164 Y64.164 E.51044
G1 X86.836 Y64.164 E1.08814
G1 X86.836 Y73 E.25522
G1 X86.836 Y81.836 E.25522
G1 X78 Y81.836 E.25522
M73 P0 R51
G1 X77.789 Y81.852 E.0061
G1 X77.441 Y81.97 E.01064
G1 X77.113 Y82.233 E.01213
G1 X76.909 Y82.577 E.01157
G1 X76.836 Y82.979 E.01178
G1 X76.836 Y91.836 E.25584
G1 X59.164 Y91.836 E.51044
G1 X59.164 Y83 E.25522
G1 X59.147 Y82.875 E.00365
G1 X58.695 Y82.909 F10800
G1 F1800
G1 X58.678 Y82.782 E.0037
G1 X58.541 Y82.531 E.00825
G1 X58.295 Y82.35 E.00881
G1 X58.021 Y82.293 E.00808
G1 X48.707 Y82.293 E.26904
G1 X48.707 Y63.707 E.53685
G1 X87.293 Y63.707 E1.11454
G1 X87.293 Y73 E.26842
G1 X87.293 Y82.293 E.26842
G1 X78 Y82.293 E.26842
G1 X77.81 Y82.314 E.00553
G1 X77.528 Y82.462 E.0092
G1 X77.353 Y82.697 E.00846
G1 X77.293 Y82.979 E.00831
G1 X77.293 Y92.293 E.26904
G1 X58.707 Y92.293 E.53685
G1 X58.707 Y83 E.26842
G1 X58.7 Y82.948 E.00151
G1 X58.25 Y82.979 F10800
;TYPE:Outer wall
G1 F1800
G1 X58.184 Y82.818 E.00503
G1 X58.021 Y82.75 E.00508
G1 X48.25 Y82.75 E.28225
G1 X48.25 Y63.25 E.56325
G1 X87.75 Y63.25 E1.14095
G1 X87.75 Y73 E.28163
G1 X87.75 Y82.75 E.28163
G1 X77.979 Y82.75 E.28225
G1 X77.816 Y82.818 E.00508
G1 X77.75 Y82.979 E.00503
G1 X77.75 Y92.75 E.28225
G1 X58.25 Y92.75 E.56325
G1 X58.25 Y83.019 E.28109
G10 ; retract
;WIPE_START
G1 X58.184 Y82.818 E-.05078
G1 X58.021 Y82.75 E-.04219
G1 X57.409 Y82.75 E-.14703
;WIPE_END
G1 Z.6 F10800
G1 X57.409 Y82.314 Z.6
G1 X87.314 Y63.686
G1 X87.314 Y65.236
G1 X86.699 Y65.236
G1 Z.2
G11 ; unretract
;TYPE:Bottom surface
;WIDTH:0.504948
G1 F2400
G1 X85.97 Y64.507 E.03009
G1 X85.317 Y64.507 E.01908
G1 X86.493 Y65.683 E.04858
G1 X86.493 Y66.337 E.01908
G1 X84.663 Y64.507 E.07556
G1 X84.01 Y64.507 E.01908
G1 X86.493 Y66.99 E.10254
G1 X86.493 Y67.644 E.01908
G1 X83.356 Y64.507 E.12952
G1 X82.703 Y64.507 E.01908
G1 X86.493 Y68.297 E.1565
G1 X86.493 Y68.951 E.01908
G1 X82.049 Y64.507 E.18348
G1 X81.396 Y64.507 E.01908
G1 X86.493 Y69.604 E.21046
G1 X86.493 Y70.257 E.01908
G1 X80.743 Y64.507 E.23744
G1 X80.089 Y64.507 E.01908
G1 X86.493 Y70.911 E.26442
G1 X86.493 Y71.564 E.01908
G1 X79.436 Y64.507 E.2914
G1 X78.782 Y64.507 E.01908
G1 X86.493 Y72.218 E.31838
G1 X86.493 Y72.871 E.01908
G1 X78.129 Y64.507 E.34536
G1 X77.476 Y64.507 E.01908
G1 X86.493 Y73.524 E.37234
G1 X86.493 Y74.178 E.01908
G1 X76.822 Y64.507 E.39932
G1 X76.169 Y64.507 E.01908
G1 X86.493 Y74.831 E.4263
G1 X86.493 Y75.485 E.01908
G1 X75.515 Y64.507 E.45328
G1 X74.862 Y64.507 E.01908
G1 X86.493 Y76.138 E.48026
G1 X86.493 Y76.791 E.01908
G1 X74.209 Y64.507 E.50724
G1 X73.555 Y64.507 E.01908
G1 X86.493 Y77.445 E.53422
G1 X86.493 Y78.098 E.01908
G1 X72.902 Y64.507 E.5612
G1 X72.248 Y64.507 E.01908
G1 X86.493 Y78.752 E.58818
G1 X86.493 Y79.405 E.01908
G1 X71.595 Y64.507 E.61516
G1 X70.942 Y64.507 E.01908
G1 X86.493 Y80.058 E.64214
G1 X86.493 Y80.712 E.01908
G1 X70.288 Y64.507 E.66912
G1 X69.635 Y64.507 E.01908
G1 X86.493 Y81.365 E.6961
G1 X86.493 Y81.493 E.00373
G1 X85.968 Y81.493 E.01534
G1 X68.981 Y64.507 E.7014
G1 X68.328 Y64.507 E.01908
G1 X85.315 Y81.494 E.70141
G1 X84.662 Y81.494 E.01907
G1 X67.675 Y64.507 E.70142
G1 X67.021 Y64.507 E.01908
G1 X84.009 Y81.494 E.70144
G1 X83.356 Y81.495 E.01907
G1 X66.368 Y64.507 E.70145
G1 X65.714 Y64.507 E.01908
G1 X82.703 Y81.495 E.70147
G1 X82.049 Y81.496 E.01907
G1 X65.061 Y64.507 E.70148
G1 X64.408 Y64.507 E.01908
G1 X81.396 Y81.496 E.7015
M73 P1 R51
G1 X80.743 Y81.496 E.01907
G1 X63.754 Y64.507 E.70151
G1 X63.101 Y64.507 E.01908
G1 X80.09 Y81.497 E.70153
G1 X79.437 Y81.497 E.01907
G1 X62.447 Y64.507 E.70154
G1 X61.794 Y64.507 E.01908
G1 X78.784 Y81.497 E.70156
G1 X78.131 Y81.498 E.01907
G1 X61.14 Y64.507 E.70157
G1 X60.487 Y64.507 E.01908
G1 X77.543 Y81.562 E.70425
G1 X77.385 Y81.616 E.00485
G1 X77.178 Y81.727 E.00685
G1 X77.109 Y81.782 E.00259
G1 X59.834 Y64.507 E.71332
G1 X59.18 Y64.507 E.01908
G1 X76.78 Y82.107 E.72672
G1 X76.623 Y82.37 E.00894
G1 X76.565 Y82.545 E.00539
G1 X58.527 Y64.507 E.74481
G1 X57.873 Y64.507 E.01908
G1 X76.497 Y83.13 E.76898
G1 X76.496 Y83.783 E.01907
G1 X57.22 Y64.507 E.79595
G1 X56.567 Y64.507 E.01908
G1 X76.496 Y84.437 E.82292
G1 X76.496 Y85.09 E.01907
G1 X55.913 Y64.507 E.84989
G1 X55.26 Y64.507 E.01908
G1 X76.496 Y85.743 E.87686
G1 X76.495 Y86.396 E.01907
G1 X54.606 Y64.507 E.90383
G1 X53.953 Y64.507 E.01908
G1 X76.495 Y87.049 E.93079
G1 X76.495 Y87.702 E.01907
G1 X53.3 Y64.507 E.95776
G1 X52.646 Y64.507 E.01908
G1 X76.494 Y88.355 E.98473
G1 X76.494 Y89.008 E.01907
G1 X51.993 Y64.507 E1.0117
G1 X51.339 Y64.507 E.01908
G1 X76.494 Y89.661 E1.03867
G1 X76.494 Y90.315 E.01907
G1 X50.686 Y64.507 E1.06564
G1 X50.033 Y64.507 E.01908
G1 X76.493 Y90.968 E1.0926
G1 X76.493 Y91.493 E.01534
G1 X76.365 Y91.493 E.00373
G1 X49.507 Y64.635 E1.10902
G1 X49.507 Y65.288 E.01908
G1 X75.712 Y91.493 E1.08204
G1 X75.058 Y91.493 E.01908
G1 X49.507 Y65.942 E1.05506
G1 X49.507 Y66.595 E.01908
G1 X74.405 Y91.493 E1.02808
G1 X73.752 Y91.493 E.01908
G1 X49.507 Y67.248 E1.0011
G1 X49.507 Y67.902 E.01908
G1 X73.098 Y91.493 E.97412
G1 X72.445 Y91.493 E.01908
G1 X49.507 Y68.555 E.94714
G1 X49.507 Y69.209 E.01908
G1 X71.791 Y91.493 E.92016
G1 X71.138 Y91.493 E.01908
G1 X49.507 Y69.862 E.89318
G1 X49.507 Y70.515 E.01908
G1 X70.485 Y91.493 E.8662
G1 X69.831 Y91.493 E.01908
G1 X49.507 Y71.169 E.83922
G1 X49.507 Y71.822 E.01908
G1 X69.178 Y91.493 E.81224
G1 X68.524 Y91.493 E.01908
G1 X49.507 Y72.476 E.78526
G1 X49.507 Y73.129 E.01908
G1 X57.876 Y81.498 E.34555
G1 X57.222 Y81.497 E.01909
G1 X49.507 Y73.782 E.31856
G1 X49.507 Y74.436 E.01908
G1 X56.568 Y81.497 E.29156
G1 X55.914 Y81.497 E.01909
G1 X49.507 Y75.089 E.26457
G1 X49.507 Y75.743 E.01908
G1 X55.261 Y81.496 E.23757
M73 P2 R51
G1 X54.607 Y81.496 E.01909
G1 X49.507 Y76.396 E.21058
G1 X49.507 Y77.049 E.01908
G1 X53.953 Y81.496 E.18358
G1 X53.299 Y81.495 E.01909
G1 X49.507 Y77.703 E.15659
G1 X49.507 Y78.356 E.01908
G1 X52.645 Y81.495 E.12959
G1 X51.992 Y81.494 E.01909
G1 X49.507 Y79.01 E.1026
G1 X49.507 Y79.663 E.01908
G1 X51.338 Y81.494 E.0756
G1 X50.684 Y81.494 E.01909
G1 X49.507 Y80.316 E.04861
G1 X49.507 Y80.97 E.01908
G1 X50.236 Y81.699 E.03011
G10 ; retract
;WIPE_START
G1 X49.529 Y80.992 E-.24
;WIPE_END
M73 P2 R50
G1 Z.6 F10800
G1 X59.297 Y82.92 Z.6
G1 Z.2
G11 ; unretract
G1 F2400
G1 X67.871 Y91.493 E.35401
G1 X67.218 Y91.493 E.01908
G1 X59.504 Y83.779 E.31852
G1 X59.504 Y84.433 E.01909
G1 X66.564 Y91.493 E.29153
G1 X65.911 Y91.493 E.01908
G1 X59.504 Y85.086 E.26454
G1 X59.504 Y85.74 E.01909
G1 X65.257 Y91.493 E.23755
G1 X64.604 Y91.493 E.01908
G1 X59.505 Y86.394 E.21056
G1 X59.505 Y87.047 E.01909
G1 X63.951 Y91.493 E.18356
G1 X63.297 Y91.493 E.01908
G1 X59.505 Y87.701 E.15657
G1 X59.506 Y88.355 E.01909
G1 X62.644 Y91.493 E.12958
G1 X61.99 Y91.493 E.01908
G1 X59.506 Y89.009 E.10259
G1 X59.506 Y89.662 E.01909
G1 X61.337 Y91.493 E.0756
G1 X60.684 Y91.493 E.01908
G1 X59.506 Y90.316 E.0486
G1 X59.507 Y90.97 E.01909
G1 X60.236 Y91.699 E.03011
; stop printing object flowrate_m20 id:7 copy 0
; printing object flowrate_5 id:4 copy 0
G10 ; retract
;WIPE_START
G1 X59.529 Y90.992 E-.24
;WIPE_END
EXCLUDE_OBJECT_END NAME=flowrate_m20_id_7_copy_0
EXCLUDE_OBJECT_START NAME=flowrate_5_id_4_copy_0
G1 Z.6 F10800
G1 X59.141 Y114.835 Z.6
G1 Z.2
G11 ; unretract
;TYPE:Inner wall
;WIDTH:0.499999
G1 F1800
G1 X59.116 Y114.65 E.00708
G1 X58.969 Y114.339 E.01305
G1 X58.707 Y114.064 E.01438
G1 X58.392 Y113.898 E.01351
G1 X58.021 Y113.836 E.01424
G1 X49.164 Y113.836 E.33579
G1 X49.164 Y96.164 E.66996
G1 X86.836 Y96.164 E1.42818
G1 X86.836 Y105 E.33498
G1 X86.836 Y113.836 E.33498
G1 X78 Y113.836 E.33498
G1 X77.789 Y113.852 E.00801
G1 X77.441 Y113.97 E.01396
G1 X77.113 Y114.233 E.01592
G1 X76.909 Y114.577 E.01519
G1 X76.836 Y114.979 E.01546
G1 X76.836 Y123.836 E.33579
G1 X59.164 Y123.836 E.66996
G1 X59.164 Y115 E.33498
G1 X59.147 Y114.875 E.00479
G1 X58.695 Y114.909 F10800
G1 F1800
G1 X58.678 Y114.782 E.00486
G1 X58.541 Y114.531 E.01083
G1 X58.295 Y114.35 E.01157
G1 X58.021 Y114.293 E.0106
G1 X48.707 Y114.293 E.35312
G1 X48.707 Y95.707 E.70461
G1 X87.293 Y95.707 E1.46284
G1 X87.293 Y105 E.35231
G1 X87.293 Y114.293 E.35231
G1 X78 Y114.293 E.35231
G1 X77.81 Y114.314 E.00726
G1 X77.528 Y114.462 E.01207
G1 X77.353 Y114.697 E.0111
G1 X77.293 Y114.979 E.01091
G1 X77.293 Y124.293 E.35312
G1 X58.707 Y124.293 E.70461
G1 X58.707 Y115 E.35231
G1 X58.7 Y114.948 E.00198
G1 X58.25 Y114.979 F10800
;TYPE:Outer wall
G1 F1800
G1 X58.184 Y114.818 E.0066
G1 X58.021 Y114.75 E.00666
G1 X48.25 Y114.75 E.37045
G1 X48.25 Y95.25 E.73927
G1 X87.75 Y95.25 E1.49749
G1 X87.75 Y105 E.36963
G1 X87.75 Y114.75 E.36963
G1 X77.979 Y114.75 E.37045
G1 X77.816 Y114.818 E.00666
G1 X77.75 Y114.979 E.0066
G1 X77.75 Y124.75 E.37045
G1 X58.25 Y124.75 E.73927
G1 X58.25 Y115.019 E.36893
G10 ; retract
;WIPE_START
G1 X58.184 Y114.818 E-.05078
G1 X58.021 Y114.75 E-.04219
G1 X57.409 Y114.75 E-.14703
;WIPE_END
G1 Z.6 F10800
G1 X57.409 Y114.314 Z.6
G1 X87.314 Y95.686
G1 X87.314 Y97.236
G1 X86.699 Y97.236
G1 Z.2
G11 ; unretract
;TYPE:Bottom surface
;WIDTH:0.504948
G1 F2400
G1 X85.97 Y96.507 E.0395
G1 X85.317 Y96.507 E.02504
G1 X86.493 Y97.683 E.06376
G1 X86.493 Y98.337 E.02504
G1 X84.663 Y96.507 E.09917
G1 X84.01 Y96.507 E.02504
G1 X86.493 Y98.99 E.13458
G1 X86.493 Y99.644 E.02504
G1 X83.356 Y96.507 E.17
G1 X82.703 Y96.507 E.02504
G1 X86.493 Y100.297 E.20541
G1 X86.493 Y100.951 E.02504
G1 X82.049 Y96.507 E.24082
G1 X81.396 Y96.507 E.02504
G1 X86.493 Y101.604 E.27623
G1 X86.493 Y102.257 E.02504
G1 X80.743 Y96.507 E.31164
G1 X80.089 Y96.507 E.02504
G1 X86.493 Y102.911 E.34705
G1 X86.493 Y103.564 E.02504
G1 X79.436 Y96.507 E.38246
G1 X78.782 Y96.507 E.02504
G1 X86.493 Y104.218 E.41788
G1 X86.493 Y104.871 E.02504
G1 X78.129 Y96.507 E.45329
G1 X77.476 Y96.507 E.02504
G1 X86.493 Y105.524 E.4887
G1 X86.493 Y106.178 E.02504
G1 X76.822 Y96.507 E.52411
G1 X76.169 Y96.507 E.02504
G1 X86.493 Y106.831 E.55952
G1 X86.493 Y107.485 E.02504
G1 X75.515 Y96.507 E.59493
G1 X74.862 Y96.507 E.02504
G1 X86.493 Y108.138 E.63034
G1 X86.493 Y108.791 E.02504
G1 X74.209 Y96.507 E.66576
G1 X73.555 Y96.507 E.02504
G1 X86.493 Y109.445 E.70117
G1 X86.493 Y110.098 E.02504
G1 X72.902 Y96.507 E.73658
G1 X72.248 Y96.507 E.02504
G1 X86.493 Y110.752 E.77199
G1 X86.493 Y111.405 E.02504
G1 X71.595 Y96.507 E.8074
G1 X70.942 Y96.507 E.02504
G1 X86.493 Y112.058 E.84281
G1 X86.493 Y112.712 E.02504
G1 X70.288 Y96.507 E.87822
G1 X69.635 Y96.507 E.02504
G1 X86.493 Y113.365 E.91364
G1 X86.493 Y113.493 E.0049
G1 X85.968 Y113.493 E.02013
G1 X68.981 Y96.507 E.92058
M73 P3 R50
G1 X68.328 Y96.507 E.02504
G1 X85.315 Y113.494 E.9206
G1 X84.662 Y113.494 E.02503
G1 X67.675 Y96.507 E.92062
G1 X67.021 Y96.507 E.02504
G1 X84.009 Y113.494 E.92064
G1 X83.356 Y113.495 E.02503
G1 X66.368 Y96.507 E.92066
G1 X65.714 Y96.507 E.02504
G1 X82.703 Y113.495 E.92068
G1 X82.049 Y113.496 E.02503
G1 X65.061 Y96.507 E.9207
G1 X64.408 Y96.507 E.02504
G1 X81.396 Y113.496 E.92072
G1 X80.743 Y113.496 E.02503
G1 X63.754 Y96.507 E.92073
G1 X63.101 Y96.507 E.02504
G1 X80.09 Y113.497 E.92075
G1 X79.437 Y113.497 E.02503
G1 X62.447 Y96.507 E.92077
G1 X61.794 Y96.507 E.02504
G1 X78.784 Y113.497 E.92079
G1 X78.131 Y113.498 E.02503
G1 X61.14 Y96.507 E.92081
G1 X60.487 Y96.507 E.02504
G1 X77.543 Y113.562 E.92432
G1 X77.385 Y113.616 E.00637
G1 X77.178 Y113.727 E.009
G1 X77.109 Y113.782 E.0034
G1 X59.834 Y96.507 E.93624
G1 X59.18 Y96.507 E.02504
G1 X76.78 Y114.107 E.95382
G1 X76.623 Y114.37 E.01173
G1 X76.565 Y114.545 E.00708
G1 X58.527 Y96.507 E.97756
G1 X57.873 Y96.507 E.02504
G1 X76.497 Y115.13 E1.00929
G1 X76.496 Y115.783 E.02503
G1 X57.22 Y96.507 E1.04469
G1 X56.567 Y96.507 E.02504
G1 X76.496 Y116.437 E1.08008
G1 X76.496 Y117.09 E.02503
G1 X55.913 Y96.507 E1.11548
