; HEADER_BLOCK_START
; generated by OrcaSlicer 1.9.1 on 2024-02-17 at 13:02:52
; total layer number: 250
; filament_density: 1.27
; filament_diameter: 1.75
; max_z_height: 50.00
; HEADER_BLOCK_END

; THUMBNAIL_BLOCK_START

;
; THUMBNAIL_BLOCK_END

; external perimeters extrusion width = 0.40mm
; perimeters extrusion width = 0.45mm
; infill extrusion width = 0.45mm
; solid infill extrusion width = 0.40mm
; top infill extrusion width = 0.40mm
; first layer extrusion width = 0.50mm

; EXECUTABLE_BLOCK_START
EXCLUDE_OBJECT_DEFINE NAME=temperature_tower.stl_id_0_copy_0 CENTER=110,110 POLYGON=[[87.7562,105],[127.785,105],[127.995,105.006],[128.145,105.016],[128.154,105.016],[128.208,105.021],[128.251,105.025],[128.285,105.029],[128.336,105.035],[128.473,105.053],[128.503,105.057],[128.535,105.062],[128.627,105.078],[128.792,105.11],[128.857,105.124],[129.04,105.17],[129.133,105.195],[129.309,105.25],[129.361,105.267],[129.444,105.296],[129.511,105.321],[129.55,105.336],[129.663,105.381],[129.684,105.389],[129.752,105.418],[129.762,105.423],[129.785,105.433],[129.943,105.507],[129.987,105.529],[130.246,105.668],[130.375,105.745],[130.517,105.836],[130.746,105.998],[131.063,106.257],[131.334,106.516],[131.508,106.704],[131.566,106.772],[131.708,106.947],[131.76,107.017],[131.877,107.18],[131.916,107.238],[132.009,107.383],[132.036,107.427],[132.11,107.555],[132.125,107.582],[132.185,107.694],[132.19,107.704],[132.23,107.783],[132.244,107.811],[132.242,112.192],[132.237,112.204],[132.22,112.237],[132.197,112.282],[132.166,112.342],[132.124,112.42],[132.074,112.508],[132.021,112.597],[131.943,112.72],[131.895,112.794],[131.777,112.962],[131.744,113.006],[131.575,113.218],[131.565,113.231],[131.353,113.465],[131.334,113.484],[131.055,113.75],[130.877,113.9],[130.738,114.008],[130.382,114.25],[130.369,114.258],[130.135,114.394],[129.939,114.495],[129.891,114.518],[129.785,114.567],[129.762,114.577],[129.752,114.582],[129.684,114.611],[129.663,114.619],[129.55,114.664],[129.519,114.676],[129.458,114.699],[129.444,114.704],[129.361,114.733],[129.32,114.746],[129.273,114.762],[129.112,114.811],[129.04,114.83],[128.857,114.876],[128.792,114.89],[128.627,114.922],[128.535,114.938],[128.503,114.943],[128.473,114.947],[128.336,114.965],[128.285,114.971],[128.251,114.975],[128.208,114.979],[128.154,114.984],[128.145,114.984],[127.995,114.994],[127.785,115],[87.7562,115],[87.7562,105]]
M73 P0 R64
;TYPE:Custom
M190 S80
M109 S250
PRINT_START EXTRUDER=250 BED=80
START_PRINT
G90
G21
M83 ; use relative distances for extrusion
; filament start gcode
M106 S0
;LAYER_CHANGE
;Z:0.2
;HEIGHT:0.2
;BEFORE_LAYER_CHANGE
;0.2
G92 E0

G10 ; retract
;AFTER_LAYER_CHANGE
;0.2
;_SET_FAN_SPEED_CHANGING_LAYER
M104 S250 ; set nozzle temperature
SET_VELOCITY_LIMIT ACCEL=500 ACCEL_TO_DECEL=250
; printing object temperature_tower.stl id:0 copy 0
EXCLUDE_OBJECT_START NAME=temperature_tower.stl_id_0_copy_0
G1 Z.4 F10800
G1 X94.732 Y101.933
G1 Z.2
G11 ; unretract
;TYPE:Brim
;WIDTH:0.5
G1 F1800
G1 X95.258 Y101.565 E.02317
G1 X95.833 Y101.28 E.02317
G1 X96.443 Y101.082 E.02317
G1 X97.079 Y100.976 E.02329
G1 X97.477 Y100.958 E.01438
G1 X127.78 Y100.958 E1.09411
G1 X128.315 Y100.976 E.01932
G1 X128.867 Y101.028 E.02002
G1 X129.279 Y101.093 E.01506
G1 X129.904 Y101.26 E.02336
G1 X130.493 Y101.515 E.02317
G1 X131.037 Y101.855 E.02317
G1 X131.526 Y102.27 E.02317
G1 X131.948 Y102.754 E.02317
G1 X132.295 Y103.294 E.02317
G1 X132.558 Y103.879 E.02317
G1 X132.731 Y104.494 E.02306
G1 X132.819 Y105.372 E.03187
G1 X132.819 Y114.631 E.33429
G1 X132.771 Y115.279 E.02348
G1 X132.63 Y115.905 E.02317
G1 X132.398 Y116.504 E.02317
G1 X132.08 Y117.061 E.02317
G1 X131.684 Y117.566 E.02317
G1 X131.217 Y118.007 E.02317
G1 X130.691 Y118.374 E.02317
G1 X130.12 Y118.658 E.02302
G1 X129.189 Y118.923 E.03497
G1 X128.451 Y119.014 E.02682
G1 X127.779 Y119.042 E.02428
G1 X97.481 Y119.042 E1.09397
G1 X96.832 Y118.994 E.02348
G1 X96.206 Y118.853 E.02317
G1 X95.608 Y118.621 E.02317
G1 X95.05 Y118.303 E.02317
G1 X94.545 Y117.907 E.02317
G1 X94.105 Y117.441 E.02317
G1 X93.738 Y116.914 E.02317
G1 X93.452 Y116.34 E.02317
G1 X93.254 Y115.729 E.02317
G1 X93.148 Y115.093 E.02329
G1 X93.13 Y114.695 E.01438
G1 X93.13 Y105.308 E.3389
G1 X93.178 Y104.66 E.02348
G1 X93.319 Y104.034 E.02317
G1 X93.551 Y103.436 E.02317
G1 X93.869 Y102.878 E.02317
G1 X94.265 Y102.373 E.02317
G1 X94.703 Y101.96 E.02173
G1 X95.017 Y102.294 F10800
G1 F1800
G1 X95.029 Y102.282 E.00063
G1 X95.483 Y101.965 E.01999
G1 X95.997 Y101.709 E.02072
G1 X96.562 Y101.526 E.02145
G1 X97.119 Y101.433 E.02041
G1 X97.491 Y101.415 E.01343
G1 X127.77 Y101.415 E1.09326
G1 X128.29 Y101.433 E.01878
G1 X128.814 Y101.482 E.01901
G1 X129.191 Y101.543 E.01378
G1 X129.743 Y101.691 E.02065
G1 X130.27 Y101.917 E.02072
G1 X130.758 Y102.219 E.02072
G1 X131.197 Y102.59 E.02072
G1 X131.587 Y103.037 E.02145
G1 X131.886 Y103.503 E.01999
G1 X132.123 Y104.026 E.02072
G1 X132.281 Y104.591 E.02119
G1 X132.362 Y105.402 E.02941
G1 X132.362 Y114.609 E.33242
G1 X132.315 Y115.222 E.02219
G1 X132.188 Y115.781 E.02072
G1 X131.988 Y116.297 E.01999
G1 X131.694 Y116.813 E.02145
G1 X131.352 Y117.249 E.01999
G1 X130.935 Y117.644 E.02072
G1 X130.466 Y117.974 E.02072
G1 X129.966 Y118.224 E.02019
G1 X129.087 Y118.475 E.033
G1 X128.419 Y118.558 E.02428
G1 X127.767 Y118.585 E.02357
G1 X97.492 Y118.585 E1.09309
G1 X96.91 Y118.542 E.02109
G1 X96.35 Y118.417 E.02072
G1 X95.814 Y118.211 E.02072
G1 X95.315 Y117.928 E.02072
G1 X94.862 Y117.575 E.02072
G1 X94.467 Y117.159 E.02072
G1 X94.138 Y116.689 E.02072
G1 X93.881 Y116.176 E.02072
G1 X93.698 Y115.61 E.02145
G1 X93.605 Y115.053 E.02041
G1 X93.587 Y114.681 E.01343
G1 X93.587 Y105.33 E.33762
G1 X93.63 Y104.738 E.02146
G1 X93.761 Y104.158 E.02145
G1 X93.97 Y103.624 E.02072
G1 X94.255 Y103.126 E.02072
G1 X94.611 Y102.675 E.02072
G1 X94.987 Y102.322 E.01865
G1 X95.3 Y102.655 F10800
G1 F1800
G1 X95.311 Y102.645 E.00051
G1 X95.709 Y102.365 E.01758
G1 X96.161 Y102.138 E.01826
G1 X96.68 Y101.969 E.01971
G1 X97.16 Y101.889 E.01756
G1 X97.505 Y101.872 E.01247
G1 X127.76 Y101.872 E1.09237
G1 X128.264 Y101.89 E.01823
G1 X128.751 Y101.936 E.01767
G1 X129.102 Y101.992 E.01282
G1 X129.602 Y102.128 E.01872
G1 X130.049 Y102.32 E.01757
G1 X130.48 Y102.585 E.01827
G1 X130.882 Y102.924 E.01899
G1 X131.226 Y103.321 E.01897
G1 X131.488 Y103.731 E.01756
G1 X131.688 Y104.174 E.01753
G1 X131.832 Y104.688 E.01929
G1 X131.905 Y105.432 E.02697
G1 X131.905 Y114.586 E.33054
G1 X131.86 Y115.163 E.02088
G1 X131.752 Y115.637 E.01756
G1 X131.577 Y116.091 E.01756
G1 X131.307 Y116.566 E.01973
G1 X131.005 Y116.947 E.01756
G1 X130.653 Y117.282 E.01757
G1 X130.239 Y117.574 E.01827
G1 X129.81 Y117.79 E.01734
G1 X128.985 Y118.027 E.03102
G1 X128.376 Y118.102 E.02214
G1 X127.755 Y118.128 E.02246
G1 X97.504 Y118.127 E1.09222
G1 X96.987 Y118.089 E.01874
G1 X96.492 Y117.98 E.01829
G1 X96.019 Y117.8 E.01827
G1 X95.578 Y117.552 E.01827
G1 X95.178 Y117.242 E.01827
G1 X94.829 Y116.876 E.01827
G1 X94.537 Y116.462 E.01827
G1 X94.31 Y116.011 E.01824
G1 X94.141 Y115.492 E.01971
G1 X94.061 Y115.012 E.01756
G1 X94.044 Y114.667 E.01247
G1 X94.044 Y105.352 E.33632
G1 X94.083 Y104.815 E.01944
G1 X94.203 Y104.283 E.01971
G1 X94.389 Y103.813 E.01824
G1 X94.641 Y103.374 E.01827
G1 X94.956 Y102.978 E.01827
G1 X95.271 Y102.682 E.01562
G1 X95.584 Y103.017 F10800
G1 F1800
G1 X95.608 Y102.995 E.00118
G1 X95.954 Y102.754 E.01521
G1 X96.345 Y102.558 E.0158
G1 X96.799 Y102.413 E.01721
G1 X97.202 Y102.346 E.01474
G1 X97.52 Y102.329 E.01151
G1 X127.749 Y102.329 E1.09146
G1 X128.242 Y102.347 E.01782
G1 X129.012 Y102.442 E.02801
G1 X129.461 Y102.564 E.01678
G1 X129.847 Y102.732 E.0152
G1 X130.203 Y102.951 E.01509
G1 X130.552 Y103.244 E.01646
G1 X130.865 Y103.604 E.01722
G1 X131.079 Y103.941 E.01443
G1 X131.253 Y104.321 E.01507
G1 X131.382 Y104.785 E.01739
G1 X131.448 Y105.461 E.02453
G1 X131.448 Y114.563 E.32865
G1 X131.408 Y115.084 E.01886
G1 X131.316 Y115.494 E.01518
G1 X131.167 Y115.885 E.01511
G1 X130.92 Y116.318 E.01798
G1 X130.66 Y116.645 E.01511
G1 X130.369 Y116.921 E.01448
G1 X130.011 Y117.176 E.01584
G1 X129.655 Y117.357 E.01446
G1 X128.882 Y117.579 E.02901
G1 X128.333 Y117.646 E.01999
G1 X127.742 Y117.671 E.02135
G1 X97.516 Y117.67 E1.09134
G1 X97.063 Y117.636 E.01641
G1 X96.633 Y117.543 E.01587
G1 X96.223 Y117.389 E.01582
G1 X95.841 Y117.175 E.01582
G1 X95.494 Y116.908 E.01582
G1 X95.19 Y116.592 E.01582
G1 X94.925 Y116.217 E.01655
G1 X94.73 Y115.827 E.01576
G1 X94.585 Y115.373 E.0172
G1 X94.518 Y114.97 E.01474
G1 X94.501 Y114.652 E.01151
G1 X94.501 Y105.374 E.335
G1 X94.536 Y104.893 E.01741
G1 X94.645 Y104.408 E.01795
G1 X94.806 Y104.003 E.01573
G1 X95.027 Y103.624 E.01582
G1 X95.301 Y103.282 E.01584
G1 X95.555 Y103.044 E.01256
G1 X95.866 Y103.38 F10800
G1 F1800
G1 X95.904 Y103.345 E.00186
G1 X96.197 Y103.143 E.01283
G1 X96.528 Y102.98 E.01335
G1 X96.917 Y102.857 E.01472
G1 X97.244 Y102.802 E.01197
G1 X97.536 Y102.786 E.01055
G1 X127.739 Y102.786 E1.09051
G1 X128.212 Y102.803 E.0171
G1 X128.933 Y102.894 E.02624
G1 X129.318 Y103 E.01441
G1 X129.626 Y103.134 E.01214
G1 X129.926 Y103.317 E.01268
G1 X130.237 Y103.579 E.01469
G1 X130.503 Y103.887 E.01468
G1 X130.681 Y104.169 E.01203
G1 X130.817 Y104.468 E.01189
G1 X130.932 Y104.881 E.01546
G1 X130.991 Y105.49 E.02209
G1 X130.991 Y114.54 E.32678
G1 X130.955 Y115.006 E.01686
G1 X130.879 Y115.352 E.01281
G1 X130.756 Y115.68 E.01262
G1 X130.534 Y116.069 E.01618
G1 X130.328 Y116.328 E.01196
G1 X130.085 Y116.561 E.01215
G1 X129.782 Y116.778 E.01344
G1 X129.498 Y116.924 E.01155
G1 X128.78 Y117.131 E.02697
G1 X128.29 Y117.191 E.01782
G1 X127.73 Y117.214 E.02025
G1 X97.528 Y117.212 E1.09047
G1 X97.119 Y117.181 E.01481
G1 X96.754 Y117.1 E.01351
G1 X96.407 Y116.968 E.01338
G1 X96.085 Y116.786 E.01337
G1 X95.792 Y116.559 E.01337
G1 X95.537 Y116.291 E.01335
G1 X95.314 Y115.973 E.01404
G1 X95.152 Y115.644 E.01324
G1 X95.029 Y115.255 E.01472
G1 X94.974 Y114.928 E.01197
G1 X94.958 Y114.636 E.01055
G1 X94.958 Y105.395 E.33367
G1 X94.988 Y104.97 E.01538
G1 X95.087 Y104.534 E.01616
G1 X95.224 Y104.195 E.01319
G1 X95.411 Y103.875 E.01337
G1 X95.644 Y103.586 E.01341
G1 X95.837 Y103.408 E.00949
G1 X96.143 Y103.762 F10800
G1 F1800
G1 X96.25 Y103.67 E.0051
G1 X96.591 Y103.471 E.01426
G1 X97.111 Y103.297 E.01979
G1 X97.449 Y103.247 E.01233
G1 X127.769 Y103.243 E1.09477
G1 X128.426 Y103.279 E.02373
G1 X128.779 Y103.33 E.01287
G1 X129.063 Y103.403 E.0106
G1 X129.622 Y103.676 E.02246
G1 X129.725 Y103.746 E.00451
G1 X129.921 Y103.916 E.00937
G1 X130.108 Y104.134 E.01038
G1 X130.251 Y104.369 E.00992
G1 X130.4 Y104.705 E.01328
G1 X130.514 Y105.199 E.01832
G1 X130.534 Y114.595 E.33924
G1 X130.436 Y115.204 E.02228
G1 X130.401 Y115.318 E.0043
G1 X130.246 Y115.657 E.01345
G1 X130.027 Y115.967 E.01372
G1 X129.809 Y116.18 E.01099
G1 X129.465 Y116.418 E.0151
G1 X129.204 Y116.544 E.01048
G1 X128.775 Y116.669 E.01614
G1 X128.317 Y116.731 E.01669
G1 X127.853 Y116.755 E.01675
G1 X97.517 Y116.757 E1.09531
G1 X96.795 Y116.626 E.0265
G1 X96.559 Y116.526 E.00926
G1 X96.364 Y116.417 E.00806
G1 X95.973 Y116.082 E.01857
G1 X95.898 Y115.997 E.0041
G1 X95.733 Y115.751 E.0107
G1 X95.583 Y115.442 E.01241
G1 X95.465 Y115.047 E.01488
G1 X95.425 Y114.81 E.00868
G1 X95.415 Y105.348 E.34161
G1 X95.508 Y104.773 E.02106
G1 X95.611 Y104.466 E.01167
G1 X95.759 Y104.186 E.01142
G1 X95.996 Y103.89 E.01371
G1 X96.113 Y103.789 E.00558
G1 X96.397 Y104.139 F10800
G1 F1800
G1 X96.544 Y104.02 E.00684
G1 X96.823 Y103.864 E.01154
G1 X97.253 Y103.731 E.01625
G1 X97.438 Y103.704 E.00675
G1 X127.773 Y103.7 E1.09527
G1 X128.362 Y103.732 E.02127
G1 X128.658 Y103.771 E.01078
G1 X128.963 Y103.849 E.01137
G1 X129.418 Y104.085 E.01852
G1 X129.628 Y104.267 E.01002
G1 X129.758 Y104.428 E.00746
G1 X129.83 Y104.546 E.00499
G1 X129.988 Y104.902 E.01408
G1 X130.069 Y105.302 E.01475
G1 X130.077 Y114.606 E.33593
G1 X129.984 Y115.132 E.01927
G1 X129.87 Y115.398 E.01046
G1 X129.715 Y115.632 E.01011
G1 X129.481 Y115.862 E.01186
G1 X129.208 Y116.04 E.01177
G1 X129.008 Y116.131 E.00794
G1 X128.646 Y116.23 E.01356
G1 X128.258 Y116.278 E.01413
G1 X127.828 Y116.299 E.01553
G1 X97.505 Y116.3 E1.09484
G1 X96.978 Y116.207 E.01933
G1 X96.789 Y116.131 E.00734
G1 X96.576 Y116.011 E.00882
G1 X96.275 Y115.739 E.01466
G1 X96.148 Y115.56 E.00794
G1 X95.989 Y115.232 E.01315
G1 X95.904 Y114.921 E.01165
G1 X95.876 Y114.734 E.00683
G1 X95.872 Y105.337 E.33927
G1 X95.96 Y104.843 E.0181
G1 X96.043 Y104.614 E.00882
G1 X96.162 Y104.402 E.00876
G1 X96.352 Y104.176 E.01065
G1 X96.366 Y104.164 E.00069
G1 X96.696 Y104.476 F10800
G1 F1800
G1 X96.822 Y104.382 E.00568
G1 X97.049 Y104.261 E.00927
G1 X97.38 Y104.17 E.01241
G1 X97.495 Y104.157 E.00419
G1 X127.777 Y104.157 E1.09335
G1 X128.297 Y104.184 E.01878
G1 X128.606 Y104.225 E.01127
G1 X128.847 Y104.292 E.00904
G1 X129.128 Y104.437 E.01141
G1 X129.265 Y104.546 E.00632
G1 X129.408 Y104.722 E.00821
G1 X129.573 Y105.095 E.01472
G1 X129.62 Y105.385 E.01059
G1 X129.62 Y114.616 E.33331
G1 X129.563 Y114.956 E.01242
G1 X129.481 Y115.159 E.00793
G1 X129.39 Y115.312 E.00642
G1 X129.234 Y115.477 E.00821
G1 X129.01 Y115.629 E.00974
G1 X128.886 Y115.691 E.00503
G1 X128.601 Y115.775 E.01073
G1 X128.197 Y115.824 E.01467
G1 X127.805 Y115.842 E.0142
G1 X97.495 Y115.843 E1.09436
G1 X97.156 Y115.786 E.01242
G1 X96.952 Y115.704 E.00793
G1 X96.8 Y115.613 E.00639
G1 X96.648 Y115.476 E.0074
G1 X96.554 Y115.35 E.00568
G1 X96.433 Y115.123 E.00927
G1 X96.342 Y114.792 E.01241
G1 X96.329 Y114.677 E.00419
G1 X96.329 Y105.325 E.33765
G1 X96.41 Y104.925 E.01475
G1 X96.468 Y104.78 E.00562
G1 X96.559 Y104.628 E.0064
G1 X96.669 Y104.506 E.00595
G1 X96.958 Y104.851 F10800
G1 F1800
G1 X97.104 Y104.742 E.00654
G1 X97.258 Y104.667 E.0062
G1 X97.488 Y104.614 E.00851
G1 X127.781 Y104.614 E1.09376
G1 X128.231 Y104.637 E.0163
G1 X128.556 Y104.68 E.01181
G1 X128.723 Y104.731 E.00632
G1 X128.833 Y104.787 E.00446
G1 X128.992 Y104.913 E.00735
G1 X129.124 Y105.176 E.01062
G1 X129.162 Y105.374 E.00728
G1 X129.162 Y114.628 E.33412
G1 X129.134 Y114.799 E.00627
G1 X129.093 Y114.916 E.00446
G1 X128.989 Y115.091 E.00735
G1 X128.746 Y115.256 E.01062
G1 X128.554 Y115.321 E.00731
G1 X128.182 Y115.368 E.01354
G1 X127.781 Y115.386 E.0145
G1 X97.483 Y115.386 E1.09392
G1 X97.312 Y115.357 E.00627
G1 X97.195 Y115.317 E.00446
G1 X97.023 Y115.214 E.00726
G1 X96.915 Y115.068 E.00654
G1 X96.839 Y114.914 E.0062
G1 X96.786 Y114.684 E.00851
G1 X96.786 Y105.311 E.33842
G1 X96.855 Y105.023 E.0107
G1 X96.938 Y104.885 E.00582
G1 X97.292 Y105.159 F10800
G1 F1800
G1 X97.472 Y105.071 E.00722
G1 X127.784 Y105.071 E1.09444
G1 X128.166 Y105.089 E.01381
G1 X128.507 Y105.134 E.01243
G1 X128.641 Y105.201 E.00538
G1 X128.705 Y105.361 E.00622
G1 X128.705 Y114.639 E.33501
G1 X128.657 Y114.78 E.00538
G1 X128.507 Y114.866 E.00622
G1 X128.166 Y114.911 E.01243
G1 X127.784 Y114.929 E.01381
G1 X97.472 Y114.929 E1.09444
G1 X97.331 Y114.88 E.00538
G1 X97.244 Y114.7 E.00722
G1 X97.244 Y105.3 E.3394
G1 X97.279 Y105.197 E.00394
G10 ; retract
;WIPE_START
G1 X97.472 Y105.071 E-.05523
G1 X98.242 Y105.071 E-.18477
;WIPE_END
G1 Z.6 F10800
G1 X127.313 Y113.536 Z.6
G1 Z.2
G11 ; unretract
;TYPE:Inner wall
;WIDTH:0.499999
G1 F1800
G1 X98.636 Y113.536 E1.03539
G1 X98.636 Y106.464 E.25533
G1 X127.313 Y106.464 E1.03539
G1 X127.313 Y113.496 E.25389
G1 X127.77 Y113.976 F10800
G1 F1800
G1 X127.754 Y113.993 E.00083
G1 X98.179 Y113.993 E1.06782
G1 X98.179 Y106.007 E.28834
G1 X127.753 Y106.007 E1.0678
M73 P1 R64
G1 X127.77 Y106.024 E.00085
G1 X127.77 Y113.936 E.28569
G1 X128.227 Y114.411 F10800
;TYPE:Outer wall
G1 F1800
G1 X127.774 Y114.45 E.01643
G1 X97.722 Y114.45 E1.08504
G1 X97.722 Y105.55 E.32134
G1 X127.753 Y105.55 E1.0843
G1 X128.227 Y105.589 E.01716
G1 X128.227 Y106.024 E.01569
G1 X128.227 Y114.371 E.30138
G10 ; retract
;WIPE_START
G1 X127.774 Y114.45 E-.11042
G1 X127.234 Y114.45 E-.12958
;WIPE_END
G1 Z.6 F10800
G1 X127.176 Y107.536 Z.6
G1 Z.2
G11 ; unretract
;TYPE:Bottom surface
;WIDTH:0.505041
G1 F2400
G1 X126.447 Y106.807 E.03763
G1 X125.793 Y106.807 E.02386
G1 X126.97 Y107.984 E.06075
