; generated by SuperSlicer 2.4 on 2024-01-09 at 03:35:41 UTC


;
;

;
;
; 

; external perimeters extrusion width = 0.42mm
; perimeters extrusion width = 0.46mm
; infill extrusion width = 0.45mm
; solid infill extrusion width = 0.45mm
; top infill extrusion width = 0.40mm
; first layer extrusion width = 0.42mm

; object:{"name":"Kossel_Parts_Fan_Offset_Adapter_","id":"Kossel_Parts_Fan_Offset_Adapter_.stl id:0 copy 0","object_center":[0.000000,0.000000,0.000000],"boundingbox_center":[0.000000,0.000000,12.733385],"boundingbox_size":[32.500000,15.500000,25.466770]}
; plater:{"center":[0.000000,0.000000,0.000000],"boundingbox_center":[0.000000,0.000000,12.733385],"boundingbox_size":[32.500000,15.500000,25.466770]}

;TYPE:Custom
START_PRINT
M107
G21 ; set units to millimeters
G90 ; use absolute coordinates
M83 ; use relative distances for extrusion
; Filament gcode
;_TOOLCHANGE 0
M109 S240 ; set temperature and wait for it to be reached
M190 S70 ; set bed temperature and wait for it to be reached
M107
;LAYER_CHANGE
;Z:0.2
;HEIGHT:0.2
;BEFORE_LAYER_CHANGE
G92 E0
;0.2
G1 E-5 F3600
G1 Z0.2 F10800
;AFTER_LAYER_CHANGE
;0.2
M204 S1000
G1 X-0.022 Y-18.141
G1 E5 F2400
;TYPE:Skirt
;WIDTH:0.52
G1 F1200
G1 X-16.274 Y-18.121 E0.64471
G1 X-17.379 Y-17.982 E0.0442
G1 X-18.759 Y-17.631 E0.05648
G1 X-20.181 Y-17.071 E0.06064
G1 X-21.611 Y-16.255 E0.0653
G1 X-22.925 Y-15.227 E0.06618
G1 X-24.042 Y-14.066 E0.06392
G1 X-24.926 Y-12.838 E0.06001
G1 X-25.608 Y-11.588 E0.05648
G1 X-26.131 Y-10.259 E0.05667
G1 X-26.482 Y-8.879 E0.05648
G1 X-26.666 Y-7.063 E0.07243
G1 X-26.621 Y7.774 E0.58857
G1 X-26.482 Y8.879 E0.04418
G1 X-26.131 Y10.259 E0.05648
G1 X-25.608 Y11.588 E0.05667
G1 X-24.926 Y12.838 E0.05648
G1 X-24.042 Y14.066 E0.06001
G1 X-22.925 Y15.227 E0.06392
G1 X-21.611 Y16.255 E0.06618
G1 X-20.181 Y17.071 E0.0653
G1 X-18.759 Y17.631 E0.06064
G1 X-17.379 Y17.982 E0.05648
G1 X-15.563 Y18.166 E0.07243
G1 X16.274 Y18.121 E1.26295
G1 X17.379 Y17.982 E0.04418
G1 X18.759 Y17.631 E0.05648
G1 X20.181 Y17.071 E0.06064
G1 X21.611 Y16.255 E0.0653
G1 X22.925 Y15.227 E0.06618
G1 X24.042 Y14.066 E0.06392
G1 X24.926 Y12.838 E0.06001
G1 X25.608 Y11.588 E0.05648
G1 X26.131 Y10.259 E0.05667
G1 X26.482 Y8.879 E0.05648
G1 X26.666 Y7.063 E0.07243
G1 X26.666 Y-7.192 E0.56547
G1 X26.364 Y-9.39 E0.08799
G1 X26.018 Y-10.574 E0.04895
G1 X25.542 Y-11.722 E0.04927
G1 X24.899 Y-12.875 E0.0524
G1 X24.042 Y-14.066 E0.05819
G1 X22.925 Y-15.227 E0.06392
G1 X21.611 Y-16.255 E0.06618
G1 X20.181 Y-17.071 E0.0653
G1 X18.773 Y-17.625 E0.06003
G1 X17.428 Y-17.972 E0.05512
G1 X15.635 Y-18.159 E0.0715
G1 X0.038 Y-18.141 E0.61871
G1 X0.039 Y-17.665 F10800
G1 F1200
G1 X-16.214 Y-17.648 E0.64476
G1 X-17.32 Y-17.509 E0.0442
G1 X-18.584 Y-17.187 E0.05176
G1 X-20.007 Y-16.627 E0.06064
G1 X-21.317 Y-15.879 E0.05985
G1 X-22.631 Y-14.851 E0.06618
G1 X-23.655 Y-13.787 E0.05859
G1 X-24.539 Y-12.559 E0.06001
G1 X-25.164 Y-11.414 E0.05176
G1 X-25.687 Y-10.084 E0.05667
G1 X-26.009 Y-8.82 E0.05176
G1 X-26.189 Y-7.063 E0.07007
G1 X-26.148 Y7.715 E0.58622
G1 X-26.009 Y8.82 E0.04418
G1 X-25.687 Y10.084 E0.05176
G1 X-25.164 Y11.414 E0.05667
G1 X-24.539 Y12.559 E0.05176
G1 X-23.655 Y13.787 E0.06001
G1 X-22.631 Y14.851 E0.05859
G1 X-21.317 Y15.879 E0.06618
G1 X-20.007 Y16.627 E0.05985
G1 X-18.584 Y17.187 E0.06064
G1 X-17.32 Y17.509 E0.05176
G1 X-15.563 Y17.689 E0.07008
G1 X16.215 Y17.648 E1.26059
G1 X17.32 Y17.509 E0.04418
G1 X18.584 Y17.187 E0.05176
G1 X20.007 Y16.627 E0.06064
G1 X21.317 Y15.879 E0.05985
G1 X22.631 Y14.851 E0.06618
G1 X23.655 Y13.787 E0.05859
G1 X24.539 Y12.559 E0.06001
G1 X25.164 Y11.414 E0.05176
G1 X25.687 Y10.084 E0.05667
G1 X26.009 Y8.82 E0.05176
G1 X26.189 Y7.063 E0.07007
G1 X26.189 Y-7.192 E0.56547
G1 X25.894 Y-9.306 E0.08466
G1 X25.577 Y-10.391 E0.04486
G1 X25.102 Y-11.539 E0.04927
G1 X24.512 Y-12.597 E0.04803
G1 X23.655 Y-13.787 E0.05819
G1 X22.631 Y-14.851 E0.05859
G1 X21.317 Y-15.879 E0.06618
G1 X20.007 Y-16.627 E0.05985
G1 X18.599 Y-17.181 E0.06003
G1 X17.365 Y-17.499 E0.05052
G1 X15.635 Y-17.682 E0.06903
G1 X0.099 Y-17.665 E0.61631
G1 E-3.5 F3600
;WIPE_START
G1 F8640
G1 X-3.501 Y-17.662 E-1.425
;WIPE_END
G1 E-0.075 F3600
; acceleration to travel
M204 S1500
G1 X-0.606 Y-13.236 F10800
; decel to extrusion
M204 S1000
G1 X0.098 Y-12.16
; end travel
G1 E5 F2400
;WIDTH:0.42
G1 F1200
G1 X15.45 Y-12.157 E0.48135
G1 X16.385 Y-12.044 E0.02953
G1 X17.32 Y-11.751 E0.03072
G1 X18.15 Y-11.318 E0.02937
G1 X18.935 Y-10.726 E0.03083
G1 X20.2 Y-8.961 E0.06808
G1 X20.502 Y-8.047 E0.03018
G1 X20.651 Y-7.086 E0.03048
G1 X20.633 Y7.277 E0.45036
G1 X20.358 Y8.547 E0.04074
G1 X19.793 Y9.695 E0.04011
G1 X18.954 Y10.697 E0.04098
G1 X17.895 Y11.475 E0.0412
G1 X16.707 Y11.964 E0.04027
G1 X15.401 Y12.163 E0.04142
G1 X-15.423 Y12.163 E0.96646
G1 X-16.781 Y11.943 E0.04315
G1 X-18.05 Y11.383 E0.04349
G1 X-19.111 Y10.545 E0.04239
G1 X-19.95 Y9.435 E0.04362
G1 X-20.457 Y8.233 E0.04092
G1 X-20.664 Y6.905 E0.04215
G1 X-20.646 Y-7.144 E0.44047
G1 X-20.389 Y-8.456 E0.04193
G1 X-19.836 Y-9.627 E0.04061
G1 X-18.966 Y-10.686 E0.04296
G1 X-17.899 Y-11.472 E0.04154
G1 X-16.708 Y-11.964 E0.04043
G1 X-15.4 Y-12.164 E0.04147
G1 X0.038 Y-12.16 E0.48405
G1 X0.038 Y-11.783 F10800
G1 F1200
G1 X15.438 Y-11.78 E0.48287
G1 X16.322 Y-11.672 E0.02791
G1 X17.19 Y-11.397 E0.02856
G1 X17.961 Y-10.991 E0.02731
G1 X18.685 Y-10.442 E0.02848
G1 X19.851 Y-8.816 E0.06275
G1 X20.138 Y-7.944 E0.02879
G1 X20.277 Y-7.044 E0.02856
G1 X20.26 Y7.218 E0.44717
G1 X20.009 Y8.402 E0.03793
G1 X19.465 Y9.508 E0.03865
G1 X18.68 Y10.436 E0.03812
G1 X17.691 Y11.156 E0.03836
G1 X16.586 Y11.607 E0.03742
G1 X15.387 Y11.786 E0.038
G1 X-15.408 Y11.786 E0.96555
G1 X-16.653 Y11.588 E0.03952
G1 X-17.836 Y11.072 E0.04047
G1 X-18.858 Y10.264 E0.04086
G1 X-19.634 Y9.228 E0.04059
G1 X-20.1 Y8.109 E0.03801
G1 X-20.286 Y6.891 E0.03865
G1 X-20.272 Y-7.09 E0.43836
G1 X-20.038 Y-8.316 E0.03914
G1 X-19.505 Y-9.445 E0.03912
G1 X-18.69 Y-10.427 E0.04001
G1 X-17.696 Y-11.154 E0.03863
G1 X-16.586 Y-11.606 E0.03757
G1 X-15.386 Y-11.786 E0.03804
G1 X-0.022 Y-11.783 E0.48172
G1 X-0.022 Y-11.406 F10800
G1 F1200
G1 X15.426 Y-11.403 E0.48439
G1 X16.257 Y-11.3 E0.02626
G1 X17.059 Y-11.043 E0.02638
G1 X17.771 Y-10.665 E0.02526
G1 X18.434 Y-10.16 E0.02615
G1 X19.502 Y-8.671 E0.05745
G1 X19.775 Y-7.841 E0.02739
G1 X19.902 Y-7.002 E0.02662
G1 X19.887 Y7.161 E0.44404
G1 X19.66 Y8.258 E0.03513
G1 X19.161 Y9.282 E0.03572
G1 X18.407 Y10.175 E0.03666
G1 X17.489 Y10.837 E0.03548
G1 X16.466 Y11.248 E0.03458
G1 X15.373 Y11.409 E0.03462
G1 X-15.393 Y11.409 E0.96464
G1 X-16.569 Y11.22 E0.03734
G1 X-17.661 Y10.737 E0.03744
G1 X-18.604 Y9.985 E0.03782
G1 X-19.317 Y9.022 E0.03757
G1 X-19.743 Y7.987 E0.0351
G1 X-19.909 Y6.877 E0.03519
G1 X-19.898 Y-7.038 E0.4363
G1 X-19.686 Y-8.178 E0.03633
G1 X-19.174 Y-9.262 E0.0376
G1 X-18.416 Y-10.167 E0.03701
G1 X-17.493 Y-10.835 E0.03573
G1 X-16.466 Y-11.248 E0.03472
G1 X-15.373 Y-11.409 E0.03465
G1 X-0.082 Y-11.406 E0.47941
G1 X-0.083 Y-11.029 F10800
G1 F1200
G1 X15.414 Y-11.026 E0.4859
G1 X16.193 Y-10.928 E0.02459
G1 X16.926 Y-10.689 E0.02419
G1 X17.579 Y-10.34 E0.02321
G1 X18.182 Y-9.877 E0.02384
G1 X19.153 Y-8.525 E0.0522
G1 X19.405 Y-7.769 E0.02498
G1 X19.527 Y-6.959 E0.02566
G1 X19.514 Y7.104 E0.44096
G1 X19.31 Y8.114 E0.0323
G1 X18.833 Y9.096 E0.03422
G1 X18.135 Y9.913 E0.03369
G1 X17.289 Y10.517 E0.0326
G1 X16.347 Y10.89 E0.03175
G1 X15.36 Y11.032 E0.03129
G1 X-15.377 Y11.032 E0.96374
G1 X-16.484 Y10.852 E0.03514
G1 X-17.485 Y10.403 E0.03439
G1 X-18.348 Y9.707 E0.03478
G1 X-18.999 Y8.818 E0.03454
G1 X-19.385 Y7.866 E0.03221
G1 X-19.532 Y6.863 E0.03179
G1 X-19.524 Y-6.988 E0.43429
G1 X-19.334 Y-8.04 E0.03354
G1 X-18.869 Y-9.04 E0.03457
G1 X-18.176 Y-9.875 E0.03402
G1 X-17.291 Y-10.516 E0.03425
G1 X-16.348 Y-10.89 E0.03182
G1 X-15.359 Y-11.032 E0.03131
G1 X-0.143 Y-11.029 E0.4771
G1 X-0.143 Y-10.652 F10800
G1 F1200
G1 X15.403 Y-10.649 E0.48741
G1 X16.093 Y-10.564 E0.02181
G1 X16.793 Y-10.336 E0.02309
G1 X17.386 Y-10.015 E0.02113
G1 X17.93 Y-9.595 E0.02155
G1 X18.804 Y-8.378 E0.04698
G1 X19.042 Y-7.665 E0.02356
G1 X19.151 Y-6.918 E0.02367
G1 X19.14 Y7.05 E0.43797
G1 X18.96 Y7.973 E0.02949
G1 X18.529 Y8.871 E0.03122
G1 X17.897 Y9.62 E0.03073
G1 X17.089 Y10.196 E0.03113
G1 X16.231 Y10.53 E0.02887
G1 X15.346 Y10.655 E0.02801
G1 X-15.363 Y10.655 E0.96286
G1 X-16.352 Y10.497 E0.03142
G1 X-17.308 Y10.069 E0.03283
G1 X-18.091 Y9.43 E0.03168
G1 X-18.681 Y8.616 E0.03153
G1 X-19.015 Y7.789 E0.02797
G1 X-19.155 Y6.849 E0.02977
G1 X-19.15 Y-6.939 E0.43232
G1 X-18.981 Y-7.905 E0.03076
G1 X-18.563 Y-8.818 E0.03149
G1 X-17.901 Y-9.616 E0.03248
G1 X-17.091 Y-10.195 E0.03123
G1 X-16.231 Y-10.53 E0.02894
G1 X-15.346 Y-10.655 E0.02803
G1 X-0.203 Y-10.652 E0.47481
G1 X-0.203 Y-10.275 F10800
G1 F1200
G1 X15.391 Y-10.272 E0.48893
G1 X16.028 Y-10.192 E0.02013
G1 X16.659 Y-9.983 E0.02084
G1 X17.192 Y-9.692 E0.01906
G1 X17.677 Y-9.314 E0.01927
G1 X18.456 Y-8.232 E0.04179
G1 X18.679 Y-7.562 E0.02214
G1 X18.776 Y-6.878 E0.02166
G1 X18.766 Y6.997 E0.43506
G1 X18.609 Y7.834 E0.02669
G1 X18.225 Y8.646 E0.02817
G1 X17.624 Y9.358 E0.0292
G1 X16.891 Y9.875 E0.02813
G1 X16.116 Y10.17 E0.02599
G1 X15.334 Y10.278 E0.02478
G1 X-15.348 Y10.278 E0.962
G1 X-16.223 Y10.142 E0.02775
G1 X-17.089 Y9.761 E0.02968
G1 X-17.833 Y9.154 E0.0301
G1 X-18.36 Y8.415 E0.02847
G1 X-18.657 Y7.67 E0.02514
G1 X-18.778 Y6.836 E0.02643
G1 X-18.775 Y-6.892 E0.43043
G1 X-18.628 Y-7.771 E0.02794
G1 X-18.23 Y-8.638 E0.02992
G1 X-17.628 Y-9.355 E0.02934
G1 X-16.893 Y-9.873 E0.02822
G1 X-16.116 Y-10.17 E0.02606
G1 X-15.333 Y-10.278 E0.02479
G1 X-0.263 Y-10.275 E0.47252
G1 X-0.263 Y-9.898 F10800
G1 F1200
G1 X15.379 Y-9.895 E0.49043
G1 X15.961 Y-9.82 E0.01842
G1 X16.523 Y-9.631 E0.01857
G1 X16.973 Y-9.385 E0.01608
G1 X17.425 Y-9.033 E0.01795
G1 X18.107 Y-8.085 E0.03664
G1 X18.308 Y-7.492 E0.01962
G1 X18.401 Y-6.839 E0.02069
G1 X18.393 Y6.945 E0.43216
G1 X18.243 Y7.74 E0.02537
G1 X17.896 Y8.461 E0.02509
G1 X17.354 Y9.094 E0.02615
G1 X16.695 Y9.551 E0.02513
G1 X16.004 Y9.81 E0.02313
G1 X15.321 Y9.901 E0.02161
G1 X-15.333 Y9.901 E0.96114
G1 X-16.139 Y9.774 E0.02558
G1 X-16.911 Y9.427 E0.02654
G1 X-17.573 Y8.879 E0.02693
G1 X-18.039 Y8.217 E0.0254
G1 X-18.297 Y7.553 E0.02233
G1 X-18.401 Y6.823 E0.02314
G1 X-18.401 Y-6.847 E0.4286
G1 X-18.274 Y-7.639 E0.02514
G1 X-17.924 Y-8.417 E0.02676
G1 X-17.391 Y-9.061 E0.02621
G1 X-16.695 Y-9.551 E0.02668
G1 X-16.004 Y-9.81 E0.02313
G1 X-15.321 Y-9.901 E0.02162
G1 X-0.323 Y-9.898 E0.47025
G1 X-0.323 Y-9.521 F10800
G1 F1200
G1 X15.366 Y-9.518 E0.49193
G1 X15.894 Y-9.449 E0.01667
G1 X16.385 Y-9.28 E0.01628
G1 X16.777 Y-9.062 E0.01406
G1 X17.171 Y-8.753 E0.01571
G1 X17.76 Y-7.936 E0.03158
G1 X17.937 Y-7.42 E0.0171
G1 X18.024 Y-6.825 E0.01886
G1 X18.018 Y6.894 E0.43015
G1 X17.891 Y7.601 E0.02253
G1 X17.592 Y8.237 E0.02202
G1 X17.118 Y8.799 E0.02305
G1 X16.5 Y9.228 E0.02359
G1 X15.895 Y9.448 E0.0202
G1 X15.309 Y9.524 E0.01852
G1 X-15.318 Y9.524 E0.96029
G1 X-16.054 Y9.405 E0.02337
G1 X-16.731 Y9.095 E0.02336
G1 X-17.311 Y8.607 E0.02376
G1 X-17.716 Y8.021 E0.02234
G1 X-17.937 Y7.439 E0.01952
G1 X-18.024 Y6.81 E0.01992
G1 X-18.024 Y-6.832 E0.42772
G1 X-17.906 Y-7.553 E0.02291
G1 X-17.592 Y-8.237 E0.02359
G1 X-17.118 Y-8.799 E0.02305
G1 X-16.5 Y-9.228 E0.02359
G1 X-15.895 Y-9.448 E0.0202
G1 X-15.309 Y-9.524 E0.01853
G1 X-0.383 Y-9.521 E0.46799
G1 X-0.383 Y-9.144 F10800
G1 F1200
G1 X15.355 Y-9.141 E0.49344
G1 X15.789 Y-9.086 E0.01374
G1 X16.246 Y-8.929 E0.01513
G1 X16.579 Y-8.741 E0.01198
G1 X16.917 Y-8.474 E0.01351
G1 X17.413 Y-7.785 E0.0266
G1 X17.567 Y-7.347 E0.01458
G1 X17.647 Y-6.811 E0.01698
G1 X17.644 Y6.846 E0.42822
G1 X17.538 Y7.466 E0.01972
G1 X17.286 Y8.015 E0.01895
G1 X16.882 Y8.504 E0.01986
G1 X16.306 Y8.904 E0.02199
G1 X15.789 Y9.086 E0.0172
G1 X15.297 Y9.147 E0.01552
G1 X-15.304 Y9.147 E0.95947
G1 X-15.923 Y9.051 E0.01965
G1 X-16.508 Y8.789 E0.0201
G1 X-17.048 Y8.335 E0.02211
G1 X-17.391 Y7.829 E0.01919
G1 X-17.576 Y7.328 E0.01675
G1 X-17.647 Y6.797 E0.01678
G1 X-17.646 Y-6.816 E0.42684
G1 X-17.538 Y-7.466 E0.02066
G1 X-17.286 Y-8.015 E0.01895
G1 X-16.882 Y-8.504 E0.01986
G1 X-16.306 Y-8.904 E0.02199
G1 X-15.789 Y-9.086 E0.0172
G1 X-15.297 Y-9.147 E0.01553
G1 X-0.443 Y-9.144 E0.46574
G1 X-0.443 Y-8.767 F10800
G1 F1200
G1 X15.342 Y-8.764 E0.49494
G1 X15.721 Y-8.714 E0.01198
G1 X16.105 Y-8.579 E0.01275
G1 X16.356 Y-8.436 E0.00906
G1 X16.662 Y-8.194 E0.01224
G1 X17.067 Y-7.633 E0.0217
G1 X17.197 Y-7.272 E0.01204
G1 X17.27 Y-6.797 E0.01506
G1 X17.269 Y6.801 E0.42636
G1 X17.184 Y7.335 E0.01694
G1 X16.977 Y7.797 E0.01589
G1 X16.643 Y8.211 E0.01667
G1 X16.154 Y8.558 E0.01879
G1 X15.72 Y8.714 E0.01445
G1 X15.285 Y8.77 E0.01375
G1 X-15.289 Y8.77 E0.95863
G1 X-15.838 Y8.683 E0.01745
G1 X-16.327 Y8.458 E0.01686
G1 X-16.782 Y8.067 E0.01883
G1 X-17.064 Y7.64 E0.01603
G1 X-17.215 Y7.22 E0.014
G1 X-17.27 Y6.785 E0.01373
G1 X-17.269 Y-6.801 E0.426
G1 X-17.184 Y-7.335 E0.01694
G1 X-16.977 Y-7.797 E0.01589
G1 X-16.643 Y-8.211 E0.01667
G1 X-16.154 Y-8.558 E0.01879
G1 X-15.72 Y-8.714 E0.01445
G1 X-15.285 Y-8.77 E0.01376
G1 X-0.503 Y-8.767 E0.46348
G1 X-0.503 Y-8.39 F10800
G1 F1200
G1 X15.33 Y-8.386 E0.49642
G1 X15.651 Y-8.343 E0.01015
G1 X15.96 Y-8.23 E0.01034
G1 X16.133 Y-8.132 E0.00624
G1 X16.408 Y-7.915 E0.01097
G1 X16.722 Y-7.478 E0.01688
G1 X16.827 Y-7.194 E0.00949
G1 X16.893 Y-6.782 E0.01309
G1 X16.892 Y6.787 E0.42545
G1 X16.828 Y7.207 E0.01333
G1 X16.665 Y7.584 E0.01286
G1 X16.4 Y7.921 E0.01346
G1 X15.998 Y8.213 E0.01559
G1 X15.65 Y8.343 E0.01164
G1 X15.273 Y8.393 E0.01192
G1 X-15.275 Y8.393 E0.95781
G1 X-15.709 Y8.328 E0.01376
G1 X-16.105 Y8.152 E0.01359
G1 X-16.484 Y7.834 E0.01553
G1 X-16.718 Y7.487 E0.0131
G1 X-16.844 Y7.15 E0.0113
G1 X-16.893 Y6.773 E0.01191
G1 X-16.892 Y-6.787 E0.42517
G1 X-16.828 Y-7.207 E0.01333
G1 X-16.665 Y-7.584 E0.01286
G1 X-16.4 Y-7.921 E0.01346
G1 X-15.998 Y-8.213 E0.01559
G1 X-15.65 Y-8.343 E0.01164
G1 X-15.273 Y-8.393 E0.01193
G1 X-0.563 Y-8.39 E0.46122
G1 X-0.563 Y-8.013 F10800
G1 F1200
G1 X15.318 Y-8.009 E0.49794
G1 X15.541 Y-7.982 E0.00705
G1 X15.816 Y-7.881 E0.00917
G1 X15.91 Y-7.827 E0.00341
G1 X16.153 Y-7.635 E0.0097
G1 X16.379 Y-7.32 E0.01217
G1 X16.459 Y-7.114 E0.00692
G1 X16.516 Y-6.767 E0.01104
G1 X16.515 Y6.774 E0.42454
G1 X16.471 Y7.085 E0.00986
G1 X16.35 Y7.375 E0.00986
G1 X16.153 Y7.635 E0.01024
G1 X15.84 Y7.87 E0.01224
G1 X15.539 Y7.982 E0.01009
G1 X15.262 Y8.016 E0.00876
G1 X-15.262 Y8.016 E0.95704
G1 X-15.585 Y7.971 E0.01022
G1 X-15.888 Y7.843 E0.01032
G1 X-16.19 Y7.597 E0.01221
G1 X-16.373 Y7.334 E0.01005
G1 X-16.482 Y7.039 E0.00986
G1 X-16.516 Y6.762 E0.00876
G1 X-16.515 Y-6.774 E0.42439
G1 X-16.471 Y-7.085 E0.00986
G1 X-16.35 Y-7.375 E0.00986
G1 X-16.153 Y-7.635 E0.01024
G1 X-15.84 Y-7.87 E0.01224
G1 X-15.539 Y-7.982 E0.01009
G1 X-15.262 Y-8.016 E0.00876
G1 X-0.623 Y-8.013 E0.45898
G1 X-0.623 Y-7.636 F10800
G1 F1200
G1 X15.312 Y-7.632 E0.49963
G1 X15.458 Y-7.614 E0.00462
G1 X15.48 Y-7.608 E0.00072
G1 X15.665 Y-7.535 E0.00623
G1 X15.689 Y-7.522 E0.00086
G1 X15.89 Y-7.364 E0.00802
G1 X15.909 Y-7.345 E0.00084
G1 X16.024 Y-7.185 E0.0062
G1 X16.035 Y-7.166 E0.00069
G1 X16.088 Y-7.038 E0.00435
G1 X16.094 Y-7.018 E0.00064
G1 X16.139 Y-6.758 E0.00826
G1 X16.139 Y6.756 E0.42373
G1 X16.114 Y6.957 E0.00636
G1 X16.108 Y6.98 E0.00074
G1 X16.036 Y7.163 E0.00618
G1 X16.025 Y7.184 E0.00074
G1 X15.909 Y7.345 E0.00622
G1 X15.89 Y7.364 E0.00084
G1 X15.689 Y7.522 E0.00802
G1 X15.665 Y7.535 E0.00086
G1 X15.48 Y7.608 E0.00623
G1 X15.457 Y7.614 E0.00074
G1 X15.256 Y7.639 E0.00636
G1 X-15.256 Y7.639 E0.95668
G1 X-15.457 Y7.614 E0.00636
G1 X-15.48 Y7.608 E0.00074
G1 X-15.665 Y7.535 E0.00623
G1 X-15.689 Y7.522 E0.00086
G1 X-15.89 Y7.364 E0.00802
G1 X-15.909 Y7.345 E0.00084
G1 X-16.025 Y7.184 E0.00622
G1 X-16.036 Y7.163 E0.00074
G1 X-16.108 Y6.98 E0.00618
G1 X-16.114 Y6.957 E0.00074
G1 X-16.139 Y6.756 E0.00636
G1 X-16.139 Y-6.756 E0.42365
G1 X-16.114 Y-6.957 E0.00636
G1 X-16.108 Y-6.98 E0.00074
G1 X-16.036 Y-7.163 E0.00618
G1 X-16.025 Y-7.184 E0.00074
G1 X-15.909 Y-7.345 E0.00622
G1 X-15.89 Y-7.364 E0.00084
G1 X-15.689 Y-7.522 E0.00802
