; generated by SuperSlicer 2.4 on 2024-01-09 at 03:43:44 UTC


;
;

;
;
; 

; external perimeters extrusion width = 0.42mm
; perimeters extrusion width = 0.46mm
; infill extrusion width = 0.45mm
; solid infill extrusion width = 0.45mm
; top infill extrusion width = 0.40mm
; first layer extrusion width = 0.42mm

; object:{"name":"Mr_Smooth","id":"Mr_Smooth.stl id:0 copy 0","object_center":[2.679980,-6.429220,0.000000],"boundingbox_center":[2.679980,-6.429220,8.744820],"boundingbox_size":[28.000000,19.993620,17.489640]}
; plater:{"center":[2.679980,-6.429220,0.000000],"boundingbox_center":[2.679980,-6.429220,8.744820],"boundingbox_size":[28.000000,19.993620,17.489640]}

;TYPE:Custom
START_PRINT
M107
G21 ; set units to millimeters
G90 ; use absolute coordinates
M83 ; use relative distances for extrusion
; Filament gcode
;_TOOLCHANGE 0
M104 S240 ; set temperature
M109 S240 ; set temperature and wait for it to be reached
M190 S70 ; set bed temperature and wait for it to be reached
M107
;LAYER_CHANGE
;Z:0.2
;HEIGHT:0.2
;BEFORE_LAYER_CHANGE
G92 E0
;0.2
G1 E-5 F3600
G1 Z0.2 F10800
;AFTER_LAYER_CHANGE
;0.2
M204 S1000
G1 X-0.022 Y12.07
G1 E5 F2400
;TYPE:Skirt
;WIDTH:0.52
G1 F1200
G1 X16.026 Y12.1 E0.63663
G1 X18.007 Y11.886 E0.07902
G1 X19.464 Y11.49 E0.0599
G1 X20.908 Y10.884 E0.06212
G1 X22.204 Y10.125 E0.0596
G1 X23.434 Y9.168 E0.06183
G1 X24.482 Y8.106 E0.05918
G1 X25.417 Y6.869 E0.06149
G1 X26.151 Y5.582 E0.05877
G1 X26.734 Y4.154 E0.06121
G1 X27.111 Y2.728 E0.05849
G1 X27.267 Y1.525 E0.04812
G1 X27.315 Y-15.749 E0.68526
G1 X27.132 Y-17.525 E0.07083
G1 X26.884 Y-18.604 E0.0439
G1 X26.537 Y-19.641 E0.0434
G1 X26.084 Y-20.655 E0.04404
G1 X25.482 Y-21.712 E0.04827
G1 X24.838 Y-22.623 E0.04424
G1 X24.117 Y-23.457 E0.04373
G1 X23.304 Y-24.229 E0.04449
G1 X22.336 Y-24.982 E0.04863
G1 X21.383 Y-25.583 E0.04472
G1 X20.388 Y-26.081 E0.04411
G1 X19.331 Y-26.484 E0.04491
G1 X17.979 Y-26.852 E0.05556
G1 X16.482 Y-27.052 E0.05992
G1 X-11.422 Y-27.009 E1.10693
G1 X-12.647 Y-26.846 E0.04902
G1 X-14.104 Y-26.45 E0.05989
G1 X-15.548 Y-25.844 E0.06212
G1 X-16.844 Y-25.085 E0.0596
G1 X-18.074 Y-24.128 E0.06183
G1 X-19.122 Y-23.066 E0.05919
G1 X-20.057 Y-21.829 E0.0615
G1 X-20.791 Y-20.542 E0.05877
G1 X-21.374 Y-19.113 E0.06121
G1 X-21.751 Y-17.688 E0.05849
G1 X-21.907 Y-16.485 E0.04812
G1 X-22.027 Y-11.627 E0.19279
G1 X-21.955 Y0.822 E0.49385
G1 X-21.751 Y2.728 E0.07603
G1 X-21.374 Y4.154 E0.05849
G1 X-20.791 Y5.582 E0.06121
G1 X-20.057 Y6.869 E0.05877
G1 X-19.122 Y8.106 E0.06149
G1 X-18.074 Y9.168 E0.05918
G1 X-16.844 Y10.125 E0.06183
G1 X-15.548 Y10.884 E0.0596
G1 X-14.104 Y11.49 E0.06212
G1 X-12.647 Y11.886 E0.0599
G1 X-11.423 Y12.049 E0.04899
G1 X-0.082 Y12.07 E0.44987
G1 X-0.081 Y11.595 F10800
G1 F1200
G1 X16.026 Y11.623 E0.63898
G1 X17.944 Y11.413 E0.07651
G1 X19.279 Y11.05 E0.0549
G1 X20.723 Y10.444 E0.06212
G1 X21.911 Y9.748 E0.05462
G1 X23.141 Y8.791 E0.06183
G1 X24.102 Y7.818 E0.05424
G1 X25.037 Y6.582 E0.06149
G1 X25.709 Y5.402 E0.05387
G1 X26.293 Y3.973 E0.06121
G1 X26.638 Y2.667 E0.05361
G1 X26.794 Y1.464 E0.04812
G1 X26.838 Y-15.749 E0.68283
G1 X26.659 Y-17.464 E0.06839
G1 X26.084 Y-19.49 E0.08354
G1 X25.669 Y-20.419 E0.04036
G1 X25.067 Y-21.476 E0.04827
G1 X23.756 Y-23.145 E0.08418
G1 X23.011 Y-23.853 E0.04077
G1 X22.043 Y-24.606 E0.04863
G1 X21.169 Y-25.157 E0.04099
G1 X20.175 Y-25.654 E0.04411
G1 X19.205 Y-26.024 E0.04116
G1 X17.854 Y-26.391 E0.05556
G1 X16.482 Y-26.575 E0.05492
G1 X-11.359 Y-26.537 E1.10442
G1 X-12.584 Y-26.373 E0.04902
G1 X-13.919 Y-26.01 E0.05489
G1 X-15.363 Y-25.404 E0.06212
G1 X-16.551 Y-24.708 E0.05462
G1 X-17.781 Y-23.751 E0.06183
G1 X-18.742 Y-22.778 E0.05425
G1 X-19.677 Y-21.542 E0.0615
G1 X-20.349 Y-20.362 E0.05387
G1 X-20.933 Y-18.933 E0.06121
G1 X-21.278 Y-17.627 E0.0536
G1 X-21.434 Y-16.424 E0.04812
G1 X-21.55 Y-11.629 E0.19024
G1 X-21.478 Y0.819 E0.49385
G1 X-21.278 Y2.667 E0.0737
G1 X-20.933 Y3.973 E0.05361
G1 X-20.349 Y5.402 E0.06121
G1 X-19.677 Y6.582 E0.05387
G1 X-18.742 Y7.818 E0.06149
G1 X-17.781 Y8.791 E0.05424
G1 X-16.551 Y9.748 E0.06183
G1 X-15.363 Y10.444 E0.05462
G1 X-13.919 Y11.05 E0.06212
G1 X-12.584 Y11.413 E0.0549
G1 X-11.36 Y11.576 E0.04899
G1 X-0.141 Y11.595 E0.44502
G1 E-3.5 F3600
;WIPE_START
G1 F8640
G1 X3.459 Y11.601 E-1.425
;WIPE_END
G1 E-0.075 F3600
; acceleration to travel
M204 S1500
G1 X0.562 Y7.174 F10800
; decel to extrusion
M204 S1000
G1 X-0.141 Y6.098
; end travel
G1 E5 F2400
;WIDTH:0.42
G1 F1200
G1 X-10.492 Y6.098 E0.32453
G1 X-11.735 Y5.921 E0.03936
G1 X-12.932 Y5.461 E0.0402
G1 X-13.994 Y4.74 E0.04026
G1 X-14.838 Y3.824 E0.03903
G1 X-15.304 Y3.089 E0.02729
G1 X-15.674 Y2.233 E0.02924
G1 X-15.953 Y0.645 E0.05056
G1 X-15.953 Y-11.033 E0.36614
G1 X-16.006 Y-11.757 E0.02278
G1 X-15.953 Y-12.434 E0.0213
G1 X-15.953 Y-15.583 E0.09872
G1 X-15.766 Y-16.869 E0.04075
G1 X-15.294 Y-18.074 E0.04056
G1 X-14.557 Y-19.142 E0.04067
G1 X-13.587 Y-20.021 E0.04106
G1 X-12.121 Y-20.766 E0.05158
G1 X-10.518 Y-21.058 E0.05106
G1 X15.987 Y-21.05 E0.83104
G1 X16.985 Y-20.903 E0.03165
G1 X17.969 Y-20.577 E0.03249
G1 X18.841 Y-20.09 E0.03131
G1 X19.642 Y-19.435 E0.03244
G1 X20.306 Y-18.641 E0.03246
G1 X20.842 Y-17.683 E0.03442
G1 X21.158 Y-16.738 E0.03124
G1 X21.297 Y-15.809 E0.02945
G1 X21.292 Y0.902 E0.52395
G1 X21.069 Y2.111 E0.03856
G1 X20.58 Y3.249 E0.03883
G1 X19.855 Y4.25 E0.03876
G1 X18.928 Y5.075 E0.03892
G1 X17.476 Y5.808 E0.05098
G1 X15.879 Y6.098 E0.05089
G1 X-0.081 Y6.098 E0.50043
G1 X-0.081 Y5.72 F10800
G1 F1200
G1 X-10.478 Y5.72 E0.32599
G1 X-11.66 Y5.55 E0.03742
G1 X-12.775 Y5.117 E0.03751
G1 X-13.764 Y4.441 E0.03756
G1 X-14.548 Y3.582 E0.03646
G1 X-14.977 Y2.901 E0.02526
G1 X-15.319 Y2.105 E0.02717
G1 X-15.576 Y0.628 E0.04698
G1 X-15.576 Y-11.047 E0.36606
G1 X-15.629 Y-11.77 E0.02275
G1 X-15.576 Y-12.419 E0.02041
G1 X-15.576 Y-15.57 E0.09879
G1 X-15.407 Y-16.752 E0.03745
G1 X-14.951 Y-17.916 E0.03918
G1 X-14.26 Y-18.908 E0.03792
G1 X-13.353 Y-19.725 E0.03825
G1 X-12.026 Y-20.401 E0.04671
G1 X-10.501 Y-20.681 E0.04859
G1 X15.973 Y-20.673 E0.83007
G1 X16.914 Y-20.533 E0.02983
G1 X17.832 Y-20.225 E0.03037
G1 X18.641 Y-19.769 E0.02911
G1 X19.388 Y-19.155 E0.03033
G1 X20.005 Y-18.413 E0.03024
G1 X20.504 Y-17.515 E0.03221
G1 X20.794 Y-16.635 E0.02906
G1 X20.922 Y-15.768 E0.02749
G1 X20.918 Y0.851 E0.52107
G1 X20.713 Y1.983 E0.03606
G1 X20.262 Y3.045 E0.03619
G1 X19.562 Y4.013 E0.03744
G1 X18.696 Y4.777 E0.03621
G1 X17.382 Y5.442 E0.04619
G1 X15.862 Y5.72 E0.04844
G1 X-0.021 Y5.72 E0.49802
G1 X-0.021 Y5.343 F10800
G1 F1200
G1 X-10.465 Y5.343 E0.32745
G1 X-11.584 Y5.18 E0.03546
G1 X-12.617 Y4.774 E0.0348
G1 X-13.532 Y4.143 E0.03485
G1 X-14.257 Y3.342 E0.03389
G1 X-14.65 Y2.713 E0.02323
G1 X-14.964 Y1.977 E0.0251
G1 X-15.199 Y0.612 E0.04341
G1 X-15.199 Y-11.06 E0.36599
G1 X-15.252 Y-11.783 E0.02272
G1 X-15.199 Y-12.403 E0.0195
G1 X-15.199 Y-15.556 E0.09887
G1 X-15.037 Y-16.676 E0.03549
G1 X-14.609 Y-17.756 E0.03642
G1 X-13.964 Y-18.674 E0.03516
G1 X-13.121 Y-19.427 E0.03544
G1 X-11.88 Y-20.052 E0.04354
G1 X-10.485 Y-20.303 E0.04447
G1 X15.958 Y-20.295 E0.8291
G1 X16.841 Y-20.162 E0.02799
G1 X17.694 Y-19.874 E0.02824
G1 X18.441 Y-19.45 E0.02691
G1 X19.134 Y-18.876 E0.02823
G1 X19.703 Y-18.187 E0.02802
G1 X20.165 Y-17.349 E0.03
G1 X20.431 Y-16.534 E0.02688
G1 X20.547 Y-15.727 E0.02554
G1 X20.544 Y0.802 E0.51826
G1 X20.358 Y1.855 E0.03353
G1 X19.923 Y2.878 E0.03484
G1 X19.27 Y3.773 E0.03477
G1 X18.466 Y4.477 E0.0335
G1 X17.237 Y5.093 E0.04309
G1 X15.845 Y5.343 E0.04434
G1 X0.039 Y5.343 E0.49561
G1 X0.039 Y4.966 F10800
G1 F1200
G1 X-10.451 Y4.966 E0.32891
G1 X-11.466 Y4.821 E0.03214
G1 X-12.458 Y4.431 E0.03342
G1 X-13.298 Y3.846 E0.0321
G1 X-13.965 Y3.102 E0.03132
G1 X-14.321 Y2.527 E0.02121
G1 X-14.608 Y1.85 E0.02305
G1 X-14.821 Y0.596 E0.03988
G1 X-14.821 Y-11.074 E0.36593
G1 X-14.875 Y-11.795 E0.02267
G1 X-14.821 Y-12.386 E0.01859
G1 X-14.821 Y-15.543 E0.09899
G1 X-14.677 Y-16.559 E0.03219
G1 X-14.286 Y-17.559 E0.03366
G1 X-13.696 Y-18.407 E0.0324
G1 X-12.888 Y-19.129 E0.03396
G1 X-11.737 Y-19.702 E0.04033
G1 X-10.468 Y-19.926 E0.04039
G1 X15.944 Y-19.918 E0.82814
G1 X16.736 Y-19.8 E0.0251
G1 X17.556 Y-19.522 E0.02714
G1 X18.239 Y-19.131 E0.02468
G1 X18.879 Y-18.597 E0.02613
G1 X19.4 Y-17.961 E0.02579
G1 X19.826 Y-17.184 E0.02779
G1 X20.067 Y-16.434 E0.0247
G1 X20.172 Y-15.688 E0.02362
G1 X20.169 Y0.754 E0.51551
G1 X20.002 Y1.729 E0.03102
G1 X19.605 Y2.674 E0.03214
G1 X19.005 Y3.504 E0.0321
G1 X18.236 Y4.177 E0.03206
G1 X17.094 Y4.743 E0.03996
G1 X15.829 Y4.966 E0.04028
G1 X0.099 Y4.966 E0.49321
G1 X0.099 Y4.589 F10800
G1 F1200
G1 X-10.438 Y4.589 E0.33038
G1 X-11.35 Y4.462 E0.02887
G1 X-12.262 Y4.108 E0.03068
G1 X-13.032 Y3.578 E0.02932
G1 X-13.673 Y2.863 E0.03009
G1 X-13.992 Y2.342 E0.01915
G1 X-14.252 Y1.724 E0.02101
G1 X-14.444 Y0.581 E0.03636
G1 X-14.444 Y-11.088 E0.36587
G1 X-14.497 Y-11.807 E0.02261
G1 X-14.444 Y-12.368 E0.01766
G1 X-14.444 Y-15.529 E0.09912
G1 X-14.307 Y-16.484 E0.03023
G1 X-13.944 Y-17.399 E0.03088
G1 X-13.401 Y-18.173 E0.02963
G1 X-12.658 Y-18.83 E0.0311
G1 X-11.595 Y-19.352 E0.03713
G1 X-10.452 Y-19.549 E0.03636
G1 X15.93 Y-19.541 E0.8272
G1 X16.631 Y-19.437 E0.02221
G1 X17.417 Y-19.171 E0.02602
G1 X18.035 Y-18.813 E0.02241
G1 X18.623 Y-18.32 E0.02404
G1 X19.097 Y-17.737 E0.02355
G1 X19.486 Y-17.02 E0.02559
G1 X19.703 Y-16.335 E0.02251
G1 X19.797 Y-15.649 E0.0217
G1 X19.795 Y0.706 E0.5128
G1 X19.634 Y1.643 E0.02983
G1 X19.267 Y2.507 E0.02941
G1 X18.713 Y3.264 E0.02941
G1 X18.007 Y3.877 E0.0293
G1 X16.952 Y4.392 E0.03682
G1 X15.813 Y4.589 E0.03626
G1 X0.159 Y4.589 E0.49082
G1 X0.159 Y4.212 F10800
G1 F1200
G1 X-10.425 Y4.212 E0.33184
G1 X-11.275 Y4.092 E0.02693
G1 X-12.104 Y3.765 E0.02791
G1 X-12.799 Y3.281 E0.02656
G1 X-13.38 Y2.626 E0.02746
G1 X-13.663 Y2.159 E0.01711
G1 X-13.895 Y1.6 E0.019
G1 X-14.067 Y0.565 E0.03288
G1 X-14.067 Y-11.102 E0.36582
G1 X-14.12 Y-11.819 E0.02253
G1 X-14.067 Y-12.349 E0.01672
G1 X-14.067 Y-15.516 E0.09928
G1 X-13.937 Y-16.407 E0.02825
G1 X-13.603 Y-17.238 E0.02808
G1 X-13.106 Y-17.936 E0.02686
G1 X-12.428 Y-18.53 E0.02826
G1 X-11.503 Y-18.985 E0.03232
G1 X-10.436 Y-19.172 E0.03398
G1 X15.916 Y-19.164 E0.82626
G1 X16.526 Y-19.075 E0.01933
G1 X17.278 Y-18.82 E0.02488
G1 X17.831 Y-18.496 E0.02009
G1 X18.366 Y-18.043 E0.02197
G1 X18.792 Y-17.514 E0.02131
G1 X19.145 Y-16.857 E0.02339
G1 X19.338 Y-16.238 E0.02032
G1 X19.421 Y-15.612 E0.01981
G1 X19.42 Y0.659 E0.51017
G1 X19.278 Y1.518 E0.02729
G1 X18.948 Y2.303 E0.02671
G1 X18.45 Y2.994 E0.0267
G1 X17.779 Y3.576 E0.02785
G1 X16.861 Y4.025 E0.03204
G1 X15.796 Y4.212 E0.03389
G1 X0.219 Y4.212 E0.48843
G1 X0.219 Y3.835 F10800
G1 F1200
G1 X-10.412 Y3.835 E0.3333
G1 X-11.199 Y3.722 E0.02495
G1 X-11.943 Y3.424 E0.02511
G1 X-12.563 Y2.986 E0.0238
G1 X-13.085 Y2.39 E0.02484
G1 X-13.332 Y1.978 E0.01508
G1 X-13.538 Y1.476 E0.01701
G1 X-13.69 Y0.55 E0.02943
G1 X-13.69 Y-11.116 E0.36579
G1 X-13.743 Y-11.805 E0.02164
G1 X-13.715 Y-12.178 E0.01174
G1 X-13.69 Y-12.316 E0.00441
G1 X-13.69 Y-15.503 E0.0999
G1 X-13.579 Y-16.289 E0.02491
G1 X-13.282 Y-17.038 E0.02525
G1 X-12.812 Y-17.699 E0.02544
G1 X-12.2 Y-18.228 E0.02537
G1 X-11.363 Y-18.634 E0.02917
G1 X-10.42 Y-18.795 E0.02999
G1 X15.903 Y-18.787 E0.82533
G1 X16.423 Y-18.712 E0.01648
G1 X17.105 Y-18.485 E0.02254
G1 X17.6 Y-18.197 E0.01794
G1 X18.108 Y-17.767 E0.02087
G1 X18.486 Y-17.293 E0.01902
G1 X18.804 Y-16.696 E0.0212
G1 X18.973 Y-16.143 E0.01812
G1 X19.046 Y-15.576 E0.01794
G1 X19.046 Y0.615 E0.50763
G1 X18.921 Y1.393 E0.02471
G1 X18.609 Y2.137 E0.02531
G1 X18.158 Y2.753 E0.02395
G1 X17.552 Y3.274 E0.02505
G1 X16.721 Y3.674 E0.02892
G1 X15.78 Y3.835 E0.02992
G1 X0.279 Y3.835 E0.48605
G1 X0.279 Y3.458 F10800
G1 F1200
G1 X-10.398 Y3.458 E0.33478
G1 X-11.082 Y3.363 E0.02164
G1 X-11.744 Y3.102 E0.0223
G1 X-12.327 Y2.691 E0.02237
G1 X-12.788 Y2.156 E0.02215
G1 X-13 Y1.798 E0.01305
G1 X-13.181 Y1.354 E0.01504
G1 X-13.313 Y0.535 E0.02601
G1 X-13.313 Y-11.132 E0.36579
G1 X-13.366 Y-11.791 E0.02073
G1 X-13.339 Y-12.139 E0.01096
G1 X-13.313 Y-12.282 E0.00454
G1 X-13.313 Y-15.489 E0.10057
G1 X-13.209 Y-16.213 E0.02293
G1 X-12.941 Y-16.875 E0.02241
G1 X-12.519 Y-17.46 E0.0226
G1 X-11.974 Y-17.925 E0.02248
G1 X-11.224 Y-18.282 E0.02603
G1 X-10.404 Y-18.418 E0.02606
G1 X15.889 Y-18.41 E0.82442
G1 X16.321 Y-18.348 E0.01369
G1 X16.934 Y-18.148 E0.02021
G1 X17.369 Y-17.898 E0.01574
G1 X17.85 Y-17.492 E0.01974
G1 X18.179 Y-17.073 E0.01668
G1 X18.461 Y-16.537 E0.01901
G1 X18.607 Y-16.05 E0.01592
G1 X18.67 Y-15.541 E0.0161
G1 X18.671 Y0.572 E0.5052
G1 X18.564 Y1.27 E0.02215
G1 X18.291 Y1.933 E0.02247
G1 X17.867 Y2.513 E0.02253
G1 X17.327 Y2.97 E0.02218
G1 X16.583 Y3.322 E0.0258
G1 X15.765 Y3.458 E0.02601
G1 X0.339 Y3.458 E0.48368
G1 X0.339 Y3.081 F10800
G1 F1200
G1 X-10.385 Y3.081 E0.33624
G1 X-11.006 Y2.993 E0.01968
G1 X-11.582 Y2.761 E0.01945
G1 X-12.088 Y2.398 E0.01953
G1 X-12.49 Y1.925 E0.01946
G1 X-12.667 Y1.62 E0.01105
G1 X-12.823 Y1.232 E0.01311
G1 X-12.936 Y0.52 E0.02262
G1 X-12.936 Y-11.147 E0.36582
G1 X-12.989 Y-11.777 E0.01982
G1 X-12.964 Y-12.1 E0.01015
G1 X-12.936 Y-12.245 E0.00465
G1 X-12.936 Y-15.476 E0.10129
G1 X-12.85 Y-16.095 E0.01961
G1 X-12.621 Y-16.674 E0.01951
G1 X-12.227 Y-17.22 E0.02113
G1 X-11.75 Y-17.621 E0.01951
G1 X-11.089 Y-17.929 E0.02289
G1 X-10.39 Y-18.041 E0.0222
G1 X15.876 Y-18.033 E0.82354
G1 X16.222 Y-17.984 E0.01095
G1 X16.765 Y-17.81 E0.0179
G1 X17.14 Y-17.598 E0.01348
G1 X17.592 Y-17.216 E0.01858
G1 X17.853 Y-16.883 E0.01327
G1 X18.119 Y-16.378 E0.01789
G1 X18.24 Y-15.96 E0.01365
G1 X18.294 Y-15.507 E0.01429
G1 X18.296 Y0.531 E0.50287
G1 X18.206 Y1.15 E0.01962
G1 X17.973 Y1.729 E0.01956
G1 X17.576 Y2.272 E0.02107
G1 X17.105 Y2.664 E0.01925
G1 X16.448 Y2.969 E0.02269
G1 X15.75 Y3.081 E0.02217
G1 X0.399 Y3.081 E0.48133
G1 X0.399 Y2.704 F10800
G1 F1200
G1 X-10.372 Y2.704 E0.33769
G1 X-10.929 Y2.623 E0.01766
G1 X-11.417 Y2.421 E0.01656
G1 X-11.847 Y2.107 E0.01669
G1 X-12.19 Y1.696 E0.01679
G1 X-12.322 Y1.467 E0.00828
G1 X-12.465 Y1.112 E0.01201
G1 X-12.559 Y0.505 E0.01923
G1 X-12.559 Y-11.164 E0.36588
G1 X-12.612 Y-11.764 E0.01889
G1 X-12.589 Y-12.059 E0.00929
G1 X-12.559 Y-12.207 E0.00473
G1 X-12.559 Y-15.463 E0.10207
G1 X-12.48 Y-16.019 E0.01763
G1 X-12.281 Y-16.511 E0.01662
G1 X-11.937 Y-16.978 E0.0182
G1 X-11.529 Y-17.314 E0.01658
G1 X-11.002 Y-17.561 E0.01824
G1 X-10.374 Y-17.664 E0.01995
G1 X15.863 Y-17.656 E0.82265
G1 X16.124 Y-17.62 E0.00827
G1 X16.599 Y-17.471 E0.0156
G1 X16.912 Y-17.297 E0.01122
G1 X17.309 Y-16.966 E0.01621
G1 X17.529 Y-16.69 E0.01107
G1 X17.763 Y-16.252 E0.01557
G1 X17.868 Y-15.899 E0.01155
G1 X17.919 Y-15.474 E0.01343
G1 X17.919 Y0.517 E0.50138
G1 X17.836 Y1.072 E0.01759
G1 X17.633 Y1.564 E0.01667
G1 X17.288 Y2.028 E0.01814
G1 X16.884 Y2.358 E0.01635
G1 X16.362 Y2.601 E0.01807
G1 X15.735 Y2.704 E0.01992
G1 X0.459 Y2.704 E0.47897
G1 X0.459 Y2.327 F10800
G1 F1200
G1 X-10.359 Y2.327 E0.33917
G1 X-10.81 Y2.264 E0.0143
G1 X-11.214 Y2.103 E0.01363
G1 X-11.605 Y1.817 E0.01519
G1 X-11.888 Y1.47 E0.01405
G1 X-11.977 Y1.314 E0.00562
G1 X-12.107 Y0.991 E0.01091
G1 X-12.182 Y0.491 E0.01585
G1 X-12.182 Y-11.181 E0.36599
G1 X-12.234 Y-11.751 E0.01795
G1 X-12.214 Y-12.018 E0.00839
G1 X-12.182 Y-12.167 E0.00477
G1 X-12.182 Y-15.45 E0.10295
G1 X-12.121 Y-15.9 E0.01423
G1 X-11.94 Y-16.346 E0.01511
G1 X-11.65 Y-16.733 E0.01516
G1 X-11.311 Y-17.006 E0.01364
G1 X-10.869 Y-17.207 E0.01522
G1 X-10.36 Y-17.287 E0.01616
G1 X15.85 Y-17.279 E0.82179
G1 X16.029 Y-17.254 E0.00566
G1 X16.436 Y-17.131 E0.01334
G1 X16.686 Y-16.995 E0.00894
G1 X17.028 Y-16.714 E0.01386
G1 X17.206 Y-16.495 E0.00886
G1 X17.408 Y-16.123 E0.01325
G1 X17.496 Y-15.837 E0.0094
G1 X17.541 Y-15.462 E0.01183
G1 X17.541 Y0.504 E0.50061
G1 X17.479 Y0.95 E0.01413
G1 X17.294 Y1.397 E0.01516
G1 X17.002 Y1.781 E0.01512
G1 X16.667 Y2.049 E0.01345
G1 X16.229 Y2.247 E0.01507
G1 X15.72 Y2.327 E0.01615
G1 X0.519 Y2.327 E0.47663
G1 X0.519 Y1.95 F10800
G1 F1200
G1 X-10.346 Y1.95 E0.34067
G1 X-10.692 Y1.905 E0.01093
G1 X-11.051 Y1.762 E0.0121
G1 X-11.359 Y1.53 E0.0121
G1 X-11.584 Y1.247 E0.01133
G1 X-11.632 Y1.162 E0.00307
