; generated by SuperSlicer 2.4 on 2023-12-20 at 04:46:11 UTC


;
;

;
;
; 

; external perimeters extrusion width = 0.60mm
; perimeters extrusion width = 0.50mm
; infill extrusion width = 0.50mm
; solid infill extrusion width = 0.50mm
; top infill extrusion width = 0.45mm
; first layer extrusion width = 0.42mm

; object:{"name":"ingotplainv1","id":"ingotplainv1.stl id:0 copy 0","object_center":[3.234734,-3.542915,0.000000],"boundingbox_center":[3.234734,-3.542915,15.000000],"boundingbox_size":[120.118801,51.528002,30.000000]}
; plater:{"center":[3.234734,-3.542915,0.000000],"boundingbox_center":[3.234734,-3.542915,15.000000],"boundingbox_size":[120.118801,51.528002,30.000000]}

;TYPE:Custom
START_PRINT
M107
G21 ; set units to millimeters
G90 ; use absolute coordinates
M83 ; use relative distances for extrusion
; Filament gcode
;_TOOLCHANGE 0
M109 S200 ; set temperature and wait for it to be reached
M190 S60 ; set bed temperature and wait for it to be reached
M107
;LAYER_CHANGE
;Z:0.2
;HEIGHT:0.2
;BEFORE_LAYER_CHANGE
G92 E0
;0.2
G1 E-5 F3600
G1 Z0.2 F10800
;AFTER_LAYER_CHANGE
;0.2
M204 S1000
G1 X-0.002 Y27.761
G1 E5 F2400
;TYPE:Skirt
;WIDTH:0.52
G1 F1200
G1 X58.942 Y27.764 E2.33824
G1 X60.925 Y27.568 E0.07908
G1 X61.915 Y27.314 E0.04054
G1 X63.044 Y26.886 E0.04788
G1 X64.262 Y26.235 E0.0548
G1 X65.257 Y25.517 E0.04867
G1 X66.211 Y24.618 E0.052
G1 X67.024 Y23.615 E0.05122
G1 X67.726 Y22.46 E0.05362
G1 X68.277 Y21.175 E0.05548
G1 X68.74 Y19.218 E0.07975
G1 X68.835 Y17.884 E0.05307
G1 X68.821 Y-25.363 E1.71557
G1 X68.593 Y-27.16 E0.07186
G1 X67.983 Y-29.008 E0.07719
G1 X67.092 Y-30.605 E0.07256
G1 X66.234 Y-31.676 E0.05444
G1 X65.617 Y-32.29 E0.03452
G1 X64.232 Y-33.34 E0.06893
G1 X62.466 Y-34.208 E0.07805
G1 X60.827 Y-34.671 E0.06757
G1 X58.949 Y-34.85 E0.07486
G1 X-52.695 Y-34.842 E4.42881
G1 X-54.499 Y-34.646 E0.07199
G1 X-55.448 Y-34.399 E0.03893
G1 X-56.558 Y-33.978 E0.0471
G1 X-57.763 Y-33.34 E0.05407
G1 X-58.85 Y-32.553 E0.05323
G1 X-59.769 Y-31.671 E0.05054
G1 X-60.628 Y-30.598 E0.05451
G1 X-61.296 Y-29.477 E0.05179
G1 X-61.78 Y-28.349 E0.0487
G1 X-62.153 Y-26.996 E0.05567
G1 X-62.345 Y-25.589 E0.05632
G1 X-62.366 Y17.875 E1.72419
G1 X-62.306 Y18.922 E0.04158
G1 X-62.124 Y20.07 E0.04612
G1 X-61.772 Y21.284 E0.05012
G1 X-61.353 Y22.28 E0.04289
G1 X-60.48 Y23.715 E0.06664
G1 X-59.713 Y24.649 E0.04791
G1 X-58.731 Y25.561 E0.05317
G1 X-57.767 Y26.253 E0.04709
G1 X-56.439 Y26.95 E0.05948
G1 X-55.291 Y27.364 E0.04844
G1 X-53.93 Y27.658 E0.05521
G1 X-52.759 Y27.757 E0.04663
G1 X-0.062 Y27.761 E2.09047
G1 X-0.062 Y27.284 F10800
G1 F1200
G1 X58.942 Y27.287 E2.34062
G1 X60.822 Y27.102 E0.07497
G1 X61.762 Y26.862 E0.03846
G1 X62.837 Y26.456 E0.04559
G1 X63.996 Y25.839 E0.0521
G1 X64.945 Y25.156 E0.04638
G1 X65.852 Y24.304 E0.04935
G1 X66.627 Y23.35 E0.04877
G1 X67.296 Y22.254 E0.05095
G1 X67.822 Y21.032 E0.05275
G1 X68.269 Y19.139 E0.07717
G1 X68.358 Y17.884 E0.04993
G1 X68.345 Y-25.33 E1.71424
G1 X68.125 Y-27.067 E0.06947
G1 X67.552 Y-28.803 E0.07251
G1 X66.693 Y-30.344 E0.06999
G1 X65.872 Y-31.365 E0.05196
G1 X65.307 Y-31.928 E0.03164
G1 X63.969 Y-32.942 E0.06662
G1 X62.309 Y-33.757 E0.07334
G1 X60.729 Y-34.204 E0.06516
G1 X58.949 Y-34.373 E0.07094
G1 X-52.694 Y-34.365 E4.42881
G1 X-54.394 Y-34.18 E0.06781
G1 X-55.295 Y-33.947 E0.03691
G1 X-56.352 Y-33.548 E0.04485
G1 X-57.5 Y-32.942 E0.05147
G1 X-58.549 Y-32.183 E0.05138
G1 X-59.408 Y-31.36 E0.04719
G1 X-60.228 Y-30.337 E0.05203
G1 X-60.871 Y-29.261 E0.04972
G1 X-61.334 Y-28.179 E0.04671
G1 X-61.689 Y-26.885 E0.0532
G1 X-61.868 Y-25.57 E0.05266
G1 X-61.888 Y17.875 E1.72343
G1 X-61.83 Y18.888 E0.04025
G1 X-61.656 Y19.977 E0.04375
G1 X-61.327 Y21.112 E0.04688
G1 X-60.929 Y22.061 E0.04081
G1 X-60.086 Y23.446 E0.06432
G1 X-59.356 Y24.332 E0.04554
G1 X-58.421 Y25.199 E0.05057
G1 X-57.503 Y25.855 E0.04478
G1 X-56.259 Y26.508 E0.05572
G1 X-55.15 Y26.908 E0.04678
G1 X-53.873 Y27.185 E0.05181
G1 X-52.736 Y27.281 E0.0453
G1 X-0.122 Y27.284 E2.08716
G1 E-3.5 F3600
;WIPE_START
G1 F8640
G1 X3.478 Y27.284 E-1.425
;WIPE_END
G1 E-0.075 F3600
; printing object ingotplainv1.stl id:0 copy 0
; acceleration to travel
M204 S1500
G1 X0.464 Y22.409 F10800
; decel to extrusion
M204 S800
G1 X-0.122 Y21.462
; end travel
G1 E5 F2400
;TYPE:Internal perimeter
;WIDTH:0.42
G1 F1200
G1 X-52.462 Y21.462 E1.64111
G1 X-52.818 Y21.444 E0.01118
G1 X-53.148 Y21.404 E0.01041
G1 X-53.453 Y21.335 E0.00981
G1 X-53.712 Y21.255 E0.00849
G1 X-54.036 Y21.123 E0.01097
G1 X-54.308 Y20.984 E0.00959
G1 X-54.658 Y20.751 E0.01317
G1 X-55.023 Y20.439 E0.01506
G1 X-55.296 Y20.13 E0.01293
G1 X-55.596 Y19.692 E0.01664
G1 X-55.737 Y19.417 E0.00969
G1 X-55.88 Y19.045 E0.0125
G1 X-55.947 Y18.819 E0.00739
G1 X-56.021 Y18.443 E0.01202
G1 X-56.063 Y17.855 E0.01848
G1 X-56.062 Y-24.956 E1.34228
G1 X-56.048 Y-25.308 E0.01107
G1 X-56.015 Y-25.564 E0.0081
G1 X-55.879 Y-26.132 E0.01829
G1 X-55.671 Y-26.633 E0.01701
G1 X-55.597 Y-26.776 E0.00506
G1 X-55.375 Y-27.115 E0.01271
G1 X-55.021 Y-27.526 E0.017
G1 X-54.659 Y-27.836 E0.01496
G1 X-54.317 Y-28.063 E0.01286
G1 X-53.864 Y-28.28 E0.01575
G1 X-53.446 Y-28.422 E0.01385
G1 X-53.148 Y-28.489 E0.00956
G1 X-52.663 Y-28.539 E0.0153
G1 X58.925 Y-28.547 E3.49876
G1 X59.564 Y-28.496 E0.02011
G1 X59.917 Y-28.422 E0.01129
G1 X60.361 Y-28.267 E0.01475
G1 X60.785 Y-28.063 E0.01475
G1 X61.125 Y-27.838 E0.01279
G1 X61.489 Y-27.527 E0.01501
G1 X61.842 Y-27.118 E0.01695
G1 X62.062 Y-26.782 E0.01258
G1 X62.276 Y-26.333 E0.01561
G1 X62.418 Y-25.897 E0.01437
G1 X62.491 Y-25.528 E0.01177
G1 X62.532 Y-24.941 E0.01846
G1 X62.532 Y17.872 E1.34237
G1 X62.518 Y18.212 E0.01067
G1 X62.423 Y18.776 E0.01793
G1 X62.274 Y19.253 E0.01569
G1 X62.062 Y19.696 E0.01541
G1 X61.802 Y20.085 E0.01463
G1 X61.492 Y20.44 E0.01481
G1 X61.163 Y20.724 E0.01363
G1 X60.783 Y20.98 E0.01434
G1 X60.342 Y21.192 E0.01534
G1 X59.918 Y21.336 E0.01406
G1 X59.593 Y21.408 E0.01042
G1 X59.291 Y21.444 E0.00955
G1 X58.927 Y21.462 E0.01141
G1 X-0.062 Y21.462 E1.84956
G1 X-0.122 Y21.839 F10800
;TYPE:External perimeter
G1 F1200
G1 X-52.472 Y21.839 E1.6414
G1 X-52.85 Y21.82 E0.01188
G1 X-53.213 Y21.776 E0.01144
G1 X-53.551 Y21.7 E0.01087
G1 X-53.839 Y21.611 E0.00946
G1 X-54.194 Y21.466 E0.012
G1 X-54.499 Y21.309 E0.01076
G1 X-54.886 Y21.053 E0.01456
G1 X-55.288 Y20.708 E0.0166
G1 X-55.594 Y20.362 E0.01449
G1 X-55.92 Y19.885 E0.01811
G1 X-56.082 Y19.572 E0.01107
G1 X-56.238 Y19.166 E0.01363
G1 X-56.313 Y18.909 E0.0084
G1 X-56.396 Y18.493 E0.0133
G1 X-56.44 Y17.868 E0.01964
G1 X-56.439 Y-24.963 E1.34294
G1 X-56.424 Y-25.34 E0.01184
G1 X-56.386 Y-25.633 E0.00925
G1 X-56.239 Y-26.249 E0.01985
G1 X-56.087 Y-26.649 E0.01342
G1 X-56.013 Y-26.793 E0.00507
G1 X-55.922 Y-26.967 E0.00616
G1 X-55.677 Y-27.342 E0.01406
G1 X-55.288 Y-27.794 E0.01867
G1 X-54.886 Y-28.138 E0.01659
G1 X-54.503 Y-28.392 E0.01441
G1 X-54.007 Y-28.63 E0.01727
G1 X-53.548 Y-28.786 E0.01518
G1 X-53.209 Y-28.862 E0.0109
G1 X-52.682 Y-28.916 E0.01661
G1 X58.94 Y-28.924 E3.49984
G1 X59.618 Y-28.87 E0.02133
G1 X60.018 Y-28.786 E0.01281
G1 X60.505 Y-28.616 E0.01617
G1 X60.972 Y-28.392 E0.01623
G1 X61.353 Y-28.14 E0.01433
G1 X61.756 Y-27.795 E0.01663
G1 X62.144 Y-27.345 E0.01863
G1 X62.392 Y-26.967 E0.01416
G1 X62.627 Y-26.472 E0.01719
G1 X62.783 Y-25.992 E0.01584
G1 X62.865 Y-25.579 E0.01321
G1 X62.909 Y-24.954 E0.01962
G1 X62.909 Y17.879 E1.34302
G1 X62.894 Y18.251 E0.01165
G1 X62.791 Y18.864 E0.01949
G1 X62.626 Y19.392 E0.01735
G1 X62.39 Y19.883 E0.0171
G1 X62.103 Y20.314 E0.01624
G1 X61.758 Y20.708 E0.01641
G1 X61.392 Y21.025 E0.01518
G1 X60.971 Y21.308 E0.01591
G1 X60.485 Y21.541 E0.0169
G1 X60.019 Y21.7 E0.01543
G1 X59.657 Y21.78 E0.01165
G1 X59.322 Y21.82 E0.01055
G1 X58.936 Y21.839 E0.01212
G1 X-0.062 Y21.839 E1.84985
;WIPE_START
M204 S1000
G1 X-0.322 Y21.492 F10800
;WIPE_END
G1 E-3.5 F3600
;WIPE_START
G1 F8640
G1 X-3.922 Y21.502 E-1.425
;WIPE_END
G1 E-0.075 F3600
; acceleration to travel
M204 S1500
G1 X49.137 Y-17.184 F10800
; decel to extrusion
M204 S1000
G1 X62.031 Y-26.585
; end travel
G1 E5 F2400
;TYPE:Solid infill
;WIDTH:0.420169
G1 F1200
G1 X61.226 Y-27.39 E0.0357
G1 X60.959 Y-27.618 E0.011
G1 X60.649 Y-27.823 E0.01167
G1 X60.256 Y-28.012 E0.01368
G1 X59.972 Y-28.111 E0.00944
G1 X62.101 Y-25.982 E0.09444
G1 X62.151 Y-25.827 E0.00512
G1 X62.218 Y-25.492 E0.01072
G1 X62.23 Y-25.32 E0.00541
G1 X59.309 Y-28.24 E0.12955
G1 X58.914 Y-28.272 E0.01243
G1 X58.744 Y-28.272 E0.00533
G1 X62.257 Y-24.759 E0.15582
G1 X62.257 Y-24.226 E0.01672
G1 X58.211 Y-28.272 E0.17947
G1 X57.678 Y-28.272 E0.01673
G1 X62.257 Y-23.693 E0.20312
G1 X62.256 Y-23.16 E0.01672
G1 X57.145 Y-28.272 E0.22676
G1 X56.611 Y-28.272 E0.01673
G1 X62.256 Y-22.627 E0.25041
G1 X62.256 Y-22.094 E0.01672
G1 X56.078 Y-28.272 E0.27405
G1 X55.545 Y-28.272 E0.01673
G1 X62.256 Y-21.561 E0.2977
G1 X62.256 Y-21.028 E0.01672
G1 X55.012 Y-28.272 E0.32135
G1 X54.478 Y-28.272 E0.01673
G1 X62.256 Y-20.494 E0.34499
G1 X62.255 Y-19.961 E0.01672
G1 X53.945 Y-28.272 E0.36864
G1 X53.412 Y-28.272 E0.01673
G1 X62.255 Y-19.428 E0.39228
G1 X62.255 Y-18.895 E0.01672
G1 X52.879 Y-28.272 E0.41593
G1 X52.345 Y-28.271 E0.01673
G1 X62.255 Y-18.362 E0.43958
G1 X62.255 Y-17.829 E0.01672
G1 X51.812 Y-28.271 E0.46322
G1 X51.279 Y-28.271 E0.01673
G1 X62.255 Y-17.296 E0.48687
G1 X62.254 Y-16.763 E0.01672
G1 X50.746 Y-28.271 E0.51051
G1 X50.213 Y-28.271 E0.01673
G1 X62.254 Y-16.23 E0.53416
G1 X62.254 Y-15.697 E0.01672
G1 X49.679 Y-28.271 E0.55781
G1 X49.146 Y-28.271 E0.01673
G1 X62.254 Y-15.163 E0.58145
G1 X62.254 Y-14.63 E0.01672
G1 X48.613 Y-28.271 E0.6051
G1 X48.08 Y-28.271 E0.01673
G1 X62.253 Y-14.097 E0.62875
G1 X62.253 Y-13.564 E0.01672
G1 X47.546 Y-28.271 E0.65239
G1 X47.013 Y-28.271 E0.01673
G1 X62.253 Y-13.031 E0.67604
G1 X62.253 Y-12.498 E0.01672
G1 X46.48 Y-28.271 E0.69968
G1 X45.947 Y-28.271 E0.01673
G1 X62.253 Y-11.965 E0.72333
G1 X62.253 Y-11.432 E0.01672
G1 X45.413 Y-28.271 E0.74698
G1 X44.88 Y-28.271 E0.01673
G1 X62.252 Y-10.899 E0.77062
G1 X62.252 Y-10.366 E0.01672
G1 X44.347 Y-28.271 E0.79427
G1 X43.814 Y-28.271 E0.01673
G1 X62.252 Y-9.833 E0.81791
G1 X62.252 Y-9.299 E0.01672
G1 X43.281 Y-28.271 E0.84156
G1 X42.747 Y-28.271 E0.01673
G1 X62.252 Y-8.766 E0.86521
G1 X62.252 Y-8.233 E0.01672
G1 X42.214 Y-28.271 E0.88885
G1 X41.681 Y-28.271 E0.01673
G1 X62.251 Y-7.7 E0.9125
G1 X62.251 Y-7.167 E0.01672
G1 X41.148 Y-28.271 E0.93614
G1 X40.614 Y-28.271 E0.01673
G1 X62.251 Y-6.634 E0.95979
G1 X62.251 Y-6.101 E0.01672
G1 X40.081 Y-28.271 E0.98344
G1 X39.548 Y-28.271 E0.01673
G1 X62.251 Y-5.568 E1.00708
G1 X62.25 Y-5.035 E0.01672
G1 X39.015 Y-28.27 E1.03073
G1 X38.481 Y-28.27 E0.01673
G1 X62.25 Y-4.502 E1.05437
G1 X62.25 Y-3.969 E0.01672
G1 X37.948 Y-28.27 E1.07802
G1 X37.415 Y-28.27 E0.01673
G1 X62.25 Y-3.435 E1.10167
G1 X62.25 Y-2.902 E0.01672
G1 X36.882 Y-28.27 E1.12531
G1 X36.349 Y-28.27 E0.01673
G1 X62.25 Y-2.369 E1.14896
G1 X62.249 Y-1.836 E0.01672
G1 X35.815 Y-28.27 E1.17261
G1 X35.282 Y-28.27 E0.01673
G1 X62.249 Y-1.303 E1.19625
G1 X62.249 Y-0.77 E0.01672
G1 X34.749 Y-28.27 E1.2199
G1 X34.216 Y-28.27 E0.01673
G1 X62.249 Y-0.237 E1.24354
G1 X62.249 Y0.296 E0.01672
G1 X33.682 Y-28.27 E1.26719
G1 X33.149 Y-28.27 E0.01673
G1 X62.249 Y0.829 E1.29084
G1 X62.248 Y1.362 E0.01672
G1 X32.616 Y-28.27 E1.31448
G1 X32.083 Y-28.27 E0.01673
G1 X62.248 Y1.896 E1.33813
G1 X62.248 Y2.429 E0.01672
G1 X31.549 Y-28.27 E1.36177
G1 X31.016 Y-28.27 E0.01673
G1 X62.248 Y2.962 E1.38542
G1 X62.248 Y3.495 E0.01672
G1 X30.483 Y-28.27 E1.40907
G1 X29.95 Y-28.27 E0.01673
G1 X62.247 Y4.028 E1.43271
G1 X62.247 Y4.561 E0.01672
G1 X29.417 Y-28.27 E1.45636
G1 X28.883 Y-28.27 E0.01673
G1 X62.247 Y5.094 E1.48
G1 X62.247 Y5.627 E0.01672
G1 X28.35 Y-28.27 E1.50365
G1 X27.817 Y-28.27 E0.01673
G1 X62.247 Y6.16 E1.5273
G1 X62.247 Y6.693 E0.01672
G1 X27.284 Y-28.27 E1.55094
G1 X26.75 Y-28.27 E0.01673
G1 X62.246 Y7.226 E1.57459
G1 X62.246 Y7.76 E0.01672
G1 X26.217 Y-28.27 E1.59824
G1 X25.684 Y-28.27 E0.01673
G1 X62.246 Y8.293 E1.62188
G1 X62.246 Y8.826 E0.01672
G1 X25.151 Y-28.269 E1.64553
G1 X24.617 Y-28.269 E0.01673
G1 X62.246 Y9.359 E1.66917
G1 X62.246 Y9.892 E0.01672
G1 X24.084 Y-28.269 E1.69282
G1 X23.551 Y-28.269 E0.01673
G1 X62.245 Y10.425 E1.71647
G1 X62.245 Y10.958 E0.01672
G1 X23.018 Y-28.269 E1.74011
G1 X22.484 Y-28.269 E0.01673
G1 X62.245 Y11.491 E1.76376
G1 X62.245 Y12.024 E0.01672
G1 X21.951 Y-28.269 E1.7874
G1 X21.418 Y-28.269 E0.01673
G1 X62.245 Y12.557 E1.81105
G1 X62.244 Y13.09 E0.01672
G1 X20.885 Y-28.269 E1.8347
G1 X20.352 Y-28.269 E0.01673
G1 X62.244 Y13.624 E1.85834
G1 X62.244 Y14.157 E0.01672
G1 X19.818 Y-28.269 E1.88199
G1 X19.285 Y-28.269 E0.01673
G1 X62.244 Y14.69 E1.90563
G1 X62.244 Y15.223 E0.01672
G1 X18.752 Y-28.269 E1.92928
G1 X18.219 Y-28.269 E0.01673
G1 X62.244 Y15.756 E1.95293
G1 X62.243 Y16.289 E0.01672
G1 X17.685 Y-28.269 E1.97657
G1 X17.152 Y-28.269 E0.01673
G1 X62.243 Y16.822 E2.00022
G1 X62.243 Y17.355 E0.01672
G1 X16.619 Y-28.269 E2.02386
G1 X16.086 Y-28.269 E0.01673
G1 X62.243 Y17.888 E2.04751
G1 X62.243 Y18.189 E0.00942
G1 X62.209 Y18.388 E0.00634
G1 X15.552 Y-28.269 E2.06968
G1 X15.019 Y-28.269 E0.01673
G1 X62.118 Y18.83 E2.08928
G1 X62.017 Y19.152 E0.01058
G1 X61.982 Y19.227 E0.0026
G1 X14.486 Y-28.269 E2.10688
G1 X13.953 Y-28.269 E0.01673
G1 X61.806 Y19.584 E2.12273
G1 X61.592 Y19.904 E0.01206
G1 X13.42 Y-28.269 E2.13691
G1 X12.886 Y-28.269 E0.01673
G1 X61.345 Y20.19 E2.1496
G1 X61.297 Y20.245 E0.00228
G1 X61.066 Y20.444 E0.00958
G1 X12.353 Y-28.269 E2.16088
G1 X11.82 Y-28.269 E0.01673
G1 X60.755 Y20.667 E2.17074
G1 X60.646 Y20.74 E0.00413
G1 X60.409 Y20.854 E0.00824
G1 X11.287 Y-28.268 E2.17905
G1 X10.753 Y-28.268 E0.01673
G1 X60.02 Y20.998 E2.18544
G1 X59.606 Y21.118 E0.01351
G1 X10.22 Y-28.268 E2.19074
G1 X9.687 Y-28.268 E0.01673
G1 X59.125 Y21.17 E2.19304
G1 X58.916 Y21.187 E0.00657
G1 X58.609 Y21.187 E0.00965
G1 X9.154 Y-28.268 E2.1938
G1 X8.62 Y-28.268 E0.01673
G1 X58.075 Y21.187 E2.19379
G1 X57.542 Y21.187 E0.01673
G1 X8.087 Y-28.268 E2.19379
G1 X7.554 Y-28.268 E0.01673
G1 X57.009 Y21.187 E2.19379
G1 X56.475 Y21.187 E0.01673
G1 X7.021 Y-28.268 E2.19379
G1 X6.488 Y-28.268 E0.01673
G1 X55.942 Y21.187 E2.19379
G1 X55.409 Y21.187 E0.01673
G1 X5.954 Y-28.268 E2.19378
G1 X5.421 Y-28.268 E0.01673
G1 X54.876 Y21.187 E2.19378
G1 X54.342 Y21.187 E0.01673
G1 X4.888 Y-28.268 E2.19378
G1 X4.355 Y-28.268 E0.01673
G1 X53.809 Y21.187 E2.19378
G1 X53.276 Y21.187 E0.01673
G1 X3.821 Y-28.268 E2.19378
G1 X3.288 Y-28.268 E0.01673
G1 X52.743 Y21.187 E2.19378
G1 X52.209 Y21.187 E0.01673
G1 X2.755 Y-28.268 E2.19377
G1 X2.222 Y-28.268 E0.01673
G1 X51.676 Y21.187 E2.19377
G1 X51.143 Y21.187 E0.01673
G1 X1.688 Y-28.268 E2.19377
G1 X1.155 Y-28.268 E0.01673
G1 X50.61 Y21.187 E2.19377
G1 X50.076 Y21.187 E0.01673
G1 X0.622 Y-28.268 E2.19377
G1 X0.089 Y-28.268 E0.01673
G1 X49.543 Y21.187 E2.19376
G1 X49.01 Y21.187 E0.01673
G1 X-0.444 Y-28.268 E2.19376
G1 X-0.978 Y-28.268 E0.01673
G1 X48.476 Y21.187 E2.19376
G1 X47.943 Y21.187 E0.01673
G1 X-1.511 Y-28.268 E2.19376
G1 X-2.044 Y-28.268 E0.01673
G1 X47.41 Y21.187 E2.19376
G1 X46.877 Y21.187 E0.01673
G1 X-2.577 Y-28.267 E2.19376
G1 X-3.111 Y-28.267 E0.01673
G1 X46.343 Y21.187 E2.19375
G1 X45.81 Y21.187 E0.01673
G1 X-3.644 Y-28.267 E2.19375
G1 X-4.177 Y-28.267 E0.01673
G1 X45.277 Y21.187 E2.19375
G1 X44.744 Y21.187 E0.01673
G1 X-4.71 Y-28.267 E2.19375
G1 X-5.244 Y-28.267 E0.01673
G1 X44.21 Y21.187 E2.19375
G1 X43.677 Y21.187 E0.01673
G1 X-5.777 Y-28.267 E2.19375
G1 X-6.31 Y-28.267 E0.01673
G1 X43.144 Y21.187 E2.19374
G1 X42.61 Y21.187 E0.01673
G1 X-6.843 Y-28.267 E2.19374
G1 X-7.376 Y-28.267 E0.01673
G1 X42.077 Y21.187 E2.19374
G1 X41.544 Y21.187 E0.01673
G1 X-7.91 Y-28.267 E2.19374
G1 X-8.443 Y-28.267 E0.01673
G1 X41.011 Y21.186 E2.19374
G1 X40.477 Y21.186 E0.01673
G1 X-8.976 Y-28.267 E2.19373
G1 X-9.509 Y-28.267 E0.01673
G1 X39.944 Y21.186 E2.19373
G1 X39.411 Y21.186 E0.01673
G1 X-10.043 Y-28.267 E2.19373
G1 X-10.576 Y-28.267 E0.01673
G1 X38.878 Y21.186 E2.19373
G1 X38.344 Y21.186 E0.01673
G1 X-11.109 Y-28.267 E2.19373
G1 X-11.642 Y-28.267 E0.01673
G1 X37.811 Y21.186 E2.19373
