; generated by SuperSlicer 2.4 on 2023-03-01 at 05:53:59 UTC


;
;

;
;
; 

; external perimeters extrusion width = 0.42mm
; perimeters extrusion width = 0.46mm
; infill extrusion width = 0.44mm
; solid infill extrusion width = 0.46mm
; top infill extrusion width = 0.44mm
; first layer extrusion width = 0.56mm

; object:{"name":"Bed_Level_Test","id":"Bed_Level_Test.stl id:0 copy 0","object_center":[119.237542,117.277483,0.000000],"boundingbox_center":[119.237542,117.277483,0.075000],"boundingbox_size":[210.000000,210.000000,0.150000]}
; plater:{"center":[119.237542,117.277483,0.000000],"boundingbox_center":[119.237542,117.277483,0.075000],"boundingbox_size":[210.000000,210.000000,0.150000]}

;TYPE:Custom
START_PRINT
M107
G21 ; set units to millimeters
G90 ; use absolute coordinates
M82 ; use absolute distances for extrusion
G92 E0
; Filament gcode
;_TOOLCHANGE 0
M109 S210 ; set temperature and wait for it to be reached
M190 S60 ; set bed temperature and wait for it to be reached
M107
;LAYER_CHANGE
;Z:0.2
;HEIGHT:0.2
;BEFORE_LAYER_CHANGE
;0.2


G1 E-5 F3600
G1 Z0.2 F9000
;AFTER_LAYER_CHANGE
;0.2
G92 E0
M204 S500
G1 X11.57 Y10.774
G1 E5 F2400
;TYPE:Skirt
;WIDTH:0.48
G1 F1200
G1 X11.513 Y10.835 E5.00304
G1 X11.119 Y12.377 E5.0609
G1 X11.119 Y222.177 E12.68573
G1 X11.63 Y223.917 E12.75162
G1 X12.795 Y225.002 E12.80949
G1 X14.338 Y225.396 E12.86735
G1 X224.138 Y225.396 E20.49218
G1 X225.877 Y224.885 E20.55808
G1 X226.962 Y223.72 E20.61594
G1 X227.356 Y222.177 E20.6738
G1 X227.356 Y12.377 E28.29863
G1 X226.845 Y10.638 E28.36453
G1 X225.68 Y9.553 E28.42239
G1 X224.138 Y9.159 E28.48025
G1 X14.338 Y9.159 E36.10508
G1 X12.598 Y9.67 E36.17098
G1 X11.611 Y10.73 E36.22362
G92 E0
G1 E-3.5 F3600
;WIPE_START
G1 F7200
G1 X11.513 Y10.835 E-3.56818
G1 X11.119 Y12.377 E-4.32444
G1 X11.119 Y13.642 E-4.925
;WIPE_END
G1 E-5 F3600
; printing object Bed_Level_Test.stl id:0 copy 0
; acceleration to travel
M204 S1500
G1 X97.677 Y105.995 F9000
; decel to extrusion
M204 S500
G1 X108.251 Y117.277
; end travel
G1 E0 F2400
;TYPE:Thin wall
;WIDTH:0.016744
G1 F1200
G1 X108.171 Y117.287
;WIDTH:0.150692
G1 X108.031 Y117.28 E0.0013
;WIDTH:0.265384
G1 X107.982 Y117.277 E0.00223
G1 X107.907 Y117.277 E0.00365
;WIDTH:0.36
G1 X107.832 Y117.277 E0.00565
G1 X25.515 Y117.277 E2.20535
;WIDTH:0.205065
G1 X25.375 Y117.277 E2.20728
;WIDTH:0.022785
G1 X25.515 Y117.277 E2.2075
;WIDTH:0.04
G1 X107.832 Y117.277 E2.45191
G1 X107.907 Y117.277 E2.45213
;WIDTH:0.029487
G1 X107.982 Y117.277 E2.45229
G1 X108.031 Y117.28 E2.45239
;WIDTH:0.016744
G1 X108.171 Y117.287 E2.45254
;WIDTH:0.167435
G1 X108.251 Y117.277
;TYPE:External perimeter
;WIDTH:0.564
G1 X108.336 Y116.669 E2.47915
G1 X108.369 Y115.684 E2.52184
G1 X108.37 Y106.409 E2.9237
G1 X117.645 Y106.409 E3.32557
G1 X118.629 Y106.376 E3.36825
G1 X119.246 Y106.293 E3.39521
G1 X119.846 Y106.376 E3.42147
G1 X120.831 Y106.409 E3.46415
G1 X130.106 Y106.409 E3.86602
G1 X130.106 Y115.684 E4.26788
G1 X130.139 Y116.669 E4.31057
G1 X130.224 Y117.277 E4.33718
;TYPE:Thin wall
;WIDTH:0.016744
G1 X130.304 Y117.268
;WIDTH:0.150692
G1 X130.444 Y117.275 E4.33849
;WIDTH:0.265384
G1 X130.493 Y117.278 E4.33942
G1 X130.568 Y117.278 E4.34083
;WIDTH:0.36
G1 X130.643 Y117.277 E4.34284
G1 X212.838 Y117.277 E6.53926
G1 X212.95 Y117.277 E6.54226
G1 X212.988 Y117.427 E6.54639
G1 X212.988 Y199.622 E8.74281
G1 X212.987 Y199.772 E8.74683
G1 X212.99 Y199.821 E8.74814
;WIDTH:0.198
G1 X212.997 Y199.961 E8.74999
;WIDTH:0.022
G1 X212.99 Y199.821 E8.7502
;WIDTH:0.04
G1 X212.987 Y199.772 E8.75035
G1 X212.988 Y199.622 E8.75079
G1 X212.988 Y117.427 E8.99484
G1 X212.95 Y117.277 E8.9953
G1 X212.838 Y117.277 E8.99563
G1 X130.643 Y117.277 E9.23968
G1 X130.568 Y117.278 E9.2399
;WIDTH:0.029487
G1 X130.493 Y117.278 E9.24006
G1 X130.444 Y117.275 E9.24016
;WIDTH:0.016744
G1 X130.304 Y117.268 E9.24031
;WIDTH:0.167435
G1 X130.224 Y117.277
;TYPE:External perimeter
;WIDTH:0.564
G1 X130.139 Y117.886 E9.26692
G1 X130.106 Y118.871 E9.30961
G1 X130.106 Y128.145 E9.71147
G1 X120.831 Y128.146 E10.11334
G1 X119.846 Y128.179 E10.15602
G1 X119.238 Y128.264 E10.18264
;TYPE:Thin wall
;WIDTH:0.016744
G1 X119.247 Y128.344
;WIDTH:0.150692
G1 X119.24 Y128.484 E10.18394
;WIDTH:0.265384
G1 X119.237 Y128.533 E10.18487
G1 X119.237 Y128.608 E10.18628
;WIDTH:0.36
G1 X119.238 Y128.683 E10.18829
G1 X119.238 Y211 E12.38798
;WIDTH:0.205065
G1 X119.238 Y211.14 E12.38992
;WIDTH:0.022785
G1 X119.238 Y211 E12.39014
;WIDTH:0.04
G1 X119.238 Y128.683 E12.63455
G1 X119.237 Y128.608 E12.63477
;WIDTH:0.029487
G1 X119.237 Y128.533 E12.63493
G1 X119.24 Y128.484 E12.63503
;WIDTH:0.016744
G1 X119.247 Y128.344 E12.63517
;WIDTH:0.167435
G1 X119.238 Y128.264
;TYPE:External perimeter
;WIDTH:0.564
G1 X118.629 Y128.179 E12.66179
G1 X117.645 Y128.146 E12.70447
G1 X108.37 Y128.145 E13.10634
G1 X108.369 Y118.871 E13.5082
G1 X108.336 Y117.886 E13.55089
G1 X108.26 Y117.337 E13.5749
;WIPE_START
G1 X108.202 Y116.881 F9000
;WIPE_END
G92 E0
G1 E-3.5 F3600
;WIPE_START
G1 F7200
G1 X108.569 Y115.688 E-4.0927
G1 X108.569 Y113.936 E-4.925
;WIPE_END
G1 E-5 F3600
; acceleration to travel
M204 S1500
G1 X34.4 Y43.16 F9000
; decel to extrusion
M204 S500
G1 X25.339 Y34.513
; end travel
G1 E0 F2400
;TYPE:Thin wall
;WIDTH:0.022
G1 F1200
G1 X25.347 Y34.594
;WIDTH:0.198
G1 X25.34 Y34.733 E0.00186
;WIDTH:0.36
G1 X25.337 Y34.783 E0.00317
G1 X25.338 Y34.933 E0.00718
G1 X25.338 Y117.128 E2.20361
G1 X25.375 Y117.277 E2.20774
G1 X25.338 Y117.427 E2.21187
G1 X25.338 Y199.622 E4.4083
G1 X25.338 Y199.773 E4.41231
G1 X25.335 Y199.822 E4.41363
;WIDTH:0.198
G1 X25.327 Y199.962 E4.41549
;WIDTH:0.022
G1 X25.335 Y199.822 E4.41569
;WIDTH:0.04
G1 X25.338 Y199.773 E4.41584
G1 X25.338 Y199.622 E4.41629
G1 X25.338 Y117.427 E4.66033
G1 X25.375 Y117.277 E4.66079
G1 X25.338 Y117.128 E4.66125
G1 X25.338 Y34.933 E4.9053
G1 X25.337 Y34.783 E4.90574
G1 X25.34 Y34.733 E4.90589
;WIDTH:0.022
G1 X25.347 Y34.594 E4.9061
;WIDTH:0.22
G1 X25.339 Y34.513
;TYPE:External perimeter
;WIDTH:0.564
G1 X24.713 Y34.429 E4.93343
G1 X23.699 Y34.396 E4.9774
G1 X14.62 Y34.395 E5.37079
G1 X14.62 Y12.659 E6.31257
G1 X36.356 Y12.659 E7.25435
G1 X36.356 Y21.572 E7.6405
G1 X36.361 Y22.558 E7.68323
G1 X36.39 Y23.065 E7.70525
G1 X36.473 Y23.677 E7.73197
;TYPE:Thin wall
;WIDTH:0.022
G1 X36.554 Y23.668
;WIDTH:0.198
G1 X36.693 Y23.675 E7.73383
;WIDTH:0.36
G1 X36.743 Y23.678 E7.73515
G1 X36.893 Y23.677 E7.73916
G1 X119.088 Y23.677 E9.93558
G1 X119.102 Y23.681 E9.93597
;WIDTH:0.198
G1 X119.238 Y23.715 E9.93783
;WIDTH:0.022
G1 X119.102 Y23.681 E9.93803
;WIDTH:0.04
G1 X119.088 Y23.677 E9.93808
G1 X36.893 Y23.677 E10.18212
G1 X36.743 Y23.678 E10.18257
G1 X36.693 Y23.675 E10.18272
;WIDTH:0.022
G1 X36.554 Y23.668 E10.18292
;WIDTH:0.22
G1 X36.473 Y23.677
;TYPE:External perimeter
;WIDTH:0.564
G1 X36.389 Y24.302 E10.21026
G1 X36.356 Y25.316 E10.25423
G1 X36.356 Y34.395 E10.64762
G1 X26.95 Y34.396 E11.05514
G1 X25.953 Y34.429 E11.09838
G1 X25.398 Y34.505 E11.12264
;WIPE_START
G1 X24.941 Y34.561 F9000
;WIPE_END
G92 E0
G1 E-3.5 F3600
;WIPE_START
G1 F7200
G1 X23.702 Y34.196 E-4.11349
G1 X21.994 Y34.196 E-4.925
;WIPE_END
G1 E-5 F3600
; acceleration to travel
M204 S1500
G1 X34.792 Y182.091 F9000
; decel to extrusion
M204 S500
G1 X36.356 Y200.159
; end travel
G1 E0 F2400
G1 F1200
G1 X36.356 Y209.565 E0.40751
G1 X36.389 Y210.562 E0.45075
G1 X36.473 Y211.177 E0.47762
;TYPE:Thin wall
;WIDTH:0.022
G1 X36.554 Y211.168
;WIDTH:0.198
G1 X36.693 Y211.175 E0.47947
;WIDTH:0.36
G1 X36.743 Y211.178 E0.48079
G1 X36.893 Y211.177 E0.4848
G1 X119.088 Y211.177 E2.68123
G1 X119.238 Y211.14 E2.68536
G1 X119.388 Y211.178 E2.68949
G1 X201.583 Y211.177 E4.88592
G1 X201.733 Y211.177 E4.88993
G1 X201.782 Y211.18 E4.89125
;WIDTH:0.198
G1 X201.922 Y211.188 E4.8931
;WIDTH:0.022
G1 X201.782 Y211.18 E4.89331
;WIDTH:0.04
G1 X201.733 Y211.177 E4.89346
G1 X201.583 Y211.177 E4.8939
G1 X119.388 Y211.178 E5.13795
G1 X119.238 Y211.14 E5.13841
G1 X119.088 Y211.177 E5.13887
G1 X36.893 Y211.177 E5.38291
G1 X36.743 Y211.178 E5.38336
G1 X36.693 Y211.175 E5.38351
;WIDTH:0.022
G1 X36.554 Y211.168 E5.38371
;WIDTH:0.22
G1 X36.473 Y211.177
;TYPE:External perimeter
;WIDTH:0.564
G1 X36.389 Y211.802 E5.41105
G1 X36.356 Y212.816 E5.45502
G1 X36.356 Y221.895 E5.84841
G1 X14.62 Y221.895 E6.79019
G1 X14.62 Y200.159 E7.73196
G1 X23.699 Y200.159 E8.12536
G1 X24.713 Y200.126 E8.16933
G1 X25.339 Y200.042 E8.19666
G1 X25.953 Y200.126 E8.22353
G1 X26.95 Y200.159 E8.26676
G1 X36.296 Y200.159 E8.67168
;WIPE_START
G1 X36.156 Y200.506 F9000
;WIPE_END
G92 E0
G1 E-3.5 F3600
;WIPE_START
G1 F7200
G1 X36.156 Y203.506 E-4.925
;WIPE_END
G1 E-5 F3600
; acceleration to travel
M204 S1500
G1 X184.051 Y200.524 F9000
; decel to extrusion
M204 S500
G1 X202.12 Y200.159
; end travel
G1 E0 F2400
G1 F1200
G1 X211.395 Y200.159 E0.40187
G1 X212.379 Y200.126 E0.44455
G1 X212.988 Y200.041 E0.47116
G1 X213.596 Y200.126 E0.49778
G1 X214.581 Y200.159 E0.54046
G1 X223.856 Y200.159 E0.94233
G1 X223.856 Y221.895 E1.88411
G1 X202.12 Y221.895 E2.82588
G1 X202.119 Y212.816 E3.21928
G1 X202.086 Y211.802 E3.26325
G1 X202.002 Y211.177 E3.29058
G1 X202.086 Y210.562 E3.31744
G1 X202.119 Y209.565 E3.36068
G1 X202.12 Y200.219 E3.7656
;WIPE_START
G1 X202.466 Y200.359 F9000
;WIPE_END
G92 E0
G1 E-3.5 F3600
;WIPE_START
G1 F7200
G1 X205.466 Y200.359 E-4.925
;WIPE_END
G1 E-5 F3600
; acceleration to travel
M204 S1500
G1 X128.625 Y42.946 F9000
; decel to extrusion
M204 S500
G1 X119.238 Y23.715
; end travel
G1 E0 F2400
;TYPE:Thin wall
;WIDTH:0.36
G1 F1200
G1 X119.238 Y23.827 E0.00301
G1 X119.238 Y105.872 E2.19542
G1 X119.238 Y105.947 E2.19742
;WIDTH:0.265465
G1 X119.235 Y106.071 E2.19977
;WIDTH:0.150692
G1 X119.228 Y106.211 E2.20107
;WIDTH:0.016744
G1 X119.235 Y106.071 E2.20122
;WIDTH:0.029496
G1 X119.238 Y105.947 E2.20148
;WIDTH:0.04
G1 X119.238 Y105.872 E2.2017
G1 X119.238 Y23.827 E2.4453
G1 X119.238 Y23.715 E2.44563
G1 X119.388 Y23.677 E2.44609
G1 X201.583 Y23.677 E2.69014
G1 X201.733 Y23.677 E2.69059
G1 X201.782 Y23.68 E2.69073
;WIDTH:0.022
G1 X201.922 Y23.687 E2.69094
;WIDTH:0.22
G1 X202.002 Y23.677
;TYPE:External perimeter
;WIDTH:0.564
G1 X202.086 Y23.062 E2.7178
G1 X202.119 Y22.065 E2.76104
G1 X202.12 Y12.659 E3.16856
G1 X223.856 Y12.659 E4.11033
G1 X223.856 Y34.395 E5.05211
G1 X214.581 Y34.396 E5.45397
G1 X213.596 Y34.429 E5.49666
G1 X212.988 Y34.514 E5.52327
;TYPE:Thin wall
;WIDTH:0.022
G1 X212.997 Y34.594
;WIDTH:0.198
G1 X212.99 Y34.734 E5.52513
;WIDTH:0.36
G1 X212.987 Y34.783 E5.52644
G1 X212.988 Y34.933 E5.53045
G1 X212.988 Y117.127 E7.72687
G1 X212.95 Y117.277 E7.73101
;WIDTH:0.04
G1 X212.988 Y117.127 E7.73146
G1 X212.988 Y34.933 E7.97551
G1 X212.987 Y34.783 E7.97596
G1 X212.99 Y34.734 E7.9761
;WIDTH:0.022
G1 X212.997 Y34.594 E7.97631
;WIDTH:0.22
G1 X212.988 Y34.514
;TYPE:External perimeter
;WIDTH:0.564
G1 X212.379 Y34.429 E8.00292
G1 X211.395 Y34.396 E8.04561
G1 X202.12 Y34.395 E8.44747
G1 X202.119 Y25.316 E8.84087
G1 X202.086 Y24.302 E8.88484
G1 X202.002 Y23.677 E8.91217
;TYPE:Thin wall
;WIDTH:0.022
G1 X201.922 Y23.687
;WIDTH:0.198
G1 X201.782 Y23.68 E8.91403
;WIDTH:0.36
G1 X201.733 Y23.677 E8.91535
G1 X201.583 Y23.677 E8.91936
G1 X119.388 Y23.677 E11.11578
G1 X119.296 Y23.7 E11.11831
G92 E0
G1 E-3.5 F3600
;WIPE_START
G1 F7200
G1 X119.238 Y23.827 E-3.56639
G1 X119.238 Y26.688 E-4.925
;WIPE_END
G1 E-5 F3600
; acceleration to travel
M204 S1500
G1 X127.844 Y97.869 F9000
; decel to extrusion
M204 S500
G1 X128.896 Y106.566
; end travel
G1 E0 F2400
;TYPE:Solid infill
;WIDTH:0.56085
G1 F1200
G1 X129.725 Y107.395 E0.05053
G1 X129.725 Y108.132 E0.08229
G1 X128.383 Y106.79 E0.16407
G1 X127.646 Y106.79 E0.19582
G1 X129.725 Y108.869 E0.32252
G1 X129.725 Y109.606 E0.35427
G1 X126.909 Y106.79 E0.52586
G1 X126.172 Y106.79 E0.55762
G1 X129.725 Y110.343 E0.77412
G1 X129.725 Y111.08 E0.80587
G1 X125.435 Y106.79 E1.06728
G1 X124.698 Y106.79 E1.09903
G1 X129.725 Y111.817 E1.40535
G1 X129.725 Y112.554 E1.4371
G1 X123.961 Y106.79 E1.78832
G1 X123.224 Y106.79 E1.82007
G1 X129.725 Y113.291 E2.21619
G1 X129.725 Y114.028 E2.24795
G1 X122.487 Y106.79 E2.68898
G1 X121.751 Y106.79 E2.72073
G1 X129.725 Y114.764 E3.20666
G1 X129.726 Y115.501 E3.23842
G1 X121.014 Y106.79 E3.76926
G1 X120.824 Y106.79 E3.77742
G1 X120.257 Y106.77 E3.80185
G1 X129.745 Y116.258 E4.37995
G1 X129.76 Y116.702 E4.39909
G1 X129.809 Y117.059 E4.41464
G1 X119.456 Y106.706 E5.04551
G1 X119.245 Y106.676 E5.05468
G1 X118.756 Y106.742 E5.07595
G1 X129.773 Y117.76 E5.74726
G1 X129.76 Y117.853 E5.75134
G1 X129.739 Y118.463 E5.77761
G1 X118.052 Y106.776 E6.48973
G1 X117.651 Y106.79 E6.50703
G1 X117.329 Y106.79 E6.5209
G1 X129.726 Y119.186 E7.27625
G1 X129.725 Y119.923 E7.308
G1 X116.592 Y106.79 E8.10826
G1 X115.855 Y106.79 E8.14001
G1 X129.725 Y120.66 E8.98516
G1 X129.725 Y121.397 E9.01691
G1 X115.118 Y106.79 E9.90696
G1 X114.381 Y106.79 E9.93871
G1 X129.725 Y122.134 E10.87366
G1 X129.725 Y122.87 E10.9054
G1 X113.645 Y106.79 E11.88525
G1 X112.908 Y106.79 E11.917
G1 X129.725 Y123.607 E12.94175
G1 X129.725 Y124.344 E12.9735
G1 X112.171 Y106.79 E14.04315
G1 X111.434 Y106.79 E14.0749
G1 X129.725 Y125.081 E15.18944
G1 X129.725 Y125.818 E15.22119
G1 X110.697 Y106.79 E16.38064
G1 X109.96 Y106.79 E16.41239
G1 X129.725 Y126.555 E17.61673
G1 X129.725 Y127.292 E17.64848
G1 X109.223 Y106.79 E18.89772
G1 X108.75 Y106.79 E18.91812
G1 X108.75 Y107.053 E18.92947
G1 X129.462 Y127.765 E20.1915
G1 X128.725 Y127.765 E20.22325
G1 X108.75 Y107.79 E21.44037
G1 X108.75 Y108.527 E21.47212
G1 X127.988 Y127.765 E22.64435
G1 X127.251 Y127.765 E22.6761
G1 X108.75 Y109.264 E23.80343
G1 X108.75 Y110.001 E23.83518
G1 X126.514 Y127.765 E24.9176
G1 X125.777 Y127.765 E24.94935
G1 X108.75 Y110.738 E25.98688
G1 X108.75 Y111.475 E26.01863
G1 X125.04 Y127.765 E27.01126
G1 X124.303 Y127.765 E27.04301
G1 X108.75 Y112.212 E27.99074
G1 X108.75 Y112.949 E28.02249
G1 X123.567 Y127.765 E28.92532
G1 X122.83 Y127.765 E28.95707
G1 X108.75 Y113.685 E29.815
G1 X108.75 Y114.422 E29.84675
G1 X122.093 Y127.765 E30.65979
G1 X121.356 Y127.765 E30.69154
G1 X108.75 Y115.159 E31.45967
G1 X108.75 Y115.691 E31.48258
G1 X108.743 Y115.889 E31.49113
G1 X120.626 Y127.772 E32.21519
G1 X119.913 Y127.796 E32.24591
G1 X108.719 Y116.602 E32.92802
G1 X108.715 Y116.702 E32.93232
G1 X108.638 Y117.258 E32.95654
G1 X119.257 Y127.877 E33.60355
G1 X119.238 Y127.88 E33.60438
G1 X118.662 Y127.8 E33.62942
G1 X118.435 Y127.792 E33.63921
G1 X108.723 Y118.08 E34.23098
G1 X108.749 Y118.843 E34.26387
G1 X117.672 Y127.766 E34.80758
G1 X117.651 Y127.765 E34.80849
G1 X116.934 Y127.765 E34.83937
G1 X108.75 Y119.581 E35.33809
G1 X108.75 Y120.318 E35.36984
G1 X116.197 Y127.765 E35.82365
G1 X115.46 Y127.765 E35.8554
G1 X108.75 Y121.055 E36.26431
G1 X108.75 Y121.792 E36.29606
G1 X114.724 Y127.765 E36.66006
G1 X113.987 Y127.765 E36.69182
G1 X108.75 Y122.528 E37.01091
G1 X108.75 Y123.265 E37.04267
G1 X113.25 Y127.765 E37.31686
G1 X112.513 Y127.765 E37.34861
G1 X108.75 Y124.002 E37.57789
G1 X108.75 Y124.739 E37.60965
G1 X111.776 Y127.765 E37.79403
G1 X111.039 Y127.765 E37.82578
G1 X108.75 Y125.476 E37.96525
G1 X108.75 Y126.213 E37.997
G1 X110.302 Y127.765 E38.09157
G1 X109.565 Y127.765 E38.12333
G1 X108.75 Y126.95 E38.17299
G1 X108.75 Y127.687 E38.20474
G1 X109.052 Y127.989 E38.22315
G92 E0
G1 E-3.5 F3600
;WIPE_START
G1 F7200
G1 X108.75 Y127.687 E-3.70298
G1 X108.75 Y126.95 E-4.05302
G1 X109.565 Y127.765 E-4.60054
G1 X110.248 Y127.765 E-4.925
;WIPE_END
G1 E-5 F3600
; acceleration to travel
M204 S1500
G1 X44.261 Y193.356 F9000
; decel to extrusion
M204 S500
G1 X36.199 Y201.369
; end travel
G1 E0 F2400
;WIDTH:0.560884
G1 F1200
G1 X35.37 Y200.54 E0.05054
G1 X34.633 Y200.54 E0.08229
G1 X35.975 Y201.882 E0.16408
G1 X35.975 Y202.619 E0.19584
G1 X33.896 Y200.54 E0.32254
G1 X33.159 Y200.54 E0.35429
G1 X35.975 Y203.356 E0.5259
G1 X35.975 Y204.093 E0.55765
G1 X32.422 Y200.54 E0.77417
G1 X31.685 Y200.54 E0.80592
G1 X35.975 Y204.83 E1.06734
G1 X35.975 Y205.567 E1.0991
G1 X30.948 Y200.54 E1.40543
G1 X30.211 Y200.54 E1.43718
G1 X35.975 Y206.304 E1.78842
G1 X35.975 Y207.041 E1.82018
G1 X29.474 Y200.54 E2.21633
G1 X28.737 Y200.54 E2.24808
