; generated by SuperSlicer 2.4 on 2023-03-08 at 03:00:07 UTC


;
;

;
;
; 

; external perimeters extrusion width = 0.42mm
; perimeters extrusion width = 0.46mm
; infill extrusion width = 0.44mm
; solid infill extrusion width = 0.46mm
; top infill extrusion width = 0.44mm
; first layer extrusion width = 0.56mm

; object:{"name":"xyzCalibration_cube","id":"xyzCalibration_cube id:0 copy 0","object_center":[115.500000,115.500000,0.000000],"boundingbox_center":[115.500000,115.500000,10.000000],"boundingbox_size":[20.000000,20.000000,20.000000]}
; plater:{"center":[115.500000,115.500000,0.000000],"boundingbox_center":[115.500000,115.500000,10.000000],"boundingbox_size":[20.000000,20.000000,20.000000]}

;TYPE:Custom
START_PRINT
M107
G21 ; set units to millimeters
G90 ; use absolute coordinates
M82 ; use absolute distances for extrusion
G92 E0
; Filament gcode
;_TOOLCHANGE 0
M104 S210 ; set temperature
M109 S210 ; set temperature and wait for it to be reached
M190 S60 ; set bed temperature and wait for it to be reached
M107
;LAYER_CHANGE
;Z:0.2
;HEIGHT:0.2
;BEFORE_LAYER_CHANGE
;0.2


G1 E-5 F3600
G1 Z0.2 F9000
;AFTER_LAYER_CHANGE
;0.2
G92 E0
M204 S500
G1 X103.337 Y102.553
G1 E5 F2400
;TYPE:Skirt
;WIDTH:0.48
G1 F1200
G1 X102.239 Y103.848 E5.06172
G1 X101.844 Y105.5 E5.12345
G1 X101.844 Y125.5 E5.85032
G1 X102.553 Y127.663 E5.93302
G1 X103.848 Y128.761 E5.99475
G1 X105.5 Y129.156 E6.05647
G1 X125.5 Y129.156 E6.78334
G1 X127.663 Y128.447 E6.86605
G1 X128.761 Y127.152 E6.92777
G1 X129.156 Y125.5 E6.98949
G1 X129.156 Y105.5 E7.71636
G1 X128.447 Y103.337 E7.79907
G1 X127.152 Y102.239 E7.86079
G1 X125.5 Y101.844 E7.92252
G1 X105.5 Y101.844 E8.64938
G1 X103.394 Y102.534 E8.72991
G1 X103.719 Y102.836 F9000
G1 F1200
G1 X102.675 Y103.957 E8.78558
G1 X102.281 Y105.5 E8.84344
G1 X102.281 Y125.5 E9.57031
G1 X102.792 Y127.24 E9.6362
G1 X103.957 Y128.325 E9.69407
G1 X105.5 Y128.719 E9.75193
G1 X125.5 Y128.719 E10.47879
G1 X127.24 Y128.208 E10.54469
G1 X128.325 Y127.043 E10.60255
G1 X128.719 Y125.5 E10.66042
G1 X128.719 Y105.5 E11.38728
G1 X128.208 Y103.76 E11.45318
G1 X127.043 Y102.675 E11.51104
G1 X125.5 Y102.281 E11.56891
G1 X105.5 Y102.281 E12.29577
G1 X103.76 Y102.793 E12.36168
G92 E0
G1 E-3.5 F3600
;WIPE_START
G1 F7200
G1 X102.675 Y103.957 E-4.25605
G1 X102.327 Y105.322 E-4.925
;WIPE_END
G1 E-5 F3600
; printing object xyzCalibration_cube id:0 copy 0
; acceleration to travel
M204 S1500
G1 X105.959 Y106.285 F9000
; decel to extrusion
M204 S500
G1 X106.403 Y106.403
; end travel
G1 E0 F2400
;TYPE:Internal perimeter
;WIDTH:0.564
G1 F1200
G1 X124.597 Y106.403 E0.7883
G1 X124.597 Y124.597 E1.5766
G1 X106.403 Y124.597 E2.36491
G1 X106.403 Y106.463 E3.15061
G1 X105.882 Y105.882 F9000
;TYPE:External perimeter
G1 F1200
G1 X125.118 Y105.882 E3.98406
G1 X125.118 Y125.118 E4.81752
G1 X105.882 Y125.118 E5.65098
G1 X105.882 Y105.942 E6.48183
;WIPE_START
G1 X106.228 Y106.082 F9000
;WIPE_END
G92 E0
G1 E-3.5 F3600
;WIPE_START
G1 F7200
G1 X109.228 Y106.082 E-4.925
;WIPE_END
G1 E-5 F3600
; acceleration to travel
M204 S1500
G1 X121.846 Y106.507 F9000
; decel to extrusion
M204 S500
G1 X123.387 Y106.559
; end travel
G1 E0 F2400
;TYPE:Solid infill
;WIDTH:0.560446
G1 F1200
G1 X124.217 Y107.389 E0.05049
G1 X124.217 Y108.126 E0.08222
G1 X122.874 Y106.783 E0.16394
G1 X122.138 Y106.783 E0.19567
G1 X124.217 Y108.862 E0.32226
G1 X124.217 Y109.599 E0.35399
G1 X121.401 Y106.783 E0.52545
G1 X120.664 Y106.783 E0.55718
G1 X124.217 Y110.336 E0.77351
G1 X124.217 Y111.073 E0.80524
G1 X119.927 Y106.783 E1.06644
G1 X119.19 Y106.783 E1.09816
G1 X124.217 Y111.81 E1.40423
G1 X124.217 Y112.547 E1.43596
G1 X118.453 Y106.783 E1.7869
G1 X117.716 Y106.783 E1.81863
G1 X124.217 Y113.284 E2.21444
G1 X124.217 Y114.021 E2.24617
G1 X116.979 Y106.783 E2.68685
G1 X116.242 Y106.783 E2.71858
G1 X124.217 Y114.758 E3.20413
G1 X124.217 Y115.495 E3.23586
G1 X115.505 Y106.783 E3.76628
G1 X114.768 Y106.783 E3.79801
G1 X124.217 Y116.232 E4.3733
G1 X124.217 Y116.969 E4.40502
G1 X114.031 Y106.783 E5.02519
G1 X113.295 Y106.783 E5.05691
G1 X124.217 Y117.705 E5.72194
G1 X124.217 Y118.442 E5.75367
G1 X112.558 Y106.783 E6.46357
G1 X111.821 Y106.783 E6.4953
G1 X124.217 Y119.179 E7.25007
G1 X124.217 Y119.916 E7.2818
G1 X111.084 Y106.783 E8.08144
G1 X110.347 Y106.783 E8.11317
G1 X124.217 Y120.653 E8.95768
G1 X124.217 Y121.39 E8.98941
G1 X109.61 Y106.783 E9.87879
G1 X108.873 Y106.783 E9.91052
G1 X124.217 Y122.127 E10.84477
G1 X124.217 Y122.864 E10.87649
G1 X108.136 Y106.783 E11.85562
G1 X107.399 Y106.783 E11.88734
G1 X124.217 Y123.601 E12.91133
G1 X124.217 Y124.217 E12.93784
G1 X124.095 Y124.217 E12.94306
G1 X106.783 Y106.905 E13.99716
G1 X106.783 Y107.642 E14.02889
G1 X123.358 Y124.217 E15.03813
G1 X122.622 Y124.217 E15.06985
G1 X106.783 Y108.378 E16.03422
G1 X106.783 Y109.115 E16.06594
G1 X121.885 Y124.217 E16.98544
G1 X121.148 Y124.217 E17.01716
G1 X106.783 Y109.852 E17.89179
G1 X106.783 Y110.589 E17.92351
G1 X120.411 Y124.217 E18.75327
G1 X119.674 Y124.217 E18.78499
G1 X106.783 Y111.326 E19.56988
G1 X106.783 Y112.063 E19.6016
G1 X118.937 Y124.217 E20.34162
G1 X118.2 Y124.217 E20.37334
G1 X106.783 Y112.8 E21.06849
G1 X106.783 Y113.537 E21.10021
G1 X117.463 Y124.217 E21.75049
G1 X116.726 Y124.217 E21.78222
G1 X106.783 Y114.274 E22.38762
G1 X106.783 Y115.011 E22.41935
G1 X115.989 Y124.217 E22.97988
G1 X115.252 Y124.217 E23.01161
G1 X106.783 Y115.748 E23.52727
G1 X106.783 Y116.485 E23.559
G1 X114.515 Y124.217 E24.02979
G1 X113.779 Y124.217 E24.06152
G1 X106.783 Y117.221 E24.48744
G1 X106.783 Y117.958 E24.51917
G1 X113.042 Y124.217 E24.90022
G1 X112.305 Y124.217 E24.93195
G1 X106.783 Y118.695 E25.26813
G1 X106.783 Y119.432 E25.29986
G1 X111.568 Y124.217 E25.59117
G1 X110.831 Y124.217 E25.6229
G1 X106.783 Y120.169 E25.86934
G1 X106.783 Y120.906 E25.90107
G1 X110.094 Y124.217 E26.10264
G1 X109.357 Y124.217 E26.13437
G1 X106.783 Y121.643 E26.29107
G1 X106.783 Y122.38 E26.3228
G1 X108.62 Y124.217 E26.43463
G1 X107.883 Y124.217 E26.46636
G1 X106.783 Y123.117 E26.53332
G1 X106.783 Y123.854 E26.56505
G1 X107.37 Y124.441 E26.60078
M106 S84.15
;LAYER_CHANGE
;Z:0.4
;HEIGHT:0.2
;BEFORE_LAYER_CHANGE
;0.4


G92 E0
G1 E-3.5 F3600
;WIPE_START
G1 F7200
G1 X106.783 Y123.854 E-3.89424
G1 X106.783 Y123.117 E-4.24428
G1 X107.797 Y124.13 E-4.925
;WIPE_END
G1 E-5 F3600
; stop printing object xyzCalibration_cube id:0 copy 0
G1 Z0.4 F9000
;AFTER_LAYER_CHANGE
;0.4
M104 S205 ; set temperature
G92 E0
; acceleration to travel
M204 S1500
G1 X107.797 Y128.608
; decel to extrusion
M204 S500
G1 X107.797 Y129.156
; end travel
G1 E5 F2400
;TYPE:Skirt
;WIDTH:0.48
G1 F1200
G1 X125.5 Y129.156 E5.64339
G1 X127.663 Y128.447 E5.7261
G1 X128.761 Y127.152 E5.78782
G1 X129.156 Y125.5 E5.84955
G1 X129.156 Y105.5 E6.57642
G1 X128.447 Y103.337 E6.65912
G1 X127.152 Y102.239 E6.72085
G1 X125.5 Y101.844 E6.78257
G1 X105.5 Y101.844 E7.50944
G1 X103.337 Y102.553 E7.59215
G1 X102.239 Y103.848 E7.65387
G1 X101.844 Y105.5 E7.71559
G1 X101.844 Y125.5 E8.44246
G1 X102.553 Y127.663 E8.52517
G1 X103.848 Y128.761 E8.58689
G1 X105.5 Y129.156 E8.64862
G1 X107.737 Y129.156 E8.72991
G1 X107.737 Y128.719 F9000
G1 F1200
G1 X125.5 Y128.719 E9.37548
G1 X127.24 Y128.208 E9.44138
G1 X128.325 Y127.043 E9.49924
G1 X128.719 Y125.5 E9.55711
G1 X128.719 Y105.5 E10.28397
G1 X128.208 Y103.76 E10.34987
G1 X127.043 Y102.675 E10.40773
G1 X125.5 Y102.281 E10.46559
G1 X105.5 Y102.281 E11.19246
G1 X103.76 Y102.792 E11.25836
G1 X102.675 Y103.957 E11.31622
G1 X102.281 Y105.5 E11.37408
G1 X102.281 Y125.5 E12.10095
G1 X102.792 Y127.24 E12.16685
G1 X103.957 Y128.325 E12.22471
G1 X105.5 Y128.719 E12.28257
G1 X107.677 Y128.719 E12.36168
G92 E0
G1 E-3.5 F3600
;WIPE_START
G1 F7200
G1 X110.677 Y128.719 E-4.925
;WIPE_END
G1 E-5 F3600
; printing object xyzCalibration_cube id:0 copy 0
; acceleration to travel
M204 S1500
G1 X106.632 Y125.329 F9000
; decel to extrusion
M204 S500
G1 X106.109 Y124.891
; end travel
G1 E0 F2400
;TYPE:Internal perimeter
;WIDTH:0.464
G1 X106.109 Y106.109 E0.65761
G1 X124.891 Y106.109 E1.31521
G1 X124.891 Y124.891 E1.97282
G1 X106.169 Y124.891 E2.62833
G1 X105.71 Y125.29 F9000
;TYPE:External perimeter
;WIDTH:0.42
G1 F1500
G1 X105.71 Y105.71 E3.24224
G1 X125.29 Y105.71 E3.85616
G1 X125.29 Y125.29 E4.47008
G1 X105.77 Y125.29 E5.08212
;WIPE_START
G1 X105.91 Y124.944 F9000
;WIPE_END
G92 E0
G1 E-3.5 F3600
;WIPE_START
G1 F7200
G1 X105.91 Y121.944 E-4.925
;WIPE_END
G1 E-5 F3600
; acceleration to travel
M204 S1500
G1 X121.854 Y124.442 F9000
; decel to extrusion
M204 S500
G1 X123.913 Y124.765
; end travel
G1 E0 F2400
;TYPE:Solid infill
;WIDTH:0.463619
G1 X124.584 Y124.094 E0.03316
G1 X124.584 Y123.499 E0.05399
G1 X123.499 Y124.584 E0.10765
G1 X122.903 Y124.584 E0.12848
G1 X124.584 Y122.903 E0.2116
G1 X124.584 Y122.308 E0.23244
G1 X122.308 Y124.584 E0.34502
G1 X121.712 Y124.584 E0.36585
G1 X124.584 Y121.712 E0.5079
G1 X124.584 Y121.117 E0.52873
G1 X121.117 Y124.584 E0.70024
G1 X120.521 Y124.584 E0.72107
G1 X124.584 Y120.521 E0.92204
G1 X124.584 Y119.926 E0.94287
G1 X119.926 Y124.584 E1.17331
G1 X119.331 Y124.584 E1.19414
G1 X124.584 Y119.331 E1.45404
G1 X124.584 Y118.735 E1.47487
G1 X118.735 Y124.584 E1.76423
G1 X118.14 Y124.584 E1.78506
G1 X124.584 Y118.14 E2.10388
G1 X124.584 Y117.544 E2.12471
G1 X117.544 Y124.584 E2.47299
G1 X116.949 Y124.584 E2.49382
G1 X124.584 Y116.949 E2.87157
G1 X124.584 Y116.353 E2.8924
G1 X116.353 Y124.584 E3.29961
G1 X115.758 Y124.584 E3.32044
G1 X124.584 Y115.758 E3.75711
G1 X124.584 Y115.162 E3.77794
G1 X115.162 Y124.584 E4.24407
G1 X114.567 Y124.584 E4.2649
G1 X124.584 Y114.567 E4.7605
G1 X124.584 Y113.971 E4.78133
G1 X113.971 Y124.584 E5.30638
G1 X113.376 Y124.584 E5.32722
G1 X124.584 Y113.376 E5.88173
G1 X124.584 Y112.78 E5.90257
G1 X112.78 Y124.584 E6.48655
G1 X112.185 Y124.584 E6.50738
G1 X124.584 Y112.185 E7.12082
G1 X124.584 Y111.589 E7.14165
G1 X111.589 Y124.584 E7.78456
G1 X110.994 Y124.584 E7.80539
G1 X124.584 Y110.994 E8.47775
G1 X124.584 Y110.398 E8.49859
G1 X110.398 Y124.584 E9.20042
G1 X109.803 Y124.584 E9.22125
G1 X124.584 Y109.803 E9.95254
G1 X124.584 Y109.207 E9.97337
G1 X109.207 Y124.584 E10.73412
G1 X108.612 Y124.584 E10.75496
G1 X124.584 Y108.612 E11.54517
G1 X124.584 Y108.016 E11.566
G1 X108.016 Y124.584 E12.38568
G1 X107.421 Y124.584 E12.40651
G1 X124.584 Y107.421 E13.25565
G1 X124.584 Y106.825 E13.27648
G1 X106.825 Y124.584 E14.15509
G1 X106.416 Y124.584 E14.16938
G1 X106.416 Y124.397 E14.17592
G1 X124.397 Y106.416 E15.06549
G1 X123.801 Y106.416 E15.08633
G1 X106.416 Y123.801 E15.94644
G1 X106.416 Y123.206 E15.96727
G1 X123.206 Y106.416 E16.79792
G1 X122.61 Y106.416 E16.81875
G1 X106.416 Y122.61 E17.61994
G1 X106.416 Y122.015 E17.64077
G1 X122.015 Y106.416 E18.4125
G1 X121.419 Y106.416 E18.43333
G1 X106.416 Y121.419 E19.17559
G1 X106.416 Y120.824 E19.19642
G1 X120.824 Y106.416 E19.90922
G1 X120.228 Y106.416 E19.93006
G1 X106.416 Y120.228 E20.6134
G1 X106.416 Y119.633 E20.63423
G1 X119.633 Y106.416 E21.2881
G1 X119.037 Y106.416 E21.30894
G1 X106.416 Y119.037 E21.93335
G1 X106.416 Y118.442 E21.95418
G1 X118.442 Y106.416 E22.54914
G1 X117.846 Y106.416 E22.56997
G1 X106.416 Y117.846 E23.13546
G1 X106.416 Y117.251 E23.15629
G1 X117.251 Y106.416 E23.69232
G1 X116.655 Y106.416 E23.71315
G1 X106.416 Y116.655 E24.21972
G1 X106.416 Y116.06 E24.24055
G1 X116.06 Y106.416 E24.71765
G1 X115.464 Y106.416 E24.73848
G1 X106.416 Y115.464 E25.18612
G1 X106.416 Y114.869 E25.20696
G1 X114.869 Y106.416 E25.62514
G1 X114.273 Y106.416 E25.64597
G1 X106.416 Y114.273 E26.03469
G1 X106.416 Y113.678 E26.05552
G1 X113.678 Y106.416 E26.41477
G1 X113.082 Y106.416 E26.4356
G1 X106.416 Y113.082 E26.7654
G1 X106.416 Y112.487 E26.78623
G1 X112.487 Y106.416 E27.08656
G1 X111.891 Y106.416 E27.10739
G1 X106.416 Y111.891 E27.37826
G1 X106.416 Y111.296 E27.39909
G1 X111.296 Y106.416 E27.6405
G1 X110.7 Y106.416 E27.66133
G1 X106.416 Y110.7 E27.87327
G1 X106.416 Y110.105 E27.89411
G1 X110.105 Y106.416 E28.07659
G1 X109.509 Y106.416 E28.09742
G1 X106.416 Y109.509 E28.25044
G1 X106.416 Y108.914 E28.27127
G1 X108.914 Y106.416 E28.39483
G1 X108.318 Y106.416 E28.41566
G1 X106.416 Y108.318 E28.50975
G1 X106.416 Y107.723 E28.53059
G1 X107.723 Y106.416 E28.59522
G1 X107.127 Y106.416 E28.61605
G1 X106.416 Y107.127 E28.65122
G1 X106.416 Y106.532 E28.67205
G1 X106.713 Y106.235 E28.68672
M106 S170.85
;LAYER_CHANGE
;Z:0.6
;HEIGHT:0.2
;BEFORE_LAYER_CHANGE
;0.6


G92 E0
G1 E-3.5 F3600
;WIPE_START
G1 F7200
G1 X106.416 Y106.532 E-3.69912
G1 X106.416 Y107.127 E-3.98198
G1 X107.127 Y106.416 E-4.4595
G1 X107.723 Y106.416 E-4.74236
G1 X107.451 Y106.688 E-4.925
;WIPE_END
G1 E-5 F3600
; stop printing object xyzCalibration_cube id:0 copy 0
G1 Z0.6 F9000
;AFTER_LAYER_CHANGE
;0.6
; printing object xyzCalibration_cube id:0 copy 0
G1 X106.109 Y106.109
G1 E0 F2400
;TYPE:Internal perimeter
;WIDTH:0.464
G1 X124.891 Y106.109 E0.65761
G1 X124.891 Y124.891 E1.31521
G1 X106.109 Y124.891 E1.97282
G1 X106.109 Y106.169 E2.62833
G1 X105.71 Y105.71 F9000
;TYPE:External perimeter
;WIDTH:0.42
G1 F1500
G1 X125.29 Y105.71 E3.24224
G1 X125.29 Y125.29 E3.85616
G1 X105.71 Y125.29 E4.47008
G1 X105.71 Y105.77 E5.08212
;WIPE_START
G1 X106.056 Y105.91 F9000
;WIPE_END
G92 E0
G1 E-3.5 F3600
;WIPE_START
G1 F7200
G1 X109.056 Y105.91 E-4.925
;WIPE_END
G1 E-5 F3600
; acceleration to travel
M204 S1500
G1 X106.558 Y122.185 F9000
; decel to extrusion
M204 S500
G1 X106.235 Y124.287
; end travel
G1 E0 F2400
;TYPE:Solid infill
;WIDTH:0.463619
G1 X106.532 Y124.584 E0.01467
G1 X107.127 Y124.584 E0.0355
G1 X106.416 Y123.873 E0.07067
G1 X106.416 Y123.277 E0.0915
G1 X107.723 Y124.584 E0.15613
G1 X108.318 Y124.584 E0.17697
G1 X106.416 Y122.682 E0.27106
G1 X106.416 Y122.086 E0.29189
G1 X108.914 Y124.584 E0.41545
G1 X109.509 Y124.584 E0.43628
G1 X106.416 Y121.491 E0.5893
G1 X106.416 Y120.895 E0.61013
G1 X110.105 Y124.584 E0.79261
G1 X110.7 Y124.584 E0.81345
G1 X106.416 Y120.3 E1.02539
G1 X106.416 Y119.704 E1.04622
G1 X111.296 Y124.584 E1.28763
G1 X111.891 Y124.584 E1.30846
G1 X106.416 Y119.109 E1.57933
G1 X106.416 Y118.513 E1.60016
G1 X112.487 Y124.584 E1.90049
G1 X113.082 Y124.584 E1.92132
G1 X106.416 Y117.918 E2.25112
G1 X106.416 Y117.322 E2.27195
G1 X113.678 Y124.584 E2.6312
G1 X114.273 Y124.584 E2.65203
G1 X106.416 Y116.727 E3.04075
G1 X106.416 Y116.131 E3.06158
G1 X114.869 Y124.584 E3.47976
G1 X115.464 Y124.584 E3.5006
G1 X106.416 Y115.536 E3.94824
G1 X106.416 Y114.94 E3.96907
G1 X116.06 Y124.584 E4.44617
G1 X116.655 Y124.584 E4.467
G1 X106.416 Y114.345 E4.97357
G1 X106.416 Y113.749 E4.9944
G1 X117.251 Y124.584 E5.53043
G1 X117.846 Y124.584 E5.55126
G1 X106.416 Y113.154 E6.11675
G1 X106.416 Y112.558 E6.13758
G1 X118.442 Y124.584 E6.73254
G1 X119.037 Y124.584 E6.75337
G1 X106.416 Y111.963 E7.37778
G1 X106.416 Y111.367 E7.39862
G1 X119.633 Y124.584 E8.05249
G1 X120.228 Y124.584 E8.07332
G1 X106.416 Y110.772 E8.75666
G1 X106.416 Y110.176 E8.7775
G1 X120.824 Y124.584 E9.4903
G1 X121.419 Y124.584 E9.51113
G1 X106.416 Y109.581 E10.25339
G1 X106.416 Y108.985 E10.27422
G1 X122.015 Y124.584 E11.04595
G1 X122.61 Y124.584 E11.06678
G1 X106.416 Y108.39 E11.86797
G1 X106.416 Y107.794 E11.8888
G1 X123.206 Y124.584 E12.71945
G1 X123.801 Y124.584 E12.74028
G1 X106.416 Y107.199 E13.6004
G1 X106.416 Y106.603 E13.62123
G1 X124.397 Y124.584 E14.5108
G1 X124.584 Y124.584 E14.51734
G1 X124.584 Y124.175 E14.53163
G1 X106.825 Y106.416 E15.41024
G1 X107.421 Y106.416 E15.43107
G1 X124.584 Y123.579 E16.28021
G1 X124.584 Y122.984 E16.30104
G1 X108.016 Y106.416 E17.12072
G1 X108.612 Y106.416 E17.14155
G1 X124.584 Y122.388 E17.93176
G1 X124.584 Y121.793 E17.9526
G1 X109.207 Y106.416 E18.71335
G1 X109.803 Y106.416 E18.73418
G1 X124.584 Y121.197 E19.46547
G1 X124.584 Y120.602 E19.48631
G1 X110.398 Y106.416 E20.18813
G1 X110.994 Y106.416 E20.20897
G1 X124.584 Y120.006 E20.88133
G1 X124.584 Y119.411 E20.90216
G1 X111.589 Y106.416 E21.54507
G1 X112.185 Y106.416 E21.5659
G1 X124.584 Y118.815 E22.17934
G1 X124.584 Y118.22 E22.20017
G1 X112.78 Y106.416 E22.78415
G1 X113.376 Y106.416 E22.80499
G1 X124.584 Y117.624 E23.3595
G1 X124.584 Y117.029 E23.38034
