; generated by SuperSlicer 2.4 on 2023-03-04 at 00:48:29 UTC


;
;

;
;
; 

; external perimeters extrusion width = 0.42mm
; perimeters extrusion width = 0.46mm
; infill extrusion width = 0.44mm
; solid infill extrusion width = 0.46mm
; top infill extrusion width = 0.44mm
; first layer extrusion width = 0.56mm

; object:{"name":"first_payer_analyzer_20x20","id":"first_payer_analyzer_20x20.stl id:0 copy 0","object_center":[115.500000,115.500000,0.000000],"boundingbox_center":[115.500000,115.500000,0.050000],"boundingbox_size":[180.000000,180.000000,0.100000]}
; plater:{"center":[115.500000,115.500000,0.000000],"boundingbox_center":[115.500000,115.500000,0.050000],"boundingbox_size":[180.000000,180.000000,0.100000]}

;TYPE:Custom
START_PRINT
M107
G21 ; set units to millimeters
G90 ; use absolute coordinates
M82 ; use absolute distances for extrusion
G92 E0
; Filament gcode
;_TOOLCHANGE 0
M109 S210 ; set temperature and wait for it to be reached
M190 S60 ; set bed temperature and wait for it to be reached
M107
;LAYER_CHANGE
;Z:0.2
;HEIGHT:0.2
;BEFORE_LAYER_CHANGE
;0.2


G1 E-5 F3600
G1 Z0.2 F9000
;AFTER_LAYER_CHANGE
;0.2
G92 E0
M204 S500
G1 X23.86 Y22.892
G1 E5 F2400
;TYPE:Skirt
;WIDTH:0.48
G1 F1200
G1 X22.775 Y24.057 E5.05786
G1 X22.381 Y25.6 E5.11573
G1 X22.381 Y205.4 E11.65025
G1 X22.892 Y207.14 E11.71615
G1 X24.057 Y208.225 E11.77401
G1 X25.6 Y208.619 E11.83188
G1 X205.4 Y208.619 E18.36641
G1 X207.14 Y208.108 E18.4323
G1 X208.225 Y206.943 E18.49017
G1 X208.619 Y205.4 E18.54803
G1 X208.619 Y25.6 E25.08256
G1 X208.108 Y23.86 E25.14845
G1 X206.943 Y22.775 E25.20632
G1 X205.4 Y22.381 E25.26418
G1 X25.6 Y22.381 E31.79871
G1 X23.918 Y22.875 E31.86243
G92 E0
G1 E-3.5 F3600
;WIPE_START
G1 F7200
G1 X22.775 Y24.057 E-4.2809
G1 X22.44 Y25.371 E-4.925
;WIPE_END
G1 E-5 F3600
; printing object first_payer_analyzer_20x20.stl id:0 copy 0
; acceleration to travel
M204 S1500
G1 X25.507 Y25.826 F9000
; decel to extrusion
M204 S500
G1 X25.882 Y25.882
; end travel
G1 E0 F2400
;TYPE:External perimeter
;WIDTH:0.564
G1 F1200
G1 X205.118 Y25.882 E7.76593
G1 X205.118 Y205.118 E15.53186
G1 X25.882 Y205.118 E23.29778
G1 X25.882 Y25.942 E31.06111
;WIPE_START
G1 X26.228 Y26.082 F9000
;WIPE_END
G92 E0
G1 E-3.5 F3600
;WIPE_START
G1 F7200
G1 X29.228 Y26.082 E-4.925
;WIPE_END
G1 E-5 F3600
; acceleration to travel
M204 S1500
G1 X184.891 Y26.043 F9000
; decel to extrusion
M204 S500
G1 X203.908 Y26.038
; end travel
G1 E0 F2400
;TYPE:Solid infill
;WIDTH:0.563586
G1 F1200
G1 X204.738 Y26.868 E0.05078
G1 X204.738 Y27.604 E0.08268
G1 X203.396 Y26.262 E0.16486
G1 X202.659 Y26.262 E0.19677
G1 X204.738 Y28.341 E0.32407
G1 X204.738 Y29.078 E0.35597
G1 X201.922 Y26.262 E0.52839
G1 X201.185 Y26.262 E0.5603
G1 X204.738 Y29.815 E0.77784
G1 X204.738 Y30.552 E0.80975
G1 X200.448 Y26.262 E1.07241
G1 X199.711 Y26.262 E1.10432
G1 X204.738 Y31.289 E1.4121
G1 X204.738 Y32.026 E1.44401
G1 X198.974 Y26.262 E1.79692
G1 X198.237 Y26.262 E1.82882
G1 X204.738 Y32.763 E2.22685
G1 X204.738 Y33.5 E2.25876
G1 X197.5 Y26.262 E2.70191
G1 X196.763 Y26.262 E2.73381
G1 X204.738 Y34.237 E3.22208
G1 X204.738 Y34.974 E3.25399
G1 X196.026 Y26.262 E3.78738
G1 X195.289 Y26.262 E3.81929
G1 X204.738 Y35.711 E4.3978
G1 X204.738 Y36.447 E4.42971
G1 X194.553 Y26.262 E5.05334
G1 X193.816 Y26.262 E5.08525
G1 X204.738 Y37.184 E5.754
G1 X204.738 Y37.921 E5.78591
G1 X193.079 Y26.262 E6.49979
G1 X192.342 Y26.262 E6.53169
G1 X204.738 Y38.658 E7.29069
G1 X204.738 Y39.395 E7.3226
G1 X191.605 Y26.262 E8.12672
G1 X190.868 Y26.262 E8.15863
G1 X204.738 Y40.132 E9.00787
G1 X204.738 Y40.869 E9.03978
G1 X190.131 Y26.262 E9.93414
G1 X189.394 Y26.262 E9.96605
G1 X204.738 Y41.606 E10.90553
G1 X204.738 Y42.343 E10.93744
G1 X188.657 Y26.262 E11.92204
G1 X187.92 Y26.262 E11.95395
G1 X204.738 Y43.08 E12.98368
G1 X204.738 Y43.817 E13.01558
G1 X187.183 Y26.262 E14.09043
G1 X186.446 Y26.262 E14.12234
G1 X204.738 Y44.554 E15.24231
G1 X204.738 Y45.291 E15.27422
G1 X185.709 Y26.262 E16.43931
G1 X184.973 Y26.262 E16.47122
G1 X204.738 Y46.027 E17.68143
G1 X204.738 Y46.764 E17.71334
G1 X184.236 Y26.262 E18.96867
G1 X183.499 Y26.262 E19.00058
G1 X204.738 Y47.501 E20.30103
G1 X204.738 Y48.238 E20.33294
G1 X182.762 Y26.262 E21.67852
G1 X182.025 Y26.262 E21.71042
G1 X204.738 Y48.975 E23.10112
G1 X204.738 Y49.712 E23.13303
G1 X181.288 Y26.262 E24.56885
G1 X180.551 Y26.262 E24.60076
G1 X204.738 Y50.449 E26.0817
G1 X204.738 Y51.186 E26.11361
G1 X179.814 Y26.262 E27.63967
G1 X179.077 Y26.262 E27.67158
G1 X204.738 Y51.923 E29.24276
G1 X204.738 Y52.66 E29.27467
G1 X178.34 Y26.262 E30.89097
G1 X177.603 Y26.262 E30.92288
G1 X204.738 Y53.397 E32.58431
G1 X204.738 Y54.134 E32.61621
G1 X176.866 Y26.262 E34.32276
G1 X176.13 Y26.262 E34.35467
G1 X204.738 Y54.87 E36.10634
G1 X204.738 Y55.607 E36.13825
G1 X175.393 Y26.262 E37.93504
G1 X174.656 Y26.262 E37.96695
G1 X204.738 Y56.344 E39.80886
G1 X204.738 Y57.081 E39.84077
G1 X173.919 Y26.262 E41.7278
G1 X173.182 Y26.262 E41.75971
G1 X204.738 Y57.818 E43.69187
G1 X204.738 Y58.555 E43.72377
G1 X172.445 Y26.262 E45.70105
G1 X171.708 Y26.262 E45.73296
G1 X204.738 Y59.292 E47.75536
G1 X204.738 Y60.029 E47.78726
G1 X170.971 Y26.262 E49.85478
G1 X170.234 Y26.262 E49.88669
G1 X204.738 Y60.766 E51.99933
G1 X204.738 Y61.503 E52.03124
G1 X169.497 Y26.262 E54.189
G1 X168.76 Y26.262 E54.22091
G1 X204.738 Y62.24 E56.42379
G1 X204.738 Y62.977 E56.4557
G1 X168.023 Y26.262 E58.70371
G1 X167.287 Y26.262 E58.73561
G1 X204.738 Y63.713 E61.02874
G1 X204.738 Y64.45 E61.06065
G1 X166.55 Y26.262 E63.3989
G1 X165.813 Y26.262 E63.4308
G1 X204.738 Y65.187 E65.81417
G1 X204.738 Y65.924 E65.84608
G1 X165.076 Y26.262 E68.27457
G1 X164.339 Y26.262 E68.30648
G1 X204.738 Y66.661 E70.78009
G1 X204.738 Y67.398 E70.812
G1 X163.602 Y26.262 E73.33073
G1 X162.865 Y26.262 E73.36264
G1 X204.738 Y68.135 E75.9265
G1 X204.738 Y68.872 E75.9584
G1 X162.128 Y26.262 E78.56738
G1 X161.391 Y26.262 E78.59929
G1 X204.738 Y69.609 E81.25339
G1 X204.738 Y70.346 E81.28529
G1 X160.654 Y26.262 E83.98452
G1 X159.917 Y26.262 E84.01642
G1 X204.738 Y71.083 E86.76076
G1 X204.738 Y71.82 E86.79267
G1 X159.18 Y26.262 E89.58213
G1 X158.444 Y26.262 E89.61404
G1 X204.738 Y72.556 E92.44863
G1 X204.738 Y73.293 E92.48053
G1 X157.707 Y26.262 E95.36024
G1 X156.97 Y26.262 E95.39214
G1 X204.738 Y74.03 E98.31697
G1 X204.738 Y74.767 E98.34888
G1 X156.233 Y26.262 E101.31883
G1 X155.496 Y26.262 E101.35074
G1 X204.738 Y75.504 E104.36581
G1 X204.738 Y76.241 E104.39771
G1 X154.759 Y26.262 E107.45791
G1 X154.022 Y26.262 E107.48981
G1 X204.738 Y76.978 E110.59513
G1 X204.738 Y77.715 E110.62703
G1 X153.285 Y26.262 E113.77747
G1 X152.548 Y26.262 E113.80937
G1 X204.738 Y78.452 E117.00493
G1 X204.738 Y79.189 E117.03684
G1 X151.811 Y26.262 E120.27752
G1 X151.074 Y26.262 E120.30942
G1 X204.738 Y79.926 E123.59522
G1 X204.738 Y80.663 E123.62713
G1 X150.337 Y26.262 E126.95805
G1 X149.601 Y26.262 E126.98995
G1 X204.738 Y81.399 E130.366
G1 X204.738 Y82.136 E130.3979
G1 X148.864 Y26.262 E133.81907
G1 X148.127 Y26.262 E133.85097
G1 X204.738 Y82.873 E137.31726
G1 X204.738 Y83.61 E137.34917
G1 X147.39 Y26.262 E140.86057
G1 X146.653 Y26.262 E140.89248
G1 X204.738 Y84.347 E144.44901
G1 X204.738 Y85.084 E144.48091
G1 X145.916 Y26.262 E148.08256
G1 X145.179 Y26.262 E148.11447
G1 X204.738 Y85.821 E151.76124
G1 X204.738 Y86.558 E151.79315
G1 X144.442 Y26.262 E155.48504
G1 X143.705 Y26.262 E155.51695
G1 X204.738 Y87.295 E159.25396
G1 X204.738 Y88.032 E159.28587
G1 X142.968 Y26.262 E163.068
G1 X142.231 Y26.262 E163.09991
G1 X204.738 Y88.769 E166.92717
G1 X204.738 Y89.506 E166.95907
G1 X141.494 Y26.262 E170.83145
G1 X140.758 Y26.262 E170.86336
G1 X204.738 Y90.242 E174.78086
G1 X204.738 Y90.979 E174.81276
G1 X140.021 Y26.262 E178.77538
G1 X139.284 Y26.262 E178.80729
G1 X204.738 Y91.716 E182.81503
G1 X204.738 Y92.453 E182.84694
G1 X138.547 Y26.262 E186.8998
G1 X137.81 Y26.262 E186.93171
G1 X204.738 Y93.19 E191.0297
G1 X204.738 Y93.927 E191.0616
G1 X137.073 Y26.262 E195.20471
G1 X136.336 Y26.262 E195.23661
G1 X204.738 Y94.664 E199.42484
G1 X204.738 Y95.401 E199.45675
G1 X135.599 Y26.262 E203.6901
G1 X134.862 Y26.262 E203.72201
G1 X204.738 Y96.138 E208.00048
G1 X204.738 Y96.875 E208.03238
G1 X134.125 Y26.262 E212.35598
G1 X133.388 Y26.262 E212.38788
G1 X204.738 Y97.612 E216.7566
G1 X204.738 Y98.349 E216.7885
G1 X132.651 Y26.262 E221.20234
G1 X131.915 Y26.262 E221.23424
G1 X204.738 Y99.085 E225.6932
G1 X204.738 Y99.822 E225.72511
G1 X131.178 Y26.262 E230.22919
G1 X130.441 Y26.262 E230.26109
G1 X204.738 Y100.559 E234.81029
G1 X204.738 Y101.296 E234.8422
G1 X129.704 Y26.262 E239.43652
G1 X128.967 Y26.262 E239.46843
G1 X204.738 Y102.033 E244.10787
G1 X204.738 Y102.77 E244.13978
G1 X128.23 Y26.262 E248.82434
G1 X127.493 Y26.262 E248.85625
G1 X204.738 Y103.507 E253.58593
G1 X204.738 Y104.244 E253.61784
G1 X126.756 Y26.262 E258.39265
G1 X126.019 Y26.262 E258.42455
G1 X204.738 Y104.981 E263.24448
G1 X204.738 Y105.718 E263.27639
G1 X125.282 Y26.262 E268.14144
G1 X124.545 Y26.262 E268.17334
G1 X204.738 Y106.455 E273.08351
G1 X204.738 Y107.192 E273.11542
G1 X123.808 Y26.262 E278.07071
G1 X123.072 Y26.262 E278.10262
G1 X204.738 Y107.928 E283.10303
G1 X204.738 Y108.665 E283.13494
G1 X122.335 Y26.262 E288.18048
G1 X121.598 Y26.262 E288.21238
G1 X204.738 Y109.402 E293.30304
G1 X204.738 Y110.139 E293.33494
G1 X120.861 Y26.262 E298.47072
G1 X120.124 Y26.262 E298.50263
G1 X204.738 Y110.876 E303.68353
G1 X204.738 Y111.613 E303.71544
G1 X119.387 Y26.262 E308.94146
G1 X118.65 Y26.262 E308.97336
G1 X204.738 Y112.35 E314.24451
G1 X204.738 Y113.087 E314.27641
G1 X117.913 Y26.262 E319.59268
G1 X117.176 Y26.262 E319.62458
G1 X204.738 Y113.824 E324.98597
G1 X204.738 Y114.561 E325.01788
G1 X116.439 Y26.262 E330.42438
G1 X115.702 Y26.262 E330.45629
G1 X204.738 Y115.298 E335.90792
G1 X204.738 Y116.035 E335.93982
G1 X114.965 Y26.262 E341.43657
G1 X114.229 Y26.262 E341.46848
G1 X204.738 Y116.771 E347.01035
G1 X204.738 Y117.508 E347.04226
G1 X113.492 Y26.262 E352.62925
G1 X112.755 Y26.262 E352.66116
G1 X204.738 Y118.245 E358.29327
G1 X204.738 Y118.982 E358.32518
G1 X112.018 Y26.262 E364.00241
G1 X111.281 Y26.262 E364.03432
G1 X204.738 Y119.719 E369.75668
G1 X204.738 Y120.456 E369.78858
G1 X110.544 Y26.262 E375.55606
G1 X109.807 Y26.262 E375.58797
G1 X204.738 Y121.193 E381.40057
G1 X204.738 Y121.93 E381.43247
G1 X109.07 Y26.262 E387.2902
G1 X108.333 Y26.262 E387.3221
G1 X204.738 Y122.667 E393.22495
G1 X204.738 Y123.404 E393.25685
G1 X107.596 Y26.262 E399.20482
G1 X106.859 Y26.262 E399.23672
G1 X204.738 Y124.141 E405.22981
G1 X204.738 Y124.878 E405.26171
G1 X106.122 Y26.262 E411.29992
G1 X105.386 Y26.262 E411.33183
G1 X204.738 Y125.614 E417.41516
G1 X204.738 Y126.351 E417.44706
G1 X104.649 Y26.262 E423.57551
G1 X103.912 Y26.262 E423.60742
G1 X204.738 Y127.088 E429.78099
G1 X204.738 Y127.825 E429.8129
G1 X103.175 Y26.262 E436.03159
G1 X102.438 Y26.262 E436.0635
G1 X204.738 Y128.562 E442.32731
G1 X204.738 Y129.299 E442.35922
G1 X101.701 Y26.262 E448.66815
G1 X100.964 Y26.262 E448.70006
G1 X204.738 Y130.036 E455.05412
G1 X204.738 Y130.773 E455.08602
G1 X100.227 Y26.262 E461.4852
G1 X99.49 Y26.262 E461.51711
G1 X204.738 Y131.51 E467.96141
G1 X204.738 Y132.247 E467.99331
G1 X98.753 Y26.262 E474.48274
G1 X98.016 Y26.262 E474.51464
G1 X204.738 Y132.984 E481.04919
G1 X204.738 Y133.721 E481.08109
G1 X97.279 Y26.262 E487.66076
G1 X96.543 Y26.262 E487.69266
G1 X204.738 Y134.457 E494.31745
G1 X204.738 Y135.194 E494.34935
G1 X95.806 Y26.262 E501.01926
G1 X95.069 Y26.262 E501.05117
G1 X204.738 Y135.931 E507.7662
G1 X204.738 Y136.668 E507.7981
G1 X94.332 Y26.262 E514.55825
G1 X93.595 Y26.262 E514.59016
G1 X204.738 Y137.405 E521.39543
G1 X204.738 Y138.142 E521.42734
G1 X92.858 Y26.262 E528.27773
G1 X92.121 Y26.262 E528.30964
G1 X204.738 Y138.879 E535.20515
G1 X204.738 Y139.616 E535.23706
G1 X91.384 Y26.262 E542.17769
G1 X90.647 Y26.262 E542.2096
G1 X204.738 Y140.353 E549.19536
G1 X204.738 Y141.09 E549.22726
G1 X89.91 Y26.262 E556.25814
G1 X89.173 Y26.262 E556.29005
G1 X204.738 Y141.827 E563.36605
G1 X204.738 Y142.564 E563.39796
G1 X88.436 Y26.262 E570.51908
G1 X87.7 Y26.262 E570.55098
G1 X204.738 Y143.3 E577.71723
G1 X204.738 Y144.037 E577.74913
G1 X86.963 Y26.262 E584.9605
G1 X86.226 Y26.262 E584.9924
G1 X204.738 Y144.774 E592.24889
G1 X204.738 Y145.511 E592.2808
G1 X85.489 Y26.262 E599.5824
G1 X84.752 Y26.262 E599.61431
G1 X204.738 Y146.248 E606.96104
G1 X204.738 Y146.985 E606.99295
G1 X84.015 Y26.262 E614.3848
G1 X83.278 Y26.262 E614.4167
G1 X204.738 Y147.722 E621.85367
G1 X204.738 Y148.459 E621.88558
G1 X82.541 Y26.262 E629.36767
G1 X81.804 Y26.262 E629.39958
G1 X204.738 Y149.196 E636.92679
G1 X204.738 Y149.933 E636.9587
G1 X81.067 Y26.262 E644.53104
G1 X80.33 Y26.262 E644.56294
G1 X204.738 Y150.67 E652.1804
G1 X204.738 Y151.407 E652.21231
G1 X79.593 Y26.262 E659.87489
G1 X78.857 Y26.262 E659.90679
G1 X204.738 Y152.143 E667.61449
G1 X204.738 Y152.88 E667.6464
G1 X78.12 Y26.262 E675.39922
G1 X77.383 Y26.262 E675.43113
G1 X204.738 Y153.617 E683.22907
G1 X204.738 Y154.354 E683.26098
G1 X76.646 Y26.262 E691.10404
G1 X75.909 Y26.262 E691.13595
G1 X204.738 Y155.091 E699.02413
G1 X204.738 Y155.828 E699.05604
G1 X75.172 Y26.262 E706.98935
G1 X74.435 Y26.262 E707.02125
G1 X204.738 Y156.565 E714.99968
G1 X204.738 Y157.302 E715.03159
G1 X73.698 Y26.262 E723.05514
G1 X72.961 Y26.262 E723.08705
G1 X204.738 Y158.039 E731.15572
G1 X204.738 Y158.776 E731.18762
G1 X72.224 Y26.262 E739.30142
G1 X71.487 Y26.262 E739.33332
G1 X204.738 Y159.513 E747.49224
G1 X204.738 Y160.25 E747.52414
G1 X70.75 Y26.262 E755.72818
G1 X70.014 Y26.262 E755.76009
G1 X204.738 Y160.986 E764.00924
G1 X204.738 Y161.723 E764.04115
G1 X69.277 Y26.262 E772.33543
G1 X68.54 Y26.262 E772.36734
G1 X204.738 Y162.46 E780.70674
G1 X204.738 Y163.197 E780.73864
G1 X67.803 Y26.262 E789.12317
G1 X67.066 Y26.262 E789.15507
G1 X204.738 Y163.934 E797.58471
G1 X204.738 Y164.671 E797.61662
G1 X66.329 Y26.262 E806.09139
G1 X65.592 Y26.262 E806.12329
G1 X204.738 Y165.408 E814.64318
G1 X204.738 Y166.145 E814.67508
G1 X64.855 Y26.262 E823.24009
G1 X64.118 Y26.262 E823.272
G1 X204.738 Y166.882 E831.88213
G1 X204.738 Y167.619 E831.91403
G1 X63.381 Y26.262 E840.56928
G1 X62.644 Y26.262 E840.60119
G1 X204.738 Y168.356 E849.30156
G1 X204.738 Y169.093 E849.33347
G1 X61.907 Y26.262 E858.07896
G1 X61.171 Y26.262 E858.11087
G1 X204.738 Y169.829 E866.90148
G1 X204.738 Y170.566 E866.93339
G1 X60.434 Y26.262 E875.76913
G1 X59.697 Y26.262 E875.80103
G1 X204.738 Y171.303 E884.68189
G1 X204.738 Y172.04 E884.7138
G1 X58.96 Y26.262 E893.63978
G1 X58.223 Y26.262 E893.67168
G1 X204.738 Y172.777 E902.64278
G1 X204.738 Y173.514 E902.67469
G1 X57.486 Y26.262 E911.69091
G1 X56.749 Y26.262 E911.72282
G1 X204.738 Y174.251 E920.78416
G1 X204.738 Y174.988 E920.81607
G1 X56.012 Y26.262 E929.92253
G1 X55.275 Y26.262 E929.95444
G1 X204.738 Y175.725 E939.10602
G1 X204.738 Y176.462 E939.13793
G1 X54.538 Y26.262 E948.33464
G1 X53.801 Y26.262 E948.36654
G1 X204.738 Y177.199 E957.60837
G1 X204.738 Y177.936 E957.64028
G1 X53.064 Y26.262 E966.92723
G1 X52.328 Y26.262 E966.95914
G1 X204.738 Y178.672 E976.29121
G1 X204.738 Y179.409 E976.32311
G1 X51.591 Y26.262 E985.70031
G1 X50.854 Y26.262 E985.73221
G1 X204.738 Y180.146 E995.15453
G1 X204.738 Y180.883 E995.18644
G1 X50.117 Y26.262 E1004.65387
G1 X49.38 Y26.262 E1004.68578
G1 X204.738 Y181.62 E1014.19834
G1 X204.738 Y182.357 E1014.23024
G1 X48.643 Y26.262 E1023.78792
G1 X47.906 Y26.262 E1023.81983
G1 X204.738 Y183.094 E1033.42263
G1 X204.738 Y183.831 E1033.45454
G1 X47.169 Y26.262 E1043.10246
G1 X46.432 Y26.262 E1043.13436
G1 X204.738 Y184.568 E1052.82741
G1 X204.738 Y185.305 E1052.85931
G1 X45.695 Y26.262 E1062.59748
G1 X44.958 Y26.262 E1062.62938
G1 X204.738 Y186.042 E1072.41267
G1 X204.738 Y186.779 E1072.44458
G1 X44.221 Y26.262 E1082.27299
G1 X43.485 Y26.262 E1082.30489
G1 X204.738 Y187.515 E1092.17842
G1 X204.738 Y188.252 E1092.21033
G1 X42.748 Y26.262 E1102.12898
G1 X42.011 Y26.262 E1102.16088
G1 X204.738 Y188.989 E1112.12466
G1 X204.738 Y189.726 E1112.15656
