; generated by SuperSlicer 2.4 on 2023-03-04 at 05:33:32 UTC


;
;

;
;
; 

; external perimeters extrusion width = 0.43mm
; perimeters extrusion width = 0.48mm
; infill extrusion width = 0.46mm
; solid infill extrusion width = 0.48mm
; top infill extrusion width = 0.46mm
; first layer extrusion width = 0.58mm

; object:{"name":"square_tower","id":"square_tower.stl id:0 copy 0","object_center":[115.500000,115.500000,0.000000],"boundingbox_center":[115.500000,115.500000,25.000000],"boundingbox_size":[66.000000,65.945206,50.000000]}
; plater:{"center":[115.500000,115.500000,0.000000],"boundingbox_center":[115.500000,115.500000,25.000000],"boundingbox_size":[66.000000,65.945206,50.000000]}

;TYPE:Custom
START_PRINT
M107
G21 ; set units to millimeters
G90 ; use absolute coordinates
M83 ; use relative distances for extrusion
; Filament gcode
;_TOOLCHANGE 0
M104 S210 ; set temperature
M109 S210 ; set temperature and wait for it to be reached
M190 S60 ; set bed temperature and wait for it to be reached
M107
;LAYER_CHANGE
;Z:0.32
;HEIGHT:0.32
;BEFORE_LAYER_CHANGE
;0.32


G1 E-5 F3600
G1 Z0.32 F9000
;AFTER_LAYER_CHANGE
;0.32
G92 E0
G1 X82.269 Y81.189
G1 E5 F2400
;TYPE:Skirt
;WIDTH:0.48
G1 F1200
G1 X81.071 Y82.415 E0.09378
G1 X80.154 Y83.862 E0.09378
G1 X79.881 Y84.475 E0.0367
G1 X79.419 Y86.125 E0.09378
G1 X79.292 Y87.5 E0.07556
G1 X79.292 Y143.5 E3.0645
G1 X79.419 Y144.875 E0.07556
G1 X79.558 Y145.531 E0.0367
G1 X80.154 Y147.138 E0.09378
G1 X81.071 Y148.585 E0.09377
G1 X82.269 Y149.811 E0.09378
G1 X83.114 Y150.425 E0.0572
G1 X84.65 Y151.186 E0.09377
G1 X85.288 Y151.393 E0.03671
G1 X86.977 Y151.68 E0.09377
G1 X144.023 Y151.68 E3.1217
G1 X145.712 Y151.393 E0.09377
G1 X147.305 Y150.761 E0.09379
G1 X148.731 Y149.811 E0.09377
G1 X149.929 Y148.585 E0.09378
G1 X150.323 Y148.043 E0.0367
G1 X151.119 Y146.525 E0.09377
G1 X151.581 Y144.875 E0.09377
G1 X151.708 Y143.5 E0.07556
G1 X151.69 Y87.165 E3.08286
G1 X151.442 Y85.469 E0.09377
G1 X150.846 Y83.863 E0.09377
G1 X150.323 Y82.957 E0.0572
G1 X149.23 Y81.638 E0.09378
G1 X148.731 Y81.189 E0.03671
G1 X147.305 Y80.239 E0.09377
G1 X145.712 Y79.607 E0.09378
G1 X144.689 Y79.39 E0.0572
G1 X144.023 Y79.32 E0.0367
G1 X86.977 Y79.32 E3.1217
G1 X85.288 Y79.607 E0.09378
G1 X83.695 Y80.239 E0.09378
G1 X82.319 Y81.156 E0.0905
G1 E-3.5 F3600
;WIPE_START
G1 F7200
G1 X81.071 Y82.415 E-0.84187
G1 X80.414 Y83.452 E-0.58313
;WIPE_END
G1 E-0.075 F3600
; printing object square_tower.stl id:0 copy 0
G1 X115.5 Y141.907 F9000
G1 E5 F2400
;TYPE:Internal perimeter
;WIDTH:0.584
G1 F1200
G1 X117.407 Y141.907 E0.13077
G1 X117.407 Y141.407 E0.03428
G1 X141.407 Y141.407 E1.64543
G1 X141.407 Y117.407 E1.64543
G1 X141.907 Y117.407 E0.03428
G1 X141.907 Y113.593 E0.26153
G1 X141.407 Y113.593 E0.03428
G1 X141.407 Y89.593 E1.64543
G1 X117.407 Y89.593 E1.64543
G1 X117.407 Y89.093 E0.03428
G1 X113.593 Y89.093 E0.26153
G1 X113.593 Y89.593 E0.03428
G1 X89.593 Y89.593 E1.64543
G1 X89.593 Y109.593 E1.37119
G1 X89.093 Y109.593 E0.03428
G1 X89.093 Y113.407 E0.26153
G1 X89.593 Y113.407 E0.03428
G1 X89.593 Y141.407 E1.91966
G1 X113.593 Y141.407 E1.64543
G1 X113.593 Y141.907 E0.03428
G1 X115.44 Y141.907 E0.12665
G1 X115.5 Y141.392 F9000
;TYPE:External perimeter
G1 F1200
G1 X116.892 Y141.392 E0.09543
G1 X116.892 Y140.892 E0.03428
G1 X140.892 Y140.892 E1.64543
G1 X140.892 Y116.892 E1.64543
G1 X141.392 Y116.892 E0.03428
G1 X141.392 Y114.108 E0.19087
G1 X140.892 Y114.108 E0.03428
G1 X140.892 Y90.108 E1.64543
G1 X116.892 Y90.108 E1.64543
G1 X116.892 Y89.608 E0.03428
G1 X114.108 Y89.608 E0.19087
G1 X114.108 Y90.108 E0.03428
G1 X90.108 Y90.108 E1.64543
G1 X90.108 Y110.108 E1.37119
G1 X89.608 Y110.108 E0.03428
G1 X89.608 Y112.892 E0.19087
G1 X90.108 Y112.892 E0.03428
G1 X90.108 Y140.892 E1.91966
G1 X114.108 Y140.892 E1.64543
G1 X114.108 Y141.392 E0.03428
G1 X115.44 Y141.392 E0.09132
;WIPE_START
G1 X115.7 Y141.738 F9000
;WIPE_END
G1 E-3.5 F3600
;WIPE_START
G1 F7200
G1 X117.092 Y141.592 E-0.66485
G1 X117.092 Y141.092 E-0.2375
G1 X118.192 Y141.092 E-0.52265
;WIPE_END
G1 E-0.075 F3600
G1 X115.5 Y144.593 F9000
G1 E5 F2400
;TYPE:Internal perimeter
G1 F1200
G1 X91.551 Y144.593 E1.64195
G1 X90.805 Y145.905 E0.10348
G1 X90.235 Y146.538 E0.05837
G1 X89.544 Y147.04 E0.05859
G1 X88.763 Y147.388 E0.05859
G1 X87.927 Y147.565 E0.05859
G1 X87.073 Y147.565 E0.05859
G1 X86.237 Y147.388 E0.05859
G1 X85.456 Y147.04 E0.05859
G1 X84.765 Y146.538 E0.05859
G1 X84.193 Y145.903 E0.05859
G1 X83.766 Y145.163 E0.05859
G1 X83.502 Y144.35 E0.05859
G1 X83.412 Y143.5 E0.05859
G1 X83.502 Y142.65 E0.05859
G1 X83.766 Y141.837 E0.05859
G1 X84.193 Y141.097 E0.05859
G1 X84.765 Y140.462 E0.05859
G1 X85.456 Y139.96 E0.05859
G1 X86.407 Y139.537 E0.07138
G1 X86.407 Y91.464 E3.29586
G1 X85.456 Y91.04 E0.07138
G1 X84.765 Y90.538 E0.05859
G1 X84.193 Y89.903 E0.05859
G1 X83.766 Y89.163 E0.05859
G1 X83.502 Y88.35 E0.05859
G1 X83.412 Y87.5 E0.05859
G1 X83.502 Y86.65 E0.05859
G1 X83.766 Y85.837 E0.05859
G1 X84.193 Y85.097 E0.05859
G1 X84.765 Y84.462 E0.05859
G1 X85.456 Y83.96 E0.05859
G1 X86.237 Y83.612 E0.05859
G1 X87.073 Y83.435 E0.05859
G1 X87.927 Y83.435 E0.05859
G1 X88.175 Y83.487 E0.01735
G1 X88.763 Y83.612 E0.04124
G1 X89.544 Y83.96 E0.05859
G1 X90.235 Y84.462 E0.05859
G1 X90.805 Y85.095 E0.05837
G1 X91.551 Y86.407 E0.10349
G1 X139.449 Y86.407 E3.2839
G1 X140.195 Y85.095 E0.10349
G1 X140.765 Y84.462 E0.05837
G1 X141.456 Y83.96 E0.05859
G1 X142.237 Y83.612 E0.05859
G1 X143.073 Y83.435 E0.05859
G1 X143.927 Y83.435 E0.05858
G1 X144.763 Y83.612 E0.05859
G1 X145.544 Y83.96 E0.05859
G1 X146.235 Y84.462 E0.05859
G1 X146.807 Y85.097 E0.05858
G1 X147.234 Y85.837 E0.05859
G1 X147.498 Y86.65 E0.05859
G1 X147.588 Y87.5 E0.05859
G1 X147.498 Y88.35 E0.05859
G1 X147.234 Y89.163 E0.05859
G1 X146.807 Y89.903 E0.05859
G1 X146.235 Y90.538 E0.05858
G1 X145.544 Y91.04 E0.05859
G1 X144.593 Y91.464 E0.07138
G1 X144.593 Y139.537 E3.29586
G1 X145.544 Y139.96 E0.07138
G1 X146.235 Y140.462 E0.05859
G1 X146.807 Y141.097 E0.05859
G1 X147.234 Y141.837 E0.05858
G1 X147.498 Y142.65 E0.05859
G1 X147.588 Y143.5 E0.05859
G1 X147.498 Y144.35 E0.05859
G1 X147.234 Y145.163 E0.05859
G1 X146.807 Y145.903 E0.05858
G1 X146.235 Y146.538 E0.05859
G1 X145.544 Y147.04 E0.05859
G1 X144.763 Y147.388 E0.05859
G1 X143.927 Y147.565 E0.05859
G1 X143.073 Y147.565 E0.05858
G1 X142.237 Y147.388 E0.05859
G1 X141.456 Y147.04 E0.05859
G1 X140.765 Y146.538 E0.05859
G1 X140.195 Y145.905 E0.05837
G1 X139.449 Y144.593 E0.10349
G1 X115.56 Y144.593 E1.63783
G1 X115.5 Y145.108 F9000
;TYPE:External perimeter
G1 F1200
G1 X91.851 Y145.108 E1.62139
G1 X91.225 Y146.208 E0.08676
G1 X90.582 Y146.923 E0.06592
G1 X89.803 Y147.489 E0.06602
G1 X88.923 Y147.88 E0.06602
G1 X87.981 Y148.081 E0.06601
G1 X87.019 Y148.081 E0.06601
G1 X86.077 Y147.88 E0.06601
G1 X85.197 Y147.489 E0.06601
G1 X84.418 Y146.923 E0.06602
G1 X83.774 Y146.207 E0.06601
G1 X83.292 Y145.373 E0.06601
G1 X82.995 Y144.458 E0.06601
G1 X82.894 Y143.5 E0.06602
G1 X82.995 Y142.542 E0.06602
G1 X83.292 Y141.627 E0.06601
G1 X83.774 Y140.793 E0.06601
G1 X84.418 Y140.077 E0.06602
G1 X85.197 Y139.511 E0.06601
G1 X85.892 Y139.202 E0.05215
G1 X85.892 Y91.798 E3.24997
G1 X85.197 Y91.489 E0.05215
G1 X84.418 Y90.923 E0.06602
G1 X83.774 Y90.207 E0.06601
G1 X83.292 Y89.373 E0.06602
G1 X82.995 Y88.458 E0.06602
G1 X82.894 Y87.5 E0.06601
G1 X82.995 Y86.542 E0.06601
G1 X83.292 Y85.627 E0.06602
G1 X83.774 Y84.793 E0.06601
G1 X84.418 Y84.077 E0.06601
G1 X85.197 Y83.511 E0.06601
G1 X86.077 Y83.12 E0.06602
G1 X87.019 Y82.919 E0.06601
G1 X87.981 Y82.919 E0.06601
G1 X88.282 Y82.983 E0.02106
G1 X88.923 Y83.12 E0.04495
G1 X89.803 Y83.511 E0.06602
G1 X90.582 Y84.077 E0.06601
G1 X91.225 Y84.792 E0.06592
G1 X91.851 Y85.892 E0.08676
G1 X139.149 Y85.892 E3.24278
G1 X139.775 Y84.792 E0.08676
G1 X140.418 Y84.077 E0.06592
G1 X141.197 Y83.511 E0.06602
G1 X142.077 Y83.12 E0.06601
G1 X143.019 Y82.919 E0.06602
G1 X143.981 Y82.919 E0.06601
G1 X144.923 Y83.12 E0.06602
G1 X145.803 Y83.511 E0.06601
G1 X146.582 Y84.077 E0.06602
G1 X147.226 Y84.793 E0.06601
G1 X147.708 Y85.627 E0.06601
G1 X148.005 Y86.542 E0.06602
G1 X148.106 Y87.5 E0.06601
G1 X148.005 Y88.458 E0.06601
G1 X147.708 Y89.373 E0.06602
G1 X147.226 Y90.207 E0.06601
G1 X146.582 Y90.923 E0.06601
G1 X145.803 Y91.489 E0.06602
G1 X145.108 Y91.798 E0.05215
G1 X145.108 Y139.202 E3.24997
G1 X145.803 Y139.511 E0.05215
G1 X146.582 Y140.077 E0.06602
G1 X147.226 Y140.793 E0.06601
G1 X147.708 Y141.627 E0.06601
G1 X148.005 Y142.542 E0.06601
G1 X148.106 Y143.5 E0.06602
G1 X148.005 Y144.458 E0.06602
G1 X147.708 Y145.373 E0.06601
G1 X147.226 Y146.207 E0.06601
G1 X146.582 Y146.923 E0.06601
G1 X145.803 Y147.489 E0.06602
G1 X144.923 Y147.88 E0.06601
G1 X143.981 Y148.081 E0.06602
G1 X143.019 Y148.081 E0.06601
G1 X142.077 Y147.88 E0.06602
G1 X141.197 Y147.489 E0.06601
G1 X140.418 Y146.923 E0.06602
G1 X139.775 Y146.208 E0.06592
G1 X139.149 Y145.108 E0.08676
G1 X115.56 Y145.108 E1.61728
;WIPE_START
G1 X115.3 Y144.762 F9000
;WIPE_END
G1 E-3.5 F3600
;WIPE_START
G1 F7200
G1 X112.3 Y144.78 E-1.425
;WIPE_END
G1 E-0.075 F3600
G1 X145.203 Y83.977 F9000
G1 E5 F2400
;TYPE:Solid infill
;WIDTH:0.57092
G1 F1200
G1 X146.101 Y84.876 E0.08516
G1 X146.501 Y85.32 E0.04002
G1 X146.889 Y85.991 E0.05197
G1 X147.082 Y86.585 E0.04183
G1 X144.421 Y83.924 E0.25218
G1 X143.888 Y83.811 E0.03654
G1 X143.579 Y83.811 E0.0207
G1 X147.203 Y87.435 E0.34347
G1 X147.209 Y87.5 E0.00441
G1 X147.146 Y88.106 E0.04087
G1 X142.896 Y83.857 E0.4028
G1 X142.354 Y83.972 E0.03716
G1 X142.304 Y83.994 E0.00361
G1 X146.994 Y88.684 E0.44453
G1 X146.889 Y89.009 E0.0229
G1 X146.78 Y89.198 E0.01463
G1 X141.8 Y84.219 E0.47197
G1 X141.645 Y84.288 E0.01137
G1 X141.353 Y84.5 E0.02422
G1 X146.513 Y89.66 E0.48909
G1 X146.501 Y89.68 E0.00158
G1 X146.171 Y90.047 E0.03305
G1 X140.947 Y84.823 E0.4952
G1 X140.601 Y85.206 E0.03459
G1 X145.791 Y90.396 E0.4919
G1 X145.369 Y90.702 E0.03497
G1 X140.314 Y85.647 E0.47914
G1 X140.05 Y86.112 E0.03582
G1 X144.867 Y90.93 E0.45663
G1 X144.363 Y91.154 E0.037
G1 X139.786 Y86.577 E0.43386
G1 X139.668 Y86.784 E0.01594
G1 X139.264 Y86.784 E0.02711
G1 X144.217 Y91.736 E0.46946
G1 X144.217 Y92.465 E0.04885
G1 X141.783 Y90.032 E0.23062
G1 X141.783 Y90.761 E0.04885
G1 X144.217 Y93.194 E0.23062
G1 X144.217 Y93.923 E0.04885
G1 X141.783 Y91.49 E0.23062
G1 X141.783 Y92.218 E0.04885
G1 X144.217 Y94.651 E0.23062
G1 X144.217 Y95.38 E0.04885
G1 X141.783 Y92.947 E0.23062
G1 X141.783 Y93.676 E0.04885
G1 X144.217 Y96.109 E0.23062
G1 X144.217 Y96.838 E0.04885
G1 X141.783 Y94.405 E0.23062
G1 X141.783 Y95.134 E0.04885
G1 X144.217 Y97.567 E0.23062
G1 X144.217 Y98.295 E0.04885
G1 X141.783 Y95.862 E0.23062
G1 X141.783 Y96.591 E0.04885
G1 X144.217 Y99.024 E0.23062
G1 X144.217 Y99.753 E0.04885
G1 X141.783 Y97.32 E0.23062
G1 X141.783 Y98.049 E0.04885
G1 X144.217 Y100.482 E0.23062
G1 X144.217 Y101.21 E0.04885
G1 X141.783 Y98.777 E0.23062
G1 X141.783 Y99.506 E0.04885
G1 X144.217 Y101.939 E0.23062
G1 X144.217 Y102.668 E0.04885
G1 X141.783 Y100.235 E0.23062
G1 X141.783 Y100.964 E0.04885
G1 X144.217 Y103.397 E0.23062
G1 X144.217 Y104.126 E0.04885
G1 X141.783 Y101.693 E0.23062
G1 X141.783 Y102.421 E0.04885
G1 X144.217 Y104.854 E0.23062
G1 X144.217 Y105.583 E0.04885
G1 X141.783 Y103.15 E0.23062
G1 X141.783 Y103.879 E0.04885
G1 X144.217 Y106.312 E0.23062
G1 X144.217 Y107.041 E0.04885
G1 X141.783 Y104.608 E0.23062
G1 X141.783 Y105.337 E0.04885
G1 X144.217 Y107.77 E0.23062
G1 X144.217 Y108.498 E0.04885
G1 X141.783 Y106.065 E0.23062
G1 X141.783 Y106.794 E0.04885
G1 X144.217 Y109.227 E0.23062
G1 X144.217 Y109.956 E0.04885
G1 X141.783 Y107.523 E0.23062
G1 X141.783 Y108.252 E0.04885
G1 X144.217 Y110.685 E0.23062
G1 X144.217 Y111.413 E0.04885
G1 X141.783 Y108.98 E0.23062
G1 X141.783 Y109.709 E0.04885
G1 X144.217 Y112.142 E0.23062
G1 X144.217 Y112.871 E0.04885
G1 X141.783 Y110.438 E0.23062
G1 X141.783 Y111.167 E0.04885
G1 X144.217 Y113.6 E0.23062
G1 X144.217 Y114.329 E0.04885
G1 X141.783 Y111.896 E0.23062
G1 X141.783 Y112.624 E0.04885
G1 X144.217 Y115.057 E0.23062
G1 X144.217 Y115.786 E0.04885
G1 X142.283 Y113.853 E0.18322
G1 X142.283 Y114.582 E0.04885
G1 X144.217 Y116.515 E0.18322
G1 X144.217 Y117.244 E0.04885
G1 X142.283 Y115.311 E0.18322
G1 X142.283 Y116.039 E0.04885
G1 X144.217 Y117.972 E0.18322
G1 X144.217 Y118.701 E0.04885
G1 X142.283 Y116.768 E0.18322
G1 X142.283 Y117.497 E0.04885
G1 X144.217 Y119.43 E0.18322
G1 X144.217 Y120.159 E0.04885
G1 X141.841 Y117.783 E0.22515
G1 X141.783 Y117.783 E0.00387
G1 X141.783 Y118.455 E0.04498
G1 X144.217 Y120.888 E0.23062
G1 X144.217 Y121.616 E0.04885
G1 X141.783 Y119.183 E0.23062
G1 X141.783 Y119.912 E0.04885
G1 X144.217 Y122.345 E0.23062
G1 X144.217 Y123.074 E0.04885
G1 X141.783 Y120.641 E0.23062
G1 X141.783 Y121.37 E0.04885
G1 X144.217 Y123.803 E0.23062
G1 X144.217 Y124.532 E0.04885
G1 X141.783 Y122.099 E0.23062
G1 X141.783 Y122.827 E0.04885
G1 X144.217 Y125.26 E0.23062
G1 X144.217 Y125.989 E0.04885
G1 X141.783 Y123.556 E0.23062
G1 X141.783 Y124.285 E0.04885
G1 X144.217 Y126.718 E0.23062
G1 X144.217 Y127.447 E0.04885
G1 X141.783 Y125.014 E0.23062
G1 X141.783 Y125.742 E0.04885
G1 X144.217 Y128.175 E0.23062
G1 X144.217 Y128.904 E0.04885
G1 X141.783 Y126.471 E0.23062
G1 X141.783 Y127.2 E0.04885
G1 X144.217 Y129.633 E0.23062
G1 X144.217 Y130.362 E0.04885
G1 X141.783 Y127.929 E0.23062
G1 X141.783 Y128.658 E0.04885
G1 X144.217 Y131.091 E0.23062
G1 X144.217 Y131.819 E0.04885
G1 X141.783 Y129.386 E0.23062
G1 X141.783 Y130.115 E0.04885
G1 X144.217 Y132.548 E0.23062
G1 X144.217 Y133.277 E0.04885
G1 X141.783 Y130.844 E0.23062
G1 X141.783 Y131.573 E0.04885
G1 X144.217 Y134.006 E0.23062
G1 X144.217 Y134.734 E0.04885
G1 X141.783 Y132.301 E0.23062
G1 X141.783 Y133.03 E0.04885
G1 X144.217 Y135.463 E0.23062
G1 X144.217 Y136.192 E0.04885
G1 X141.783 Y133.759 E0.23062
G1 X141.783 Y134.488 E0.04885
G1 X144.217 Y136.921 E0.23062
G1 X144.217 Y137.65 E0.04885
G1 X141.783 Y135.217 E0.23062
G1 X141.783 Y135.945 E0.04885
G1 X144.438 Y138.6 E0.25162
G1 E-3.5 F3600
;WIPE_START
G1 F7200
G1 X142.317 Y136.479 E-1.425
;WIPE_END
G1 E-0.075 F3600
G1 X147.132 Y142.023 F9000
G1 E5 F2400
G1 F1200
G1 X145.509 Y140.4 E0.15383
G1 X145.355 Y140.288 E0.01277
G1 X144.217 Y139.781 E0.08351
G1 X144.217 Y139.107 E0.04515
G1 X141.783 Y136.674 E0.23062
G1 X141.783 Y137.403 E0.04885
G1 X147.131 Y142.75 E0.50683
G1 X147.209 Y143.5 E0.05054
G1 X147.204 Y143.552 E0.00352
G1 X141.783 Y138.132 E0.51378
G1 X141.783 Y138.861 E0.04885
G1 X147.135 Y144.212 E0.50721
G1 X147.128 Y144.271 E0.00402
G1 X146.966 Y144.772 E0.03526
G1 X141.783 Y139.589 E0.49121
G1 X141.783 Y140.318 E0.04885
G1 X146.737 Y145.272 E0.46952
G1 X146.501 Y145.68 E0.03164
G1 X146.461 Y145.725 E0.00399
G1 X141.783 Y141.047 E0.44338
G1 X141.783 Y141.776 E0.04885
G1 X146.116 Y146.108 E0.41065
G1 X145.982 Y146.257 E0.0134
G1 X145.724 Y146.444 E0.02142
G1 X141.063 Y141.784 E0.4418
G1 X140.334 Y141.784 E0.04885
G1 X145.291 Y146.741 E0.46988
G1 X144.787 Y146.965 E0.037
G1 X139.605 Y141.784 E0.49116
G1 X138.876 Y141.784 E0.04885
G1 X144.213 Y147.12 E0.50583
G1 X143.888 Y147.189 E0.02227
G1 X143.553 Y147.189 E0.02243
G1 X138.147 Y141.784 E0.51238
G1 X137.419 Y141.784 E0.04885
G1 X142.747 Y147.111 E0.50501
G1 X142.354 Y147.028 E0.02692
G1 X141.645 Y146.712 E0.05198
G1 X141.549 Y146.642 E0.00801
G1 X140.386 Y145.48 E0.11019
G1 X139.668 Y144.217 E0.09738
G1 X139.123 Y144.217 E0.03655
G1 X136.69 Y141.784 E0.23062
G1 X135.961 Y141.784 E0.04885
G1 X138.394 Y144.217 E0.23062
G1 X137.665 Y144.217 E0.04885
G1 X135.232 Y141.784 E0.23062
G1 X134.504 Y141.784 E0.04885
G1 X136.937 Y144.217 E0.23062
G1 X136.208 Y144.217 E0.04885
G1 X133.775 Y141.784 E0.23062
G1 X133.046 Y141.784 E0.04885
G1 X135.479 Y144.217 E0.23062
G1 X134.75 Y144.217 E0.04885
G1 X132.317 Y141.784 E0.23062
G1 X131.588 Y141.784 E0.04885
G1 X134.021 Y144.217 E0.23062
G1 X133.293 Y144.217 E0.04885
G1 X130.86 Y141.784 E0.23062
G1 X130.131 Y141.784 E0.04885
G1 X132.564 Y144.217 E0.23062
G1 X131.835 Y144.217 E0.04885
G1 X129.402 Y141.783 E0.23062
G1 X128.673 Y141.783 E0.04885
G1 X131.106 Y144.217 E0.23062
G1 X130.377 Y144.217 E0.04885
