; generated by SuperSlicer 2.4 on 2023-03-04 at 00:52:28 UTC


;
;

;
;
; 

; external perimeters extrusion width = 0.45mm
; perimeters extrusion width = 0.45mm
; infill extrusion width = 0.45mm
; solid infill extrusion width = 0.45mm
; top infill extrusion width = 0.40mm
; first layer extrusion width = 0.42mm

; object:{"name":"3","id":"3.5_x_.008_test_.2mm_v0.stl id:0 copy 0","object_center":[0.000000,0.000000,0.000000],"boundingbox_center":[0.000000,0.000000,0.182878],"boundingbox_size":[160.000000,160.000000,0.365755]}
; plater:{"center":[0.000000,0.000000,0.000000],"boundingbox_center":[0.000000,0.000000,0.182878],"boundingbox_size":[160.000000,160.000000,0.365755]}

;TYPE:Custom
START_PRINT
M107
G21 ; set units to millimeters
G90 ; use absolute coordinates
M83 ; use relative distances for extrusion
; Filament gcode
;_TOOLCHANGE 0
M104 S200 ; set temperature
M109 S200 ; set temperature and wait for it to be reached
M190 S60 ; set bed temperature and wait for it to be reached
M107
;LAYER_CHANGE
;Z:0.2
;HEIGHT:0.2
;BEFORE_LAYER_CHANGE
G92 E0
;0.2
G1 E-5 F3600
G1 Z0.2 F10800
;AFTER_LAYER_CHANGE
;0.2
M204 S1000
G1 X-84.712 Y-12.77
G1 E5 F2400
;TYPE:Skirt
;WIDTH:0.52
G1 F1200
G1 X-85.12 Y-10.065 E0.10851
G1 X-85.549 Y-5.297 E0.1899
G1 X-85.713 Y-0.171 E0.20346
G1 X-85.57 Y4.956 E0.20346
G1 X-85.12 Y10.065 E0.20346
G1 X-84.305 Y15.475 E0.21702
G1 X-83.309 Y20.157 E0.1899
G1 X-81.955 Y25.104 E0.20346
G1 X-80.186 Y30.281 E0.21702
G1 X-78.232 Y35.023 E0.20346
G1 X-75.997 Y39.639 E0.20346
G1 X-73.665 Y43.82 E0.1899
G1 X-70.913 Y48.148 E0.20346
G1 X-67.697 Y52.574 E0.21702
G1 X-64.431 Y56.529 E0.20347
G1 X-61.175 Y60.038 E0.18991
G1 X-57.474 Y63.59 E0.20347
G1 X-53.568 Y66.914 E0.20347
G1 X-49.19 Y70.195 E0.21703
G1 X-45.195 Y72.832 E0.18991
G1 X-40.758 Y75.406 E0.20347
G1 X-35.864 Y77.853 E0.21703
G1 X-31.462 Y79.734 E0.18992
G1 X-26.637 Y81.474 E0.20348
G1 X-21.385 Y83.008 E0.21703
G1 X-16.382 Y84.139 E0.20348
G1 X-11.321 Y84.969 E0.20348
G1 X-6.218 Y85.495 E0.20348
G1 X-1.436 Y85.71 E0.18992
G1 X4.035 Y85.628 E0.21704
G1 X9.149 Y85.235 E0.20348
G1 X14.231 Y84.536 E0.20348
G1 X19.261 Y83.535 E0.20348
G1 X23.895 Y82.33 E0.18992
G1 X28.776 Y80.755 E0.20347
G1 X33.555 Y78.891 E0.20348
G1 X38.519 Y76.591 E0.21703
G1 X43.031 Y74.152 E0.20347
G1 X47.389 Y71.447 E0.20347
G1 X51.304 Y68.692 E0.18991
G1 X55.321 Y65.502 E0.20347
G1 X59.387 Y61.841 E0.21703
G1 X62.747 Y58.431 E0.18991
G1 X66.129 Y54.576 E0.20347
G1 X69.275 Y50.525 E0.20347
G1 X72.173 Y46.293 E0.20346
G1 X74.979 Y41.597 E0.21702
G1 X77.333 Y37.04 E0.20346
G1 X79.28 Y32.666 E0.1899
G1 X81.203 Y27.545 E0.21702
G1 X82.705 Y22.641 E0.20346
G1 X83.911 Y17.655 E0.20346
G1 X84.766 Y12.945 E0.1899
G1 X85.388 Y7.854 E0.20346
G1 X85.716 Y2.394 E0.21702
G1 X85.716 Y-2.394 E0.1899
G1 X85.419 Y-7.514 E0.20346
G1 X84.817 Y-12.607 E0.20346
G1 X83.911 Y-17.655 E0.20346
G1 X82.614 Y-22.97 E0.21702
G1 X81.092 Y-27.868 E0.20346
G1 X79.41 Y-32.35 E0.1899
G1 X77.185 Y-37.348 E0.21702
G1 X74.813 Y-41.895 E0.20346
G1 X72.173 Y-46.293 E0.20346
G1 X69.275 Y-50.525 E0.20346
G1 X66.346 Y-54.312 E0.18991
G1 X62.747 Y-58.431 E0.21703
G1 X59.387 Y-61.841 E0.18991
G1 X55.582 Y-65.281 E0.20347
G1 X51.304 Y-68.692 E0.21703
G1 X47.104 Y-71.636 E0.20347
G1 X42.735 Y-74.323 E0.20347
G1 X38.213 Y-76.744 E0.20347
G1 X33.869 Y-78.757 E0.18992
G1 X28.776 Y-80.755 E0.21703
G1 X23.895 Y-82.33 E0.20347
G1 X19.261 Y-83.535 E0.18992
G1 X13.893 Y-84.592 E0.21704
G1 X8.809 Y-85.27 E0.20348
G1 X3.693 Y-85.643 E0.20348
G1 X-1.094 Y-85.715 E0.18992
G1 X-6.218 Y-85.495 E0.20348
G1 X-11.321 Y-84.969 E0.20348
G1 X-16.382 Y-84.139 E0.20348
G1 X-21.716 Y-82.922 E0.21704
G1 X-26.637 Y-81.474 E0.20347
G1 X-31.462 Y-79.734 E0.20348
G1 X-36.175 Y-77.709 E0.20347
G1 X-40.457 Y-75.568 E0.18991
G1 X-45.195 Y-72.832 E0.21703
G1 X-49.19 Y-70.195 E0.18991
G1 X-53.301 Y-67.127 E0.20347
G1 X-57.22 Y-63.818 E0.20347
G1 X-60.935 Y-60.282 E0.20347
G1 X-64.656 Y-56.271 E0.21703
G1 X-67.906 Y-52.303 E0.20347
G1 X-70.913 Y-48.148 E0.20347
G1 X-73.665 Y-43.82 E0.20346
G1 X-75.997 Y-39.639 E0.1899
G1 X-78.371 Y-34.71 E0.21702
G1 X-80.186 Y-30.281 E0.1899
G1 X-81.854 Y-25.431 E0.20346
G1 X-83.228 Y-20.489 E0.20346
G1 X-84.305 Y-15.475 E0.20346
G1 X-84.704 Y-12.829 E0.10613
G1 X-84.233 Y-12.758 F10800
G1 F1200
G1 X-84.645 Y-10.022 E0.10976
G1 X-85.074 Y-5.254 E0.1899
G1 X-85.236 Y-0.157 E0.20233
G1 X-85.074 Y5.254 E0.21476
G1 X-84.645 Y10.022 E0.1899
G1 X-83.894 Y15.067 E0.20233
G1 X-82.843 Y20.058 E0.20233
G1 X-81.495 Y24.977 E0.20233
G1 X-79.745 Y30.1 E0.21476
G1 X-77.802 Y34.816 E0.20233
G1 X-75.58 Y39.407 E0.20233
G1 X-73.088 Y43.857 E0.20233
G1 X-70.51 Y47.891 E0.1899
G1 X-67.328 Y52.271 E0.21476
G1 X-64.081 Y56.204 E0.20233
G1 X-60.825 Y59.713 E0.18991
G1 X-56.912 Y63.455 E0.21476
G1 X-53.014 Y66.745 E0.20234
G1 X-49.184 Y69.617 E0.18991
G1 X-44.665 Y72.599 E0.21477
G1 X-40.243 Y75.141 E0.20234
G1 X-35.677 Y77.414 E0.20234
G1 X-30.983 Y79.41 E0.20234
G1 X-26.476 Y81.025 E0.18992
G1 X-21.279 Y82.543 E0.21477
G1 X-16.304 Y83.668 E0.20234
G1 X-11.581 Y84.453 E0.18992
G1 X-6.509 Y84.995 E0.20235
G1 X-1.414 Y85.233 E0.20235
G1 X3.999 Y85.152 E0.21477
G1 X9.085 Y84.762 E0.20234
G1 X14.139 Y84.068 E0.20235
G1 X18.836 Y83.143 E0.18992
G1 X23.775 Y81.869 E0.20234
G1 X28.629 Y80.302 E0.20234
G1 X33.381 Y78.447 E0.20234
G1 X38.293 Y76.171 E0.21477
G1 X42.78 Y73.746 E0.20234
G1 X46.853 Y71.23 E0.18991
G1 X51.03 Y68.302 E0.20234
G1 X55.023 Y65.129 E0.20234
G1 X59.047 Y61.507 E0.21476
G1 X62.407 Y58.097 E0.18991
G1 X65.77 Y54.262 E0.20234
G1 X68.898 Y50.233 E0.20233
G1 X71.779 Y46.024 E0.20233
G1 X74.556 Y41.377 E0.21476
G1 X76.761 Y37.128 E0.1899
G1 X78.844 Y32.472 E0.20233
G1 X80.747 Y27.404 E0.21476
G1 X82.241 Y22.527 E0.20233
G1 X83.376 Y17.877 E0.1899
G1 X84.296 Y12.86 E0.20233
G1 X84.915 Y7.797 E0.20233
G1 X85.239 Y2.394 E0.21476
G1 X85.229 Y-2.707 E0.20233
G1 X84.915 Y-7.797 E0.20233
G1 X84.343 Y-12.55 E0.1899
G1 X83.442 Y-17.57 E0.20233
G1 X82.158 Y-22.83 E0.21476
G1 X80.645 Y-27.701 E0.20233
G1 X78.963 Y-32.182 E0.1899
G1 X76.761 Y-37.128 E0.21476
G1 X74.556 Y-41.377 E0.1899
G1 X71.948 Y-45.76 E0.20233
G1 X69.082 Y-49.979 E0.20233
G1 X65.969 Y-54.02 E0.20233
G1 X62.407 Y-58.097 E0.21476
G1 X59.047 Y-61.507 E0.18991
G1 X55.263 Y-64.926 E0.20234
G1 X51.03 Y-68.302 E0.21477
G1 X46.853 Y-71.23 E0.20234
G1 X42.509 Y-73.903 E0.20234
G1 X38.293 Y-76.171 E0.18991
G1 X33.669 Y-78.324 E0.20234
G1 X28.629 Y-80.302 E0.21477
G1 X23.775 Y-81.869 E0.20234
G1 X18.836 Y-83.143 E0.20234
G1 X13.829 Y-84.119 E0.20235
G1 X9.085 Y-84.762 E0.18992
G1 X3.686 Y-85.166 E0.21477
G1 X-1.101 Y-85.238 E0.18992
G1 X-6.197 Y-85.018 E0.20235
G1 X-11.581 Y-84.453 E0.21477
G1 X-16.612 Y-83.608 E0.20234
G1 X-21.582 Y-82.464 E0.20235
G1 X-26.476 Y-81.025 E0.20234
G1 X-30.983 Y-79.41 E0.18992
G1 X-35.961 Y-77.282 E0.21477
G1 X-40.519 Y-74.992 E0.20234
G1 X-44.932 Y-72.434 E0.20234
G1 X-49.184 Y-69.617 E0.20234
G1 X-53.014 Y-66.745 E0.18991
G1 X-56.912 Y-63.455 E0.20234
G1 X-60.605 Y-59.937 E0.20234
G1 X-64.287 Y-55.968 E0.21476
G1 X-67.52 Y-52.023 E0.20233
G1 X-70.51 Y-47.891 E0.20233
G1 X-73.088 Y-43.857 E0.1899
G1 X-75.58 Y-39.407 E0.20233
G1 X-77.929 Y-34.529 E0.21476
G1 X-79.745 Y-30.1 E0.1899
G1 X-81.402 Y-25.276 E0.20233
G1 X-82.768 Y-20.362 E0.20233
G1 X-83.838 Y-15.375 E0.20233
G1 X-84.224 Y-12.818 E0.10262
G1 E-3.5 F3600
;WIPE_START
G1 F8640
G1 X-84.645 Y-10.022 E-1.11898
G1 X-84.714 Y-9.252 E-0.30603
;WIPE_END
G1 E-0.075 F3600
; printing object 3.5_x_.008_test_.2mm_v0.stl id:0 copy 0
; acceleration to travel
M204 S1500
G1 X-79.488 Y-11.511 F10800
; decel to extrusion
M204 S800
G1 X-78.472 Y-11.951
; end travel
G1 E5 F2400
;TYPE:Internal perimeter
;WIDTH:0.42
G1 F1200
G1 X-78.136 Y-14.181 E0.07073
G1 X-77.148 Y-18.829 E0.14899
G1 X-75.884 Y-23.41 E0.14899
G1 X-74.348 Y-27.907 E0.14899
G1 X-72.546 Y-32.304 E0.14899
G1 X-70.484 Y-36.585 E0.149
G1 X-68.169 Y-40.735 E0.149
G1 X-65.611 Y-44.74 E0.149
G1 X-62.817 Y-48.584 E0.149
G1 X-59.799 Y-52.255 E0.149
G1 X-56.567 Y-55.738 E0.149
G1 X-53.132 Y-59.022 E0.149
G1 X-49.506 Y-62.094 E0.149
G1 X-45.704 Y-64.945 E0.149
G1 X-41.737 Y-67.562 E0.149
G1 X-37.622 Y-69.938 E0.149
G1 X-33.371 Y-72.064 E0.149
G1 X-29.001 Y-73.931 E0.14901
G1 X-24.528 Y-75.534 E0.14901
G1 X-19.966 Y-76.867 E0.14901
G1 X-15.333 Y-77.924 E0.14901
G1 X-10.644 Y-78.703 E0.14901
G1 X-5.918 Y-79.2 E0.14901
G1 X-1.17 Y-79.413 E0.14901
G1 X3.582 Y-79.342 E0.14901
G1 X8.321 Y-78.987 E0.14901
G1 X13.03 Y-78.349 E0.14901
G1 X17.693 Y-77.43 E0.14901
G1 X22.292 Y-76.235 E0.14901
G1 X26.812 Y-74.766 E0.14901
G1 X31.236 Y-73.03 E0.14901
G1 X35.548 Y-71.033 E0.14901
G1 X39.733 Y-68.781 E0.149
G1 X43.776 Y-66.283 E0.149
G1 X47.662 Y-63.548 E0.149
G1 X51.378 Y-60.585 E0.149
G1 X54.909 Y-57.406 E0.149
G1 X58.245 Y-54.02 E0.149
G1 X61.371 Y-50.442 E0.149
G1 X64.279 Y-46.683 E0.149
G1 X66.956 Y-42.757 E0.149
G1 X69.393 Y-38.677 E0.149
G1 X71.582 Y-34.46 E0.14899
G1 X73.515 Y-30.119 E0.14899
G1 X75.185 Y-25.67 E0.14899
G1 X76.586 Y-21.129 E0.14899
G1 X77.713 Y-16.513 E0.14899
G1 X78.561 Y-11.837 E0.14899
G1 X79.129 Y-7.119 E0.14899
G1 X79.413 Y-2.376 E0.14899
G1 X79.413 Y2.376 E0.14899
G1 X79.129 Y7.119 E0.14899
G1 X78.561 Y11.837 E0.14899
G1 X77.713 Y16.513 E0.14899
G1 X76.586 Y21.129 E0.14899
G1 X75.185 Y25.67 E0.14899
G1 X73.515 Y30.119 E0.14899
G1 X71.582 Y34.46 E0.14899
G1 X69.393 Y38.677 E0.14899
G1 X66.956 Y42.757 E0.149
G1 X64.279 Y46.683 E0.149
G1 X61.371 Y50.442 E0.149
G1 X58.245 Y54.02 E0.149
G1 X54.909 Y57.406 E0.149
G1 X51.378 Y60.585 E0.149
G1 X47.662 Y63.548 E0.149
G1 X43.776 Y66.283 E0.149
G1 X39.733 Y68.781 E0.149
G1 X35.548 Y71.033 E0.149
G1 X31.236 Y73.03 E0.14901
G1 X26.812 Y74.766 E0.14901
G1 X22.292 Y76.235 E0.14901
G1 X17.693 Y77.43 E0.14901
G1 X13.03 Y78.349 E0.14901
G1 X8.321 Y78.987 E0.14901
G1 X3.582 Y79.342 E0.14901
G1 X-1.17 Y79.413 E0.14901
G1 X-5.918 Y79.2 E0.14901
G1 X-10.644 Y78.703 E0.14901
G1 X-15.333 Y77.924 E0.14901
G1 X-19.966 Y76.867 E0.14901
G1 X-24.528 Y75.534 E0.14901
G1 X-29.001 Y73.931 E0.14901
G1 X-33.371 Y72.064 E0.14901
G1 X-37.622 Y69.938 E0.149
G1 X-41.737 Y67.562 E0.149
G1 X-45.704 Y64.945 E0.149
G1 X-49.506 Y62.094 E0.149
G1 X-53.132 Y59.022 E0.149
G1 X-56.567 Y55.738 E0.149
G1 X-59.799 Y52.255 E0.149
G1 X-62.817 Y48.584 E0.149
G1 X-65.611 Y44.74 E0.149
G1 X-68.169 Y40.735 E0.149
G1 X-70.484 Y36.585 E0.149
G1 X-72.546 Y32.304 E0.149
G1 X-74.348 Y27.907 E0.14899
G1 X-75.884 Y23.41 E0.14899
G1 X-77.148 Y18.829 E0.14899
G1 X-78.136 Y14.181 E0.14899
G1 X-78.844 Y9.482 E0.14899
G1 X-79.27 Y4.75 E0.14899
G1 X-79.413 Y0 E0.14899
G1 X-79.27 Y-4.75 E0.14899
G1 X-78.844 Y-9.482 E0.14899
G1 X-78.481 Y-11.891 E0.07638
G1 X-78.845 Y-12.007 F10800
;TYPE:External perimeter
G1 F1200
G1 X-78.507 Y-14.249 E0.07109
G1 X-77.515 Y-18.919 E0.1497
G1 X-76.244 Y-23.521 E0.1497
G1 X-74.701 Y-28.039 E0.1497
G1 X-72.89 Y-32.457 E0.1497
G1 X-70.818 Y-36.759 E0.1497
G1 X-68.493 Y-40.929 E0.1497
G1 X-65.922 Y-44.952 E0.1497
G1 X-63.116 Y-48.815 E0.1497
G1 X-60.083 Y-52.503 E0.14971
G1 X-56.835 Y-56.003 E0.14971
G1 X-53.384 Y-59.302 E0.14971
G1 X-49.741 Y-62.389 E0.14971
G1 X-45.921 Y-65.253 E0.14971
G1 X-41.936 Y-67.883 E0.14971
G1 X-37.801 Y-70.271 E0.14971
G1 X-33.53 Y-72.406 E0.14971
G1 X-29.139 Y-74.283 E0.14971
G1 X-24.644 Y-75.893 E0.14971
G1 X-20.061 Y-77.232 E0.14971
G1 X-15.405 Y-78.295 E0.14972
G1 X-10.695 Y-79.077 E0.14971
G1 X-5.946 Y-79.576 E0.14972
G1 X-1.176 Y-79.79 E0.14972
G1 X3.598 Y-79.719 E0.14972
G1 X8.36 Y-79.362 E0.14972
G1 X13.092 Y-78.721 E0.14972
G1 X17.777 Y-77.798 E0.14972
G1 X22.398 Y-76.597 E0.14971
G1 X26.939 Y-75.122 E0.14971
G1 X31.384 Y-73.377 E0.14971
G1 X35.717 Y-71.37 E0.14971
G1 X39.922 Y-69.108 E0.14971
G1 X43.984 Y-66.598 E0.14971
G1 X47.888 Y-63.85 E0.14971
G1 X51.622 Y-60.873 E0.14971
G1 X55.17 Y-57.678 E0.14971
G1 X58.521 Y-54.277 E0.14971
G1 X61.663 Y-50.682 E0.14971
G1 X64.584 Y-46.905 E0.14971
G1 X67.274 Y-42.96 E0.1497
G1 X69.723 Y-38.861 E0.1497
G1 X71.922 Y-34.623 E0.1497
G1 X73.864 Y-30.262 E0.1497
G1 X75.542 Y-25.792 E0.1497
G1 X76.95 Y-21.229 E0.1497
G1 X78.082 Y-16.591 E0.1497
G1 X78.934 Y-11.893 E0.1497
G1 X79.504 Y-7.153 E0.1497
G1 X79.79 Y-2.387 E0.1497
G1 X79.79 Y2.387 E0.1497
G1 X79.504 Y7.153 E0.1497
G1 X78.934 Y11.893 E0.1497
G1 X78.082 Y16.591 E0.1497
G1 X76.95 Y21.229 E0.1497
G1 X75.542 Y25.792 E0.1497
G1 X73.864 Y30.262 E0.1497
G1 X71.922 Y34.623 E0.1497
G1 X69.723 Y38.861 E0.1497
G1 X67.274 Y42.96 E0.1497
G1 X64.584 Y46.905 E0.1497
G1 X61.663 Y50.682 E0.14971
G1 X58.521 Y54.277 E0.14971
G1 X55.17 Y57.678 E0.14971
G1 X51.622 Y60.873 E0.14971
G1 X47.888 Y63.85 E0.14971
G1 X43.984 Y66.598 E0.14971
G1 X39.922 Y69.108 E0.14971
G1 X35.717 Y71.37 E0.14971
G1 X31.384 Y73.377 E0.14971
G1 X26.939 Y75.122 E0.14971
G1 X22.398 Y76.597 E0.14971
G1 X17.777 Y77.798 E0.14971
G1 X13.092 Y78.721 E0.14972
G1 X8.36 Y79.362 E0.14972
G1 X3.598 Y79.719 E0.14972
G1 X-1.176 Y79.79 E0.14972
G1 X-5.946 Y79.576 E0.14972
G1 X-10.695 Y79.077 E0.14972
G1 X-15.405 Y78.295 E0.14971
G1 X-20.061 Y77.232 E0.14972
G1 X-24.644 Y75.893 E0.14971
G1 X-29.139 Y74.283 E0.14971
G1 X-33.53 Y72.406 E0.14971
G1 X-37.801 Y70.271 E0.14971
G1 X-41.936 Y67.883 E0.14971
G1 X-45.921 Y65.253 E0.14971
G1 X-49.741 Y62.389 E0.14971
G1 X-53.384 Y59.302 E0.14971
G1 X-56.835 Y56.003 E0.14971
G1 X-60.083 Y52.503 E0.14971
G1 X-63.116 Y48.815 E0.14971
G1 X-65.922 Y44.952 E0.1497
G1 X-68.493 Y40.929 E0.1497
G1 X-70.818 Y36.759 E0.1497
G1 X-72.89 Y32.457 E0.1497
G1 X-74.701 Y28.039 E0.1497
G1 X-76.244 Y23.521 E0.1497
G1 X-77.515 Y18.919 E0.1497
G1 X-78.507 Y14.249 E0.1497
G1 X-79.219 Y9.528 E0.1497
G1 X-79.647 Y4.772 E0.1497
G1 X-79.79 Y0 E0.1497
G1 X-79.647 Y-4.772 E0.1497
G1 X-79.219 Y-9.528 E0.1497
G1 X-78.854 Y-11.947 E0.07673
;WIPE_START
M204 S1000
G1 X-78.473 Y-12.153 F10800
;WIPE_END
G1 E-3.5 F3600
;WIPE_START
G1 F8640
G1 X-78.31 Y-14.213 E-0.81795
G1 X-77.992 Y-15.713 E-0.60705
;WIPE_END
G1 E-0.075 F3600
; acceleration to travel
M204 S1500
G1 X32.604 Y-45.257 F10800
; decel to extrusion
M204 S1000
G1 X59.478 Y-52.436
; end travel
G1 E5 F2400
;TYPE:Solid infill
;WIDTH:0.420081
G1 F1200
G1 X54.612 Y-57.303 E0.21583
G1 X51.2 Y-60.375 E0.14399
G1 X50.247 Y-61.135 E0.03822
G1 X61.309 Y-50.072 E0.49062
G1 X63.129 Y-47.719 E0.09329
G1 X47.615 Y-63.234 E0.68806
G1 X47.497 Y-63.328 E0.00472
G1 X45.777 Y-64.538 E0.06596
G1 X64.617 Y-45.698 E0.83555
G1 X65.76 Y-44.022 E0.06363
G1 X43.976 Y-65.806 E0.9661
G1 X43.624 Y-66.053 E0.0135
G1 X42.501 Y-66.747 E0.04139
G1 X66.848 Y-42.401 E1.07976
G1 X67.639 Y-41.076 E0.04841
G1 X41.106 Y-67.609 E1.17677
G1 X39.71 Y-68.472 E0.05145
G1 X68.431 Y-39.751 E1.27378
G1 X69.153 Y-38.543 E0.04412
G1 X69.204 Y-38.445 E0.00347
G1 X38.536 Y-69.113 E1.36012
G1 X37.382 Y-69.734 E0.04111
G1 X69.779 Y-37.336 E1.43684
G1 X70.355 Y-36.227 E0.03918
G1 X36.227 Y-70.355 E1.51356
G1 X35.425 Y-70.787 E0.02856
G1 X35.122 Y-70.927 E0.01048
G1 X70.93 Y-35.119 E1.58811
G1 X71.334 Y-34.34 E0.02751
G1 X71.462 Y-34.054 E0.00983
G1 X34.128 Y-71.387 E1.65574
G1 X33.135 Y-71.847 E0.03434
G1 X71.89 Y-33.093 E1.71879
G1 X72.318 Y-32.131 E0.033
G1 X32.141 Y-72.308 E1.78183
G1 X31.148 Y-72.768 E0.03434
G1 X72.746 Y-31.17 E1.84488
G1 X73.174 Y-30.209 E0.033
G1 X30.268 Y-73.115 E1.90289
G1 X29.39 Y-73.459 E0.02957
G1 X73.516 Y-29.333 E1.957
G1 X73.837 Y-28.479 E0.0286
G1 X28.513 Y-73.803 E2.01013
G1 X27.635 Y-74.148 E0.02957
G1 X74.157 Y-27.626 E2.06327
G1 X74.478 Y-26.772 E0.0286
G1 X26.757 Y-74.492 E2.11641
G1 X26.719 Y-74.507 E0.00127
G1 X25.963 Y-74.753 E0.02492
G1 X74.798 Y-25.918 E2.16582
G1 X74.925 Y-25.581 E0.0113
G1 X75.068 Y-25.114 E0.0153
G1 X25.174 Y-75.009 E2.21285
G1 X24.384 Y-75.266 E0.02605
G1 X75.306 Y-24.343 E2.25843
G1 X75.544 Y-23.572 E0.02531
G1 X23.594 Y-75.523 E2.30402
G1 X22.804 Y-75.779 E0.02605
G1 X75.782 Y-22.801 E2.3496
G1 X76.02 Y-22.03 E0.02531
G1 X22.032 Y-76.018 E2.3944
G1 X21.311 Y-76.206 E0.02335
G1 X76.258 Y-21.259 E2.43691
G1 X76.321 Y-21.056 E0.00666
G1 X76.447 Y-20.536 E0.01678
G1 X20.591 Y-76.393 E2.47727
G1 X19.87 Y-76.58 E0.02335
G1 X76.62 Y-19.83 E2.51686
G1 X76.792 Y-19.125 E0.02277
