; generated by SuperSlicer 2.4 on 2023-02-27 at 02:46:02 UTC

; 

; external perimeters extrusion width = 0.45mm
; perimeters extrusion width = 0.45mm
; infill extrusion width = 0.45mm
; solid infill extrusion width = 0.45mm
; top infill extrusion width = 0.40mm
; first layer extrusion width = 0.42mm

; object:{"name":"3DBenchy","id":"3DBenchy.stl id:0 copy 0","object_center":[0.000000,0.000000,0.000000],"boundingbox_center":[0.000000,0.000000,24.000000],"boundingbox_size":[60.000999,31.004000,48.000000]}
; plater:{"center":[0.000000,0.000000,0.000000],"boundingbox_center":[0.000000,0.000000,24.000000],"boundingbox_size":[60.000999,31.004000,48.000000]}

;TYPE:Custom
START_PRINT
M107
G21 ; set units to millimeters
G90 ; use absolute coordinates
M83 ; use relative distances for extrusion
; Filament gcode
;_TOOLCHANGE 0
M104 S200 ; set temperature
M109 S200 ; set temperature and wait for it to be reached
M190 S60 ; set bed temperature and wait for it to be reached
M107
;LAYER_CHANGE
;Z:0.2
;HEIGHT:0.2
;BEFORE_LAYER_CHANGE
G92 E0
;0.2
G1 E-5 F3600
G1 Z0.2 F10800
;AFTER_LAYER_CHANGE
;0.2
M204 S1000
G1 X-0.833 Y13.766
G1 E5 F2400
;TYPE:Skirt
;WIDTH:0.52
G1 F1200
G1 X-0.081 Y13.812 E0.02991
G1 X1.26 Y13.778 E0.05319
G1 X3.401 Y13.539 E0.08546
G1 X5.104 Y13.183 E0.06903
G1 X6.471 Y12.787 E0.05647
G1 X7.692 Y12.344 E0.05151
G1 X9.644 Y11.444 E0.08528
G1 X10.707 Y10.844 E0.04841
G1 X12.394 Y9.708 E0.0807
G1 X14.444 Y7.952 E0.10706
G1 X15.863 Y6.419 E0.08286
G1 X17.447 Y4.249 E0.1066
G1 X17.923 Y3.45 E0.0369
G1 X18.406 Y2.387 E0.04631
G1 X18.785 Y0.761 E0.06624
G1 X18.773 Y-0.87 E0.06467
G1 X18.435 Y-2.315 E0.05888
G1 X17.87 Y-3.541 E0.05355
G1 X16.382 Y-5.769 E0.10628
G1 X14.65 Y-7.748 E0.10434
G1 X12.881 Y-9.331 E0.09417
G1 X10.573 Y-10.924 E0.11125
G1 X8.137 Y-12.161 E0.10838
G1 X5.518 Y-13.074 E0.11001
G1 X2.861 Y-13.621 E0.10762
G1 X0.275 Y-13.81 E0.10283
G1 X-1.182 Y-13.777 E0.05782
G1 X-24.577 Y-12.356 E0.92978
G1 X-25.503 Y-12.235 E0.03705
G1 X-26.628 Y-11.934 E0.04617
G1 X-27.876 Y-11.366 E0.05441
G1 X-28.717 Y-10.8 E0.04022
G1 X-29.7 Y-9.878 E0.05345
G1 X-30.32 Y-9.076 E0.04024
G1 X-30.856 Y-8.127 E0.0432
G1 X-31.241 Y-7.138 E0.04214
G1 X-31.461 Y-6.211 E0.0378
G1 X-31.585 Y-4.965 E0.04965
G1 X-31.558 Y5.501 E0.41518
G1 X-31.426 Y6.418 E0.03677
G1 X-31.164 Y7.374 E0.0393
G1 X-30.763 Y8.318 E0.04069
G1 X-30.001 Y9.51 E0.05612
G1 X-29.151 Y10.435 E0.04982
G1 X-28.514 Y10.952 E0.03255
G1 X-27.672 Y11.48 E0.03943
G1 X-26.596 Y11.95 E0.04658
G1 X-25.179 Y12.292 E0.05783
G1 X-0.893 Y13.763 E0.96516
G1 X-0.865 Y13.288 F10800
G1 F1200
G1 X-0.089 Y13.335 E0.03083
G1 X1.221 Y13.302 E0.05197
G1 X3.333 Y13.067 E0.08432
G1 X4.975 Y12.724 E0.06654
G1 X6.313 Y12.337 E0.05523
G1 X7.504 Y11.906 E0.05028
G1 X9.43 Y11.018 E0.08413
G1 X10.452 Y10.441 E0.04654
G1 X12.102 Y9.331 E0.07889
G1 X13.641 Y8.057 E0.07925
G1 X15.492 Y6.12 E0.10629
G1 X17.048 Y3.986 E0.10477
G1 X17.511 Y3.209 E0.03587
G1 X17.954 Y2.235 E0.04245
G1 X18.31 Y0.719 E0.06179
G1 X18.301 Y-0.8 E0.06025
G1 X17.987 Y-2.149 E0.05494
G1 X17.462 Y-3.294 E0.04996
G1 X16.011 Y-5.469 E0.10373
G1 X14.319 Y-7.404 E0.10196
G1 X12.574 Y-8.965 E0.09291
G1 X10.321 Y-10.519 E0.10858
G1 X7.939 Y-11.726 E0.10592
G1 X5.382 Y-12.617 E0.1074
G1 X2.786 Y-13.15 E0.10515
G1 X0.258 Y-13.333 E0.10053
G1 X-24.548 Y-11.88 E0.98575
G1 X-25.427 Y-11.764 E0.03518
G1 X-26.458 Y-11.488 E0.04232
G1 X-27.631 Y-10.957 E0.0511
G1 X-28.418 Y-10.428 E0.03759
G1 X-29.348 Y-9.555 E0.0506
G1 X-29.927 Y-8.805 E0.03762
G1 X-30.428 Y-7.916 E0.04046
G1 X-30.788 Y-6.989 E0.03944
G1 X-30.99 Y-6.139 E0.03464
G1 X-31.108 Y-4.965 E0.04683
G1 X-31.082 Y5.469 E0.41389
G1 X-30.957 Y6.33 E0.03452
G1 X-30.71 Y7.225 E0.03684
G1 X-30.334 Y8.109 E0.0381
G1 X-29.617 Y9.226 E0.05268
G1 X-28.825 Y10.087 E0.0464
G1 X-27.453 Y11.056 E0.06664
G1 X-26.434 Y11.502 E0.04412
G1 X-25.12 Y11.819 E0.0536
G1 X-0.924 Y13.284 E0.96159
G1 E-3.5 F3600
;WIPE_START
G1 F8640
G1 X-0.089 Y13.335 E-0.33139
G1 X1.221 Y13.302 E-0.51859
G1 X2.665 Y13.141 E-0.57503
;WIPE_END
G1 E-0.075 F3600
; printing object 3DBenchy.stl id:0 copy 0
; acceleration to travel
M204 S1500
G1 X-0.163 Y5.184 F10800
; decel to extrusion
M204 S800
G1 X-0.713 Y3.637
; end travel
G1 E5 F2400
;TYPE:Internal perimeter
;WIDTH:0.42
G1 F1200
G1 X-0.408 Y3.497 E0.01053
G1 X-0.173 Y3.264 E0.01039
G1 X0.125 Y2.843 E0.01616
G1 X0.246 Y3.062 E0.00785
G1 X0.481 Y3.386 E0.01256
G1 X0.747 Y3.586 E0.01042
G1 X1.074 Y3.685 E0.01073
G1 X1.418 Y3.677 E0.0108
G1 X1.754 Y3.568 E0.01106
G1 X2.078 Y3.307 E0.01304
G1 X2.244 Y2.974 E0.01165
G1 X2.287 Y2.626 E0.01102
G1 X2.234 Y2.272 E0.0112
G1 X2.069 Y1.904 E0.01267
G1 X1.361 Y0.725 E0.0431
G1 X1.428 Y0.565 E0.00544
G1 X2.169 Y-0.688 E0.04564
G1 X2.271 Y-0.329 E0.01169
G1 X2.577 Y0.414 E0.02519
G1 X3.172 Y2.022 E0.05377
G1 X3.433 Y2.618 E0.02041
G1 X3.452 Y2.714 E0.00308
G1 X3.422 Y2.827 E0.00365
G1 X3.245 Y3.197 E0.01287
G1 X3.033 Y3.752 E0.01864
G1 X2.944 Y3.9 E0.00542
G1 X2.823 Y4.003 E0.00496
G1 X2.737 Y4.041 E0.00295
G1 X2.231 Y4.187 E0.01651
G1 X1.955 Y4.366 E0.01033
G1 X1.76 Y4.65 E0.0108
G1 X1.695 Y4.97 E0.01022
G1 X1.709 Y5.202 E0.0073
G1 X1.764 Y5.432 E0.0074
G1 X1.91 Y5.737 E0.01059
G1 X2.186 Y6.023 E0.01248
G1 X2.436 Y6.148 E0.00875
G1 X2.741 Y6.21 E0.00976
G1 X3.065 Y6.195 E0.01018
G1 X3.413 Y6.116 E0.01117
G1 X3.675 Y6.026 E0.00871
G1 X4.004 Y5.864 E0.01149
G1 X4.35 Y5.584 E0.01395
G1 X4.566 Y5.307 E0.01104
G1 X4.706 Y5.072 E0.00856
G1 X4.989 Y4.448 E0.0215
G1 X5.376 Y3.451 E0.03351
G1 X6.331 Y0.783 E0.08886
G1 X6.54 Y0.147 E0.02098
G1 X6.804 Y-0.455 E0.02061
G1 X6.994 Y-0.21 E0.00969
G1 X7.279 Y-0.055 E0.0102
G1 X7.505 Y0.012 E0.00736
G1 X8.025 Y0.069 E0.01643
G1 X6.984 Y1.504 E0.05561
G1 X6.789 Y1.825 E0.01176
G1 X6.663 Y2.131 E0.01039
G1 X6.607 Y2.457 E0.01035
G1 X6.632 Y2.805 E0.01094
G1 X6.783 Y3.215 E0.01372
G1 X7.094 Y3.541 E0.01411
G1 X7.403 Y3.661 E0.0104
G1 X7.638 Y3.691 E0.00745
G1 X8.239 Y3.661 E0.01886
G1 X9.822 Y3.666 E0.04962
G1 X9.094 Y4.292 E0.03011
G1 X8.543 Y4.719 E0.02185
G1 X8.046 Y5.07 E0.01908
G1 X7.351 Y5.509 E0.02577
G1 X6.806 Y5.816 E0.01961
G1 X6.099 Y6.171 E0.0248
G1 X5.232 Y6.541 E0.02956
G1 X4.394 Y6.837 E0.02787
G1 X3.424 Y7.108 E0.03159
G1 X2.494 Y7.302 E0.0298
G1 X1.65 Y7.422 E0.02673
G1 X0.767 Y7.494 E0.02777
G1 X-0.171 Y7.51 E0.0294
G1 X-0.822 Y7.485 E0.02046
G1 X-24.167 Y6.066 E0.73329
G1 X-24.479 Y6.012 E0.00994
G1 X-24.751 Y5.893 E0.00929
G1 X-24.87 Y5.81 E0.00455
G1 X-24.962 Y5.723 E0.00397
G1 X-25.121 Y5.508 E0.00841
G1 X-25.187 Y5.373 E0.0047
G1 X-25.24 Y5.211 E0.00533
G1 X-25.272 Y5.039 E0.0055
G1 X-25.285 Y4.859 E0.00565
G1 X-25.284 Y2.17 E0.08432
G1 X-25.063 Y2.108 E0.00718
G1 X-24.885 Y2.403 E0.01081
G1 X-24.708 Y2.63 E0.009
G1 X-24.512 Y2.838 E0.00898
G1 X-24.188 Y3.106 E0.01316
G1 X-23.725 Y3.372 E0.01676
G1 X-23.446 Y3.482 E0.0094
G1 X-23.134 Y3.569 E0.01016
G1 X-22.833 Y3.619 E0.00957
G1 X-22.368 Y3.644 E0.0146
G1 X-21.929 Y3.615 E0.01379
G1 X-21.536 Y3.539 E0.01255
G1 X-21.178 Y3.411 E0.01193
G1 X-20.941 Y3.287 E0.00837
G1 X-20.65 Y3.079 E0.01122
G1 X-20.389 Y2.808 E0.0118
G1 X-20.143 Y2.405 E0.01479
G1 X-20.019 Y1.972 E0.01412
G1 X-20.166 Y1.499 E0.01556
G1 X-20.481 Y1.17 E0.01429
G1 X-20.887 Y0.986 E0.01396
G1 X-21.234 Y0.946 E0.01094
G1 X-21.546 Y0.999 E0.00994
G1 X-21.76 Y1.096 E0.00735
G1 X-21.935 Y1.226 E0.00685
G1 X-22.091 Y1.41 E0.00758
G1 X-22.314 Y1.467 E0.00721
G1 X-22.54 Y1.468 E0.0071
G1 X-22.689 Y1.437 E0.00474
G1 X-22.885 Y1.352 E0.00671
G1 X-23.023 Y1.244 E0.00551
G1 X-23.141 Y1.088 E0.0061
G1 X-23.222 Y0.912 E0.00607
G1 X-23.29 Y0.667 E0.00797
G1 X-23.333 Y0.364 E0.00962
G1 X-23.351 Y-0.076 E0.01379
G1 X-23.329 Y-0.476 E0.01256
G1 X-23.283 Y-0.768 E0.00927
G1 X-23.216 Y-0.993 E0.00736
G1 X-23.141 Y-1.156 E0.00563
G1 X-23.019 Y-1.32 E0.00641
G1 X-22.925 Y-1.4 E0.00389
G1 X-22.796 Y-1.472 E0.00462
G1 X-22.657 Y-1.519 E0.00461
G1 X-22.45 Y-1.542 E0.00653
G1 X-22.4 Y-1.537 E0.00157
G1 X-22.327 Y-1.516 E0.00239
G1 X-21.64 Y-1.128 E0.02474
G1 X-21.328 Y-1.029 E0.01028
G1 X-21 Y-1.011 E0.01029
G1 X-20.663 Y-1.115 E0.01106
G1 X-20.394 Y-1.32 E0.01061
G1 X-20.232 Y-1.532 E0.00837
G1 X-20.071 Y-1.896 E0.01247
G1 X-19.81 Y-1.586 E0.01271
G1 X-19.521 Y-1.423 E0.01042
G1 X-19.195 Y-1.365 E0.01037
G1 X-18.447 Y-1.442 E0.02358
G1 X-18.269 Y-1.433 E0.00558
G1 X-18.305 Y-0.865 E0.01784
G1 X-18.288 Y1.918 E0.08727
G1 X-18.33 Y2.607 E0.02165
G1 X-18.26 Y2.908 E0.00968
G1 X-18.113 Y3.159 E0.00912
G1 X-17.776 Y3.404 E0.01307
G1 X-17.322 Y3.506 E0.01457
G1 X-16.895 Y3.448 E0.01353
G1 X-16.588 Y3.281 E0.01095
G1 X-16.358 Y3.021 E0.01089
G1 X-16.229 Y2.723 E0.01019
G1 X-16.17 Y2.397 E0.01038
G1 X-16.187 Y-1.418 E0.11963
G1 X-15.498 Y-1.407 E0.02159
G1 X-15.111 Y-1.448 E0.01221
G1 X-14.8 Y-1.545 E0.01023
G1 X-14.481 Y-1.789 E0.01258
G1 X-14.379 Y-1.979 E0.00677
G1 X-14.05 Y-1.521 E0.0177
G1 X-13.757 Y-1.291 E0.01167
G1 X-13.33 Y-1.152 E0.01407
G1 X-13.508 Y-0.946 E0.00853
G1 X-13.624 Y-0.714 E0.00814
G1 X-13.703 Y-0.397 E0.01024
G1 X-13.697 Y-0.064 E0.01044
G1 X-13.577 Y0.279 E0.0114
G1 X-13.275 Y0.565 E0.01301
G1 X-12.972 Y0.681 E0.01019
G1 X-12.468 Y0.773 E0.01606
G1 X-12.385 Y0.8 E0.00273
G1 X-12.258 Y0.865 E0.00448
G1 X-12.149 Y0.951 E0.00435
G1 X-12.063 Y1.05 E0.00412
G1 X-11.987 Y1.192 E0.00503
G1 X-11.966 Y1.29 E0.00315
G1 X-11.976 Y1.392 E0.00321
G1 X-11.996 Y1.443 E0.00174
G1 X-12.03 Y1.492 E0.00187
G1 X-12.068 Y1.526 E0.00161
G1 X-12.186 Y1.583 E0.00411
G1 X-12.667 Y1.238 E0.01854
G1 X-12.959 Y1.132 E0.00975
G1 X-13.305 Y1.092 E0.01092
G1 X-13.732 Y1.168 E0.01362
G1 X-14.106 Y1.402 E0.01382
G1 X-14.343 Y1.795 E0.01437
G1 X-14.39 Y2.244 E0.01416
G1 X-14.313 Y2.604 E0.01156
G1 X-14.118 Y2.963 E0.0128
G1 X-13.859 Y3.214 E0.01131
G1 X-13.57 Y3.39 E0.01061
G1 X-13.225 Y3.521 E0.01158
G1 X-12.861 Y3.603 E0.01169
G1 X-12.576 Y3.636 E0.009
G1 X-12.125 Y3.643 E0.01413
G1 X-11.698 Y3.6 E0.01346
G1 X-11.209 Y3.467 E0.01588
G1 X-10.751 Y3.224 E0.01626
G1 X-10.359 Y2.888 E0.01619
G1 X-10.048 Y2.466 E0.01644
G1 X-9.865 Y2.088 E0.01318
G1 X-9.72 Y1.568 E0.01693
G1 X-9.456 Y1.607 E0.00838
G1 X-9.475 Y2.278 E0.02104
G1 X-9.446 Y2.61 E0.01044
G1 X-9.355 Y2.919 E0.01011
G1 X-9.187 Y3.194 E0.0101
G1 X-8.944 Y3.391 E0.00979
G1 X-8.702 Y3.482 E0.00814
G1 X-8.41 Y3.506 E0.00917
G1 X-7.952 Y3.463 E0.01443
G1 X-7.142 Y3.471 E0.02539
G1 X-6.589 Y3.443 E0.01738
G1 X-6 Y3.348 E0.01869
G1 X-5.511 Y3.183 E0.01619
G1 X-5.156 Y2.983 E0.01274
G1 X-4.792 Y2.709 E0.01431
G1 X-4.669 Y3.045 E0.01122
G1 X-4.522 Y3.294 E0.00908
G1 X-4.288 Y3.553 E0.01093
G1 X-4.013 Y3.75 E0.01061
G1 X-3.748 Y3.868 E0.00909
G1 X-3.477 Y3.934 E0.00876
G1 X-3.198 Y3.953 E0.00878
G1 X-2.919 Y3.923 E0.00878
G1 X-2.636 Y3.84 E0.00926
G1 X-2.291 Y3.647 E0.01239
G1 X-2.071 Y3.45 E0.00925
G1 X-1.854 Y3.172 E0.01106
G1 X-1.638 Y3.426 E0.01046
G1 X-1.258 Y3.636 E0.01361
G1 X-0.806 Y3.68 E0.01424
G1 X-0.768 Y3.662 E0.00131
G1 E-3.5 F3600
;WIPE_START
G1 F8640
M204 S1000
G1 X-0.408 Y3.497 E-0.15667
G1 X-0.173 Y3.264 E-0.13122
G1 X0.125 Y2.843 E-0.20403
G1 X0.246 Y3.062 E-0.09907
G1 X0.481 Y3.386 E-0.15862
G1 X0.747 Y3.586 E-0.13154
G1 X1.074 Y3.685 E-0.13543
G1 X1.418 Y3.677 E-0.13628
G1 X1.754 Y3.568 E-0.13963
G1 X2.014 Y3.358 E-0.13252
;WIPE_END
G1 E-0.075 F3600
; acceleration to travel
M204 S1500
G1 X8.238 Y-2.789 F10800
; decel to extrusion
M204 S800
G1 X9.448 Y-3.984
; end travel
G1 E5 F2400
G1 F1200
G1 X9.621 Y-3.838 E0.00709
G1 X10.271 Y-3.214 E0.02826
G1 X10.865 Y-2.569 E0.02748
G1 X11.469 Y-1.821 E0.03014
G1 X11.987 Y-1.087 E0.02818
G1 X12.452 Y-0.321 E0.02809
G1 X12.503 Y-0.183 E0.00463
G1 X12.527 Y-0.02 E0.00516
G1 X12.513 Y0.136 E0.00491
G1 X12.451 Y0.322 E0.00617
G1 X12.178 Y0.79 E0.01697
G1 X11.764 Y1.417 E0.02354
G1 X11.365 Y1.958 E0.02109
G1 X11.131 Y2.248 E0.01167
G1 X10.845 Y1.848 E0.01541
G1 X10.636 Y1.69 E0.00821
G1 X10.276 Y1.554 E0.01208
G1 X9.649 Y1.484 E0.01977
G1 X10.584 Y0.171 E0.05053
G1 X10.844 Y-0.227 E0.01492
G1 X10.979 Y-0.531 E0.01043
G1 X11.047 Y-0.893 E0.01153
G1 X11.027 Y-1.241 E0.01096
G1 X10.91 Y-1.587 E0.01145
G1 X10.755 Y-1.806 E0.0084
G1 X10.485 Y-2.006 E0.01054
G1 X10.095 Y-2.102 E0.01259
G1 X7.894 Y-2.106 E0.06904
G1 X7.631 Y-2.088 E0.00827
G1 X7.334 Y-2.024 E0.00951
G1 X7.048 Y-1.883 E0.00999
G1 X6.746 Y-1.567 E0.01371
G1 X6.579 Y-1.791 E0.00876
G1 X6.319 Y-1.993 E0.0103
G1 X6.002 Y-2.107 E0.01059
G1 X5.659 Y-2.087 E0.01077
G1 X5.36 Y-1.942 E0.01042
G1 X5.128 Y-1.722 E0.01003
G1 X4.936 Y-1.441 E0.01065
G1 X4.779 Y-1.107 E0.01159
G1 X4.64 Y-0.707 E0.01326
G1 X4.419 Y-0.714 E0.00692
G1 X4.259 Y-1.272 E0.0182
G1 X4.135 Y-1.551 E0.00958
G1 X3.931 Y-1.8 E0.0101
G1 X3.65 Y-1.985 E0.01054
G1 X3.363 Y-2.081 E0.0095
G1 X3.019 Y-2.11 E0.01081
G1 X2.614 Y-2.006 E0.01312
G1 X2.347 Y-1.782 E0.01095
G1 X2.163 Y-1.47 E0.01135
G1 X1.897 Y-1.835 E0.01417
G1 X1.523 Y-2.074 E0.01392
G1 X1.074 Y-2.111 E0.01413
G1 X0.687 Y-1.945 E0.01319
G1 X0.432 Y-1.733 E0.0104
G1 X0.165 Y-1.41 E0.01313
G1 X-0.017 Y-1.674 E0.01006
G1 X-0.237 Y-1.887 E0.0096
G1 X-0.44 Y-2.015 E0.00753
G1 X-0.724 Y-2.103 E0.00933
G1 X-0.996 Y-2.106 E0.00851
G1 X-1.4 Y-1.98 E0.01328
G1 X-1.746 Y-1.692 E0.01409
G1 X-1.921 Y-1.286 E0.01389
G1 X-1.898 Y-0.867 E0.01315
G1 X-1.79 Y-0.547 E0.01059
G1 X-1.679 Y-0.323 E0.00785
G1 X-1.204 Y0.513 E0.03013
G1 X-1.039 Y0.762 E0.00938
G1 X-1.295 Y1.124 E0.01392
G1 X-1.696 Y1.826 E0.02535
G1 X-1.98 Y1.385 E0.01645
G1 X-2.173 Y1.179 E0.00885
G1 X-2.396 Y1.013 E0.00873
G1 X-2.647 Y0.886 E0.00882
G1 X-2.932 Y0.802 E0.00929
G1 X-3.325 Y0.777 E0.01236
G1 X-3.613 Y0.822 E0.00914
G1 X-3.886 Y0.914 E0.00905
G1 X-3.807 Y0.369 E0.01729
G1 X-3.792 Y-0.02 E0.0122
G1 X-3.813 Y-0.563 E0.01705
G1 X-3.915 Y-1.207 E0.02044
G1 X-4.001 Y-1.516 E0.01006
G1 X-4.163 Y-1.927 E0.01384
G1 X-4.444 Y-2.405 E0.01739
G1 X-4.759 Y-2.773 E0.01519
G1 X-5.161 Y-3.094 E0.01613
G1 X-5.61 Y-3.313 E0.01566
G1 X-6.139 Y-3.451 E0.01715
G1 X-6.635 Y-3.516 E0.01568
G1 X-8.288 Y-3.554 E0.05184
G1 X-8.658 Y-3.515 E0.01169
G1 X-9.058 Y-3.36 E0.01344
G1 X-9.379 Y-3.048 E0.01404
G1 X-9.499 Y-2.614 E0.01411
G1 X-9.453 Y-1.937 E0.02127
G1 X-9.456 Y0.86 E0.08771
G1 X-9.736 Y0.88 E0.00878
G1 X-9.758 Y0.73 E0.00475
G1 X-9.887 Y0.263 E0.01522
G1 X-10.015 Y-0.094 E0.01187
G1 X-10.176 Y-0.369 E0.00999
G1 X-10.307 Y-0.506 E0.00593
G1 X-10.096 Y-0.846 E0.01255
G1 X-9.984 Y-1.26 E0.01344
G1 X-9.943 Y-1.812 E0.01738
G1 X-9.966 Y-2.177 E0.01145
G1 X-10.089 Y-2.598 E0.01377
G1 X-10.282 Y-2.915 E0.01164
G1 X-10.524 Y-3.176 E0.01116
G1 X-10.733 Y-3.337 E0.00826
G1 X-11.046 Y-3.506 E0.01118
G1 X-11.302 Y-3.597 E0.00849
G1 X-11.671 Y-3.676 E0.01185
G1 X-11.992 Y-3.711 E0.01013
G1 X-12.449 Y-3.712 E0.01431
G1 X-12.799 Y-3.674 E0.01105
G1 X-13.177 Y-3.589 E0.01216
G1 X-13.526 Y-3.452 E0.01173
G1 X-13.756 Y-3.324 E0.00826
G1 X-14.017 Y-3.126 E0.01026
G1 X-14.27 Y-2.83 E0.01223
G1 X-14.477 Y-3.204 E0.0134
G1 X-14.678 Y-3.384 E0.00848
G1 X-14.945 Y-3.504 E0.00917
G1 X-15.176 Y-3.542 E0.00735
G1 X-18.504 Y-3.531 E0.10435
G1 X-19.188 Y-3.577 E0.02149
G1 X-19.498 Y-3.52 E0.00987
G1 X-19.768 Y-3.378 E0.00958
G1 X-20.001 Y-3.13 E0.01068
G1 X-20.211 Y-2.681 E0.01553
G1 X-20.551 Y-3.067 E0.01614
G1 X-20.867 Y-3.309 E0.01247
G1 X-21.197 Y-3.489 E0.01179
G1 X-21.575 Y-3.62 E0.01255
G1 X-22.015 Y-3.697 E0.01399
G1 X-22.685 Y-3.706 E0.02102
G1 X-23.046 Y-3.657 E0.01141
G1 X-23.397 Y-3.57 E0.01135
G1 X-23.894 Y-3.359 E0.01693
G1 X-24.246 Y-3.134 E0.01309
G1 X-24.473 Y-2.945 E0.00924
G1 X-24.75 Y-2.65 E0.01272
G1 X-24.928 Y-2.409 E0.00937
G1 X-25.058 Y-2.18 E0.00828
G1 X-25.283 Y-2.239 E0.00729
G1 X-25.282 Y-4.919 E0.08404
G1 X-25.236 Y-5.222 E0.00958
G1 X-25.187 Y-5.371 E0.00494
G1 X-25.108 Y-5.531 E0.0056
G1 X-25.03 Y-5.645 E0.00435
G1 X-24.919 Y-5.766 E0.00513
G1 X-24.798 Y-5.863 E0.00484
G1 X-24.687 Y-5.929 E0.00407
G1 X-24.444 Y-6.022 E0.00815
G1 X-24.166 Y-6.066 E0.00884
G1 X-0.809 Y-7.486 E0.73369
G1 X0.069 Y-7.511 E0.02754
G1 X1.1 Y-7.474 E0.03235
G1 X1.888 Y-7.394 E0.02483
G1 X2.683 Y-7.268 E0.02524
G1 X3.743 Y-7.027 E0.0341
G1 X4.517 Y-6.797 E0.02529
G1 X5.547 Y-6.414 E0.03447
G1 X6.372 Y-6.039 E0.0284
G1 X7.259 Y-5.563 E0.03157
G1 X7.957 Y-5.129 E0.02579
