; generated by SuperSlicer 2.4 on 2023-02-27 at 02:43:26 UTC

; 

; external perimeters extrusion width = 0.45mm
; perimeters extrusion width = 0.45mm
; infill extrusion width = 0.45mm
; solid infill extrusion width = 0.45mm
; top infill extrusion width = 0.40mm
; first layer extrusion width = 0.42mm

; object:{"name":"calibrate_size","id":"calibrate_size.stl id:0 copy 0","object_center":[0.000000,0.000000,0.000000],"boundingbox_center":[0.000000,0.000000,3.250000],"boundingbox_size":[140.000000,139.233002,6.500000]}
; plater:{"center":[0.000000,0.000000,0.000000],"boundingbox_center":[0.000000,0.000000,3.250000],"boundingbox_size":[140.000000,139.233002,6.500000]}

;TYPE:Custom
START_PRINT
M107
G21 ; set units to millimeters
G90 ; use absolute coordinates
M83 ; use relative distances for extrusion
; Filament gcode
;_TOOLCHANGE 0
M104 S200 ; set temperature
M109 S200 ; set temperature and wait for it to be reached
M190 S60 ; set bed temperature and wait for it to be reached
M107
;LAYER_CHANGE
;Z:0.2
;HEIGHT:0.2
;BEFORE_LAYER_CHANGE
G92 E0
;0.2
G1 E-5 F3600
G1 Z0.2 F10800
;AFTER_LAYER_CHANGE
;0.2
M204 S1000
G1 X0 Y-75.332
G1 E5 F2400
;TYPE:Skirt
;WIDTH:0.52
G1 F1200
G1 X-7.317 Y-75.332 E0.29026
G1 X-8.505 Y-75.207 E0.0474
G1 X-22.82 Y-72.165 E0.58052
G1 X-23.956 Y-71.795 E0.0474
G1 X-37.325 Y-65.843 E0.58052
G1 X-38.36 Y-65.246 E0.0474
G1 X-50.199 Y-56.644 E0.58052
G1 X-51.087 Y-55.845 E0.0474
G1 X-60.879 Y-44.97 E0.58052
G1 X-61.581 Y-44.003 E0.0474
G1 X-68.898 Y-31.329 E0.58052
G1 X-69.384 Y-30.238 E0.0474
G1 X-73.906 Y-16.32 E0.58052
G1 X-74.155 Y-15.151 E0.0474
G1 X-75.684 Y-0.597 E0.58052
G1 X-75.684 Y0.597 E0.0474
G1 X-74.155 Y15.151 E0.58052
G1 X-73.906 Y16.32 E0.0474
G1 X-69.384 Y30.238 E0.58052
G1 X-68.898 Y31.329 E0.0474
G1 X-61.581 Y44.003 E0.58052
G1 X-60.879 Y44.97 E0.0474
G1 X-51.087 Y55.845 E0.58052
G1 X-50.199 Y56.644 E0.0474
G1 X-38.36 Y65.246 E0.58052
G1 X-37.325 Y65.843 E0.0474
G1 X-23.956 Y71.795 E0.58052
G1 X-22.82 Y72.165 E0.0474
G1 X-8.505 Y75.207 E0.58052
G1 X-7.317 Y75.332 E0.0474
G1 X7.317 Y75.332 E0.58052
G1 X8.505 Y75.207 E0.0474
G1 X22.82 Y72.165 E0.58052
G1 X23.956 Y71.795 E0.0474
G1 X37.325 Y65.843 E0.58052
G1 X38.36 Y65.246 E0.0474
G1 X50.199 Y56.644 E0.58052
G1 X51.087 Y55.845 E0.0474
G1 X60.879 Y44.97 E0.58052
G1 X61.581 Y44.003 E0.0474
G1 X68.898 Y31.329 E0.58052
G1 X69.384 Y30.238 E0.0474
G1 X73.906 Y16.32 E0.58052
G1 X74.155 Y15.151 E0.0474
G1 X75.684 Y0.597 E0.58052
G1 X75.684 Y-0.597 E0.0474
G1 X74.155 Y-15.151 E0.58052
G1 X73.906 Y-16.32 E0.0474
G1 X69.384 Y-30.238 E0.58052
G1 X68.898 Y-31.329 E0.0474
G1 X61.581 Y-44.003 E0.58052
G1 X60.879 Y-44.97 E0.0474
G1 X51.087 Y-55.845 E0.58052
G1 X50.199 Y-56.644 E0.0474
G1 X38.36 Y-65.246 E0.58052
G1 X37.325 Y-65.843 E0.0474
G1 X23.956 Y-71.795 E0.58052
G1 X22.82 Y-72.165 E0.0474
G1 X8.505 Y-75.207 E0.58052
G1 X7.317 Y-75.332 E0.0474
G1 X0.06 Y-75.332 E0.28788
G1 X0.06 Y-74.855 F10800
G1 F1200
G1 X-7.317 Y-74.855 E0.29264
G1 X-8.406 Y-74.741 E0.04344
G1 X-22.72 Y-71.698 E0.58052
G1 X-23.762 Y-71.36 E0.04345
G1 X-37.131 Y-65.407 E0.58052
G1 X-38.079 Y-64.86 E0.04344
G1 X-49.918 Y-56.258 E0.58052
G1 X-50.732 Y-55.525 E0.04344
G1 X-60.524 Y-44.65 E0.58052
G1 X-61.168 Y-43.764 E0.04345
G1 X-68.485 Y-31.091 E0.58052
G1 X-68.93 Y-30.09 E0.04345
G1 X-73.452 Y-16.173 E0.58052
G1 X-73.68 Y-15.101 E0.04344
G1 X-75.21 Y-0.548 E0.58052
G1 X-75.21 Y0.548 E0.04345
G1 X-73.68 Y15.101 E0.58052
G1 X-73.452 Y16.173 E0.04344
G1 X-68.93 Y30.09 E0.58052
G1 X-68.485 Y31.091 E0.04345
G1 X-61.168 Y43.764 E0.58052
G1 X-60.524 Y44.65 E0.04345
G1 X-50.732 Y55.525 E0.58052
G1 X-49.918 Y56.258 E0.04344
G1 X-38.079 Y64.86 E0.58052
G1 X-37.131 Y65.407 E0.04344
G1 X-23.762 Y71.36 E0.58052
G1 X-22.72 Y71.698 E0.04345
G1 X-8.406 Y74.741 E0.58052
G1 X-7.317 Y74.855 E0.04344
G1 X7.317 Y74.855 E0.58052
G1 X8.406 Y74.741 E0.04344
G1 X22.72 Y71.698 E0.58052
G1 X23.762 Y71.36 E0.04345
G1 X37.131 Y65.407 E0.58052
G1 X38.079 Y64.86 E0.04344
G1 X49.918 Y56.258 E0.58052
G1 X50.732 Y55.525 E0.04344
G1 X60.524 Y44.65 E0.58052
G1 X61.168 Y43.764 E0.04345
G1 X68.485 Y31.091 E0.58052
G1 X68.93 Y30.09 E0.04345
G1 X73.452 Y16.173 E0.58052
G1 X73.68 Y15.101 E0.04344
G1 X75.21 Y0.548 E0.58052
G1 X75.21 Y-0.548 E0.04345
G1 X73.68 Y-15.101 E0.58052
G1 X73.452 Y-16.173 E0.04344
G1 X68.93 Y-30.09 E0.58052
G1 X68.485 Y-31.091 E0.04345
G1 X61.168 Y-43.764 E0.58052
G1 X60.524 Y-44.65 E0.04345
G1 X50.732 Y-55.525 E0.58052
G1 X49.918 Y-56.258 E0.04344
G1 X38.079 Y-64.86 E0.58052
G1 X37.131 Y-65.407 E0.04344
G1 X23.762 Y-71.36 E0.58052
G1 X22.72 Y-71.698 E0.04345
G1 X8.406 Y-74.741 E0.58052
G1 X7.317 Y-74.855 E0.04344
G1 X0.12 Y-74.855 E0.2855
G1 E-3.5 F3600
;WIPE_START
G1 F8640
G1 X-3.48 Y-74.855 E-1.425
;WIPE_END
G1 E-0.075 F3600
; printing object calibrate_size.stl id:0 copy 0
; acceleration to travel
M204 S1500
G1 X28.075 Y-25.42 F10800
; decel to extrusion
M204 S800
G1 X34.21 Y-15.81
; end travel
G1 E5 F2400
;TYPE:Internal perimeter
;WIDTH:0.42
G1 F1200
G1 X6.826 Y0 E0.99143
G1 X55.614 Y28.168 E1.76638
G1 X57.179 Y25.458 E0.09812
G1 X61.223 Y13.013 E0.41027
G1 X62.59 Y0 E0.41027
G1 X61.223 Y-13.013 E0.41027
G1 X57.179 Y-25.458 E0.41027
G1 X55.614 Y-28.168 E0.09812
G1 X34.262 Y-15.84 E0.77307
G1 X34.398 Y-15.484 F10800
;TYPE:External perimeter
G1 F1200
G1 X7.58 Y0 E0.97095
G1 X55.476 Y27.653 E1.73408
G1 X56.833 Y25.304 E0.08506
G1 X60.852 Y12.934 E0.40778
G1 X62.211 Y0 E0.40778
G1 X60.852 Y-12.934 E0.40778
G1 X56.833 Y-25.304 E0.40778
G1 X55.476 Y-27.653 E0.08506
G1 X34.45 Y-15.514 E0.76125
;WIPE_START
M204 S1000
G1 X34.052 Y-15.684 F10800
;WIPE_END
G1 E-3.5 F3600
;WIPE_START
G1 F8640
G1 X30.943 Y-13.869 E-1.425
;WIPE_END
G1 E-0.075 F3600
; acceleration to travel
M204 S1500
G1 X30.82 Y-20.443 F10800
; decel to extrusion
M204 S800
G1 X30.797 Y-21.721
; end travel
G1 E5 F2400
;TYPE:Internal perimeter
G1 F1200
G1 X52.201 Y-34.079 E0.77495
G1 X50.637 Y-36.79 E0.09812
G1 X41.881 Y-46.514 E0.41027
G1 X31.295 Y-54.205 E0.41027
G1 X19.342 Y-59.527 E0.41027
G1 X6.542 Y-62.247 E0.41027
G1 X3.413 Y-62.247 E0.09812
G1 X3.413 Y-5.911 E1.76638
G1 X30.745 Y-21.691 E0.98955
G1 X30.608 Y-22.048 F10800
;TYPE:External perimeter
G1 F1200
G1 X51.686 Y-34.217 E0.76313
G1 X50.33 Y-36.567 E0.08506
G1 X41.627 Y-46.232 E0.40778
G1 X31.106 Y-53.876 E0.40778
G1 X19.224 Y-59.166 E0.40778
G1 X6.503 Y-61.87 E0.40779
G1 X3.79 Y-61.87 E0.08506
G1 X3.79 Y-6.564 E1.73408
G1 X30.556 Y-22.018 E0.96907
;WIPE_START
M204 S1000
G1 X30.955 Y-21.848 F10800
;WIPE_END
G1 E-3.5 F3600
;WIPE_START
G1 F8640
G1 X34.061 Y-23.667 E-1.425
;WIPE_END
G1 E-0.075 F3600
; acceleration to travel
M204 S1500
G1 X2.686 Y-22.311 F10800
; decel to extrusion
M204 S800
G1 X-3.413 Y-22.048
; end travel
G1 E5 F2400
;TYPE:Internal perimeter
G1 F1200
G1 X-3.413 Y-62.247 E1.26043
G1 X-6.542 Y-62.247 E0.09812
G1 X-19.342 Y-59.527 E0.41027
G1 X-31.295 Y-54.205 E0.41027
G1 X-41.881 Y-46.514 E0.41027
G1 X-50.637 Y-36.79 E0.41027
G1 X-52.201 Y-34.079 E0.09812
G1 X-3.413 Y-5.911 E1.76638
G1 X-3.413 Y-21.988 E0.50407
G1 X-3.79 Y-22.048 F10800
;TYPE:External perimeter
G1 F1200
G1 X-3.79 Y-61.87 E1.2486
G1 X-6.503 Y-61.87 E0.08506
G1 X-19.224 Y-59.166 E0.40779
G1 X-31.106 Y-53.876 E0.40778
G1 X-41.627 Y-46.232 E0.40778
G1 X-50.33 Y-36.567 E0.40778
G1 X-51.686 Y-34.217 E0.08506
G1 X-3.79 Y-6.564 E1.73408
G1 X-3.79 Y-21.988 E0.48359
;WIPE_START
M204 S1000
G1 X-3.444 Y-22.248 F10800
;WIPE_END
G1 E-3.5 F3600
;WIPE_START
G1 F8640
G1 X-3.457 Y-25.848 E-1.425
;WIPE_END
G1 E-0.075 F3600
; acceleration to travel
M204 S1500
G1 X-12.364 Y-7.721 F10800
; decel to extrusion
M204 S800
G1 X-14.096 Y-4.197
; end travel
G1 E5 F2400
;TYPE:Internal perimeter
G1 F1200
G1 X-55.614 Y-28.168 E1.50316
G1 X-57.179 Y-25.458 E0.09812
G1 X-61.223 Y-13.013 E0.41027
G1 X-62.59 Y0 E0.41027
G1 X-61.223 Y13.013 E0.41027
G1 X-57.179 Y25.458 E0.41027
G1 X-55.614 Y28.168 E0.09812
G1 X-6.826 Y0 E1.76638
G1 X-14.044 Y-4.167 E0.26133
G1 X-14.285 Y-3.871 F10800
;TYPE:External perimeter
G1 F1200
G1 X-55.476 Y-27.653 E1.49134
G1 X-56.833 Y-25.304 E0.08506
G1 X-60.852 Y-12.934 E0.40778
G1 X-62.211 Y0 E0.40778
G1 X-60.852 Y12.934 E0.40778
G1 X-56.833 Y25.304 E0.40778
G1 X-55.476 Y27.653 E0.08506
G1 X-7.58 Y0 E1.73408
G1 X-14.233 Y-3.841 E0.24086
;WIPE_START
M204 S1000
G1 X-14.285 Y-4.271 F10800
;WIPE_END
G1 E-3.5 F3600
;WIPE_START
G1 F8640
G1 X-17.408 Y-6.061 E-1.425
;WIPE_END
G1 E-0.075 F3600
; acceleration to travel
M204 S1500
G1 X-8.971 Y5.857 F10800
; decel to extrusion
M204 S800
G1 X-7.331 Y8.173
; end travel
G1 E5 F2400
;TYPE:Internal perimeter
G1 F1200
G1 X-52.201 Y34.079 E1.62453
G1 X-50.637 Y36.79 E0.09812
G1 X-41.881 Y46.514 E0.41027
G1 X-31.295 Y54.205 E0.41027
G1 X-19.342 Y59.527 E0.41027
G1 X-6.542 Y62.247 E0.41027
G1 X-3.413 Y62.247 E0.09812
G1 X-3.413 Y5.911 E1.76638
G1 X-7.279 Y8.143 E0.13997
G1 X-7.142 Y8.5 F10800
;TYPE:External perimeter
G1 F1200
G1 X-51.686 Y34.217 E1.61271
G1 X-50.33 Y36.567 E0.08506
G1 X-41.627 Y46.232 E0.40778
G1 X-31.106 Y53.876 E0.40778
G1 X-19.224 Y59.166 E0.40778
G1 X-6.503 Y61.87 E0.40779
G1 X-3.79 Y61.87 E0.08506
G1 X-3.79 Y6.564 E1.73408
G1 X-7.09 Y8.47 E0.11949
;WIPE_START
M204 S1000
G1 X-7.489 Y8.3 F10800
;WIPE_END
G1 E-3.5 F3600
;WIPE_START
G1 F8640
G1 X-10.601 Y10.109 E-1.425
;WIPE_END
G1 E-0.075 F3600
; acceleration to travel
M204 S1500
G1 X1.132 Y8.762 F10800
; decel to extrusion
M204 S800
G1 X3.413 Y8.5
; end travel
G1 E5 F2400
;TYPE:Internal perimeter
G1 F1200
G1 X3.413 Y62.247 E1.68522
G1 X6.542 Y62.247 E0.09812
G1 X19.342 Y59.527 E0.41027
G1 X31.295 Y54.205 E0.41027
G1 X41.881 Y46.514 E0.41027
G1 X50.637 Y36.79 E0.41027
G1 X52.201 Y34.079 E0.09812
G1 X3.413 Y5.911 E1.76638
G1 X3.413 Y8.44 E0.07928
G1 X3.79 Y8.5 F10800
;TYPE:External perimeter
G1 F1200
G1 X3.79 Y61.87 E1.67339
G1 X6.503 Y61.87 E0.08506
G1 X19.224 Y59.166 E0.40779
G1 X31.106 Y53.876 E0.40778
G1 X41.627 Y46.232 E0.40778
G1 X50.33 Y36.567 E0.40778
G1 X51.686 Y34.217 E0.08506
G1 X3.79 Y6.564 E1.73408
G1 X3.79 Y8.44 E0.0588
;WIPE_START
M204 S1000
G1 X3.444 Y8.7 F10800
;WIPE_END
G1 E-3.5 F3600
;WIPE_START
G1 F8640
G1 X3.453 Y12.3 E-1.425
;WIPE_END
G1 E-0.075 F3600
; acceleration to travel
M204 S1500
G1 X24.073 Y54.798 F10800
; decel to extrusion
M204 S800
G1 X28.082 Y63.059
; end travel
G1 E5 F2400
;TYPE:Internal perimeter
G1 F1200
G1 X21.449 Y66.013 E0.22765
G1 X7.255 Y69.029 E0.45497
G1 X-7.255 Y69.029 E0.45497
G1 X-21.449 Y66.013 E0.45497
G1 X-34.705 Y60.111 E0.45497
G1 X-46.444 Y51.581 E0.45497
G1 X-56.154 Y40.798 E0.45497
G1 X-63.409 Y28.232 E0.45497
G1 X-67.893 Y14.431 E0.45497
G1 X-69.41 Y0 E0.45497
G1 X-67.893 Y-14.431 E0.45497
G1 X-63.409 Y-28.232 E0.45497
G1 X-56.154 Y-40.798 E0.45497
G1 X-46.444 Y-51.581 E0.45497
G1 X-34.705 Y-60.111 E0.45497
G1 X-21.449 Y-66.013 E0.45497
G1 X-7.255 Y-69.029 E0.45497
G1 X7.255 Y-69.029 E0.45497
G1 X21.449 Y-66.013 E0.45497
G1 X34.705 Y-60.111 E0.45497
G1 X46.444 Y-51.581 E0.45497
G1 X56.154 Y-40.798 E0.45497
G1 X63.409 Y-28.232 E0.45497
G1 X67.893 Y-14.431 E0.45497
G1 X69.41 Y0 E0.45497
G1 X67.893 Y14.431 E0.45497
G1 X63.409 Y28.232 E0.45497
G1 X56.154 Y40.798 E0.45497
G1 X46.444 Y51.581 E0.45497
G1 X34.705 Y60.111 E0.45497
G1 X28.136 Y63.035 E0.22544
G1 X28.235 Y63.404 F10800
;TYPE:External perimeter
G1 F1200
G1 X21.566 Y66.373 E0.22889
G1 X7.295 Y69.407 E0.45745
G1 X-7.295 Y69.407 E0.45745
G1 X-21.566 Y66.373 E0.45745
G1 X-34.894 Y60.439 E0.45745
G1 X-46.698 Y51.863 E0.45745
G1 X-56.46 Y41.021 E0.45745
G1 X-63.755 Y28.386 E0.45745
G1 X-68.264 Y14.51 E0.45746
G1 X-69.789 Y0 E0.45745
G1 X-68.264 Y-14.51 E0.45745
G1 X-63.755 Y-28.386 E0.45746
G1 X-56.46 Y-41.021 E0.45745
G1 X-46.698 Y-51.863 E0.45745
G1 X-34.894 Y-60.439 E0.45745
G1 X-21.566 Y-66.373 E0.45745
G1 X-7.295 Y-69.407 E0.45745
G1 X7.295 Y-69.407 E0.45745
G1 X21.566 Y-66.373 E0.45745
G1 X34.894 Y-60.439 E0.45745
G1 X46.698 Y-51.863 E0.45745
G1 X56.46 Y-41.021 E0.45745
G1 X63.755 Y-28.386 E0.45745
G1 X68.264 Y-14.51 E0.45746
G1 X69.789 Y0 E0.45745
G1 X68.264 Y14.51 E0.45745
G1 X63.755 Y28.386 E0.45746
G1 X56.46 Y41.021 E0.45745
G1 X46.698 Y51.863 E0.45745
G1 X34.894 Y60.439 E0.45745
G1 X28.29 Y63.38 E0.22668
;WIPE_START
M204 S1000
G1 X27.911 Y63.169 F10800
;WIPE_END
G1 E-3.5 F3600
;WIPE_START
G1 F8640
G1 X24.654 Y64.701 E-1.425
;WIPE_END
G1 E-0.075 F3600
; acceleration to travel
M204 S1500
G1 X43.868 Y-26.843 F10800
; decel to extrusion
M204 S1000
G1 X48.537 Y-49.088
; end travel
G1 E5 F2400
;TYPE:Solid infill
;WIDTH:0.420563
G1 F1200
G1 X46.224 Y-51.401 E0.10274
G1 X44.273 Y-52.818 E0.07568
G1 X51.168 Y-45.924 E0.30613
G1 X55.93 Y-40.635 E0.22342
G1 X55.939 Y-40.62 E0.00057
G1 X42.323 Y-54.235 E0.60455
G1 X40.373 Y-55.652 E0.07568
G1 X56.667 Y-39.358 E0.72348
G1 X57.396 Y-38.096 E0.04574
G1 X38.423 Y-57.069 E0.84241
G1 X36.473 Y-58.486 E0.07568
G1 X58.124 Y-36.834 E0.96135
G1 X58.853 Y-35.573 E0.04574
G1 X34.545 Y-59.881 E1.07929
G1 X33.584 Y-60.308 E0.03304
G1 X59.581 Y-34.311 E1.15432
G1 X60.31 Y-33.049 E0.04574
G1 X32.622 Y-60.736 E1.22934
G1 X31.661 Y-61.164 E0.03304
G1 X61.038 Y-31.788 E1.30437
G1 X61.766 Y-30.526 E0.04574
G1 X30.7 Y-61.592 E1.37939
G1 X29.739 Y-62.02 E0.03304
G1 X62.495 Y-29.264 E1.45442
G1 X63.156 Y-28.119 E0.04151
G1 X63.18 Y-28.046 E0.00241
G1 X28.777 Y-62.448 E1.52751
G1 X27.816 Y-62.876 E0.03304
G1 X63.436 Y-27.256 E1.58158
G1 X63.693 Y-26.466 E0.02608
G1 X26.855 Y-63.304 E1.63566
G1 X25.894 Y-63.732 E0.03304
G1 X63.95 Y-25.676 E1.68974
G1 X64.206 Y-24.886 E0.02608
G1 X24.932 Y-64.16 E1.74381
G1 X23.971 Y-64.588 E0.03304
G1 X64.463 Y-24.096 E1.79789
G1 X64.72 Y-23.306 E0.02608
G1 X48.933 Y-39.093 E0.70094
G1 X50.861 Y-36.952 E0.09043
G1 X51.298 Y-36.195 E0.02745
G1 X64.976 Y-22.516 E0.60735
G1 X65.233 Y-21.726 E0.02608
G1 X52.026 Y-34.933 E0.5864
G1 X52.577 Y-33.979 E0.03461
G1 X52.495 Y-33.931 E0.00298
G1 X65.49 Y-20.937 E0.57698
G1 X65.746 Y-20.147 E0.02608
G1 X52.157 Y-33.736 E0.60338
G1 X51.819 Y-33.541 E0.01226
G1 X66.003 Y-19.357 E0.62979
G1 X66.26 Y-18.567 E0.02608
G1 X51.481 Y-33.346 E0.6562
G1 X51.143 Y-33.15 E0.01226
G1 X66.516 Y-17.777 E0.6826
G1 X66.773 Y-16.987 E0.02608
G1 X56.397 Y-27.363 E0.46071
G1 X55.715 Y-28.544 E0.04281
G1 X55.399 Y-28.361 E0.01147
G1 X50.805 Y-32.955 E0.20397
G1 X50.467 Y-32.76 E0.01226
G1 X55.061 Y-28.166 E0.20397
G1 X54.722 Y-27.971 E0.01226
G1 X50.129 Y-32.565 E0.20397
G1 X49.79 Y-32.37 E0.01226
G1 X54.384 Y-27.776 E0.20397
G1 X54.046 Y-27.581 E0.01226
G1 X49.452 Y-32.174 E0.20397
G1 X49.114 Y-31.979 E0.01226
G1 X53.708 Y-27.385 E0.20397
G1 X53.37 Y-27.19 E0.01226
G1 X48.776 Y-31.784 E0.20397
G1 X48.438 Y-31.589 E0.01226
G1 X53.032 Y-26.995 E0.20397
G1 X52.694 Y-26.8 E0.01226
G1 X48.1 Y-31.394 E0.20397
G1 X47.762 Y-31.199 E0.01226
G1 X52.356 Y-26.605 E0.20397
G1 X52.018 Y-26.409 E0.01226
G1 X47.424 Y-31.003 E0.20397
G1 X47.086 Y-30.808 E0.01226
G1 X51.68 Y-26.214 E0.20397
G1 X51.342 Y-26.019 E0.01226
G1 X46.748 Y-30.613 E0.20397
G1 X46.41 Y-30.418 E0.01226
G1 X51.004 Y-25.824 E0.20397
G1 X50.665 Y-25.629 E0.01226
G1 X46.072 Y-30.223 E0.20397
G1 X45.734 Y-30.027 E0.01226
G1 X50.327 Y-25.433 E0.20397
G1 X49.989 Y-25.238 E0.01226
G1 X45.395 Y-29.832 E0.20397
G1 X45.057 Y-29.637 E0.01226
G1 X49.651 Y-25.043 E0.20397
G1 X49.313 Y-24.848 E0.01226
G1 X44.719 Y-29.442 E0.20397
G1 X44.381 Y-29.247 E0.01226
G1 X48.975 Y-24.653 E0.20397
G1 X48.637 Y-24.458 E0.01226
G1 X44.043 Y-29.051 E0.20397
G1 X43.705 Y-28.856 E0.01226
G1 X48.299 Y-24.262 E0.20397
G1 X47.961 Y-24.067 E0.01226
G1 X43.367 Y-28.661 E0.20397
G1 X43.029 Y-28.466 E0.01226
G1 X47.623 Y-23.872 E0.20397
G1 X47.285 Y-23.677 E0.01226
G1 X42.691 Y-28.271 E0.20397
G1 X42.353 Y-28.075 E0.01226
G1 X46.947 Y-23.482 E0.20397
G1 X46.609 Y-23.286 E0.01226
G1 X42.015 Y-27.88 E0.20397
G1 X41.677 Y-27.685 E0.01226
G1 X46.27 Y-23.091 E0.20397
G1 X45.932 Y-22.896 E0.01226
G1 X41.338 Y-27.49 E0.20397
G1 X41 Y-27.295 E0.01226
G1 X45.594 Y-22.701 E0.20397
G1 X45.256 Y-22.506 E0.01226
G1 X40.662 Y-27.1 E0.20397
G1 X40.324 Y-26.904 E0.01226
G1 X44.918 Y-22.31 E0.20397
G1 X44.58 Y-22.115 E0.01226
G1 X39.986 Y-26.709 E0.20397
G1 X39.648 Y-26.514 E0.01226
