; generated by SuperSlicer 2.4 on 2023-03-06 at 05:45:38 UTC


;
;

;
;
; 

; external perimeters extrusion width = 0.45mm
; perimeters extrusion width = 0.45mm
; infill extrusion width = 0.45mm
; solid infill extrusion width = 0.45mm
; top infill extrusion width = 0.40mm
; first layer extrusion width = 0.42mm

; object:{"name":"xyzCalibration_cube","id":"xyzCalibration_cube id:0 copy 0","object_center":[0.000000,0.000000,0.000000],"boundingbox_center":[0.000000,0.000000,10.000000],"boundingbox_size":[20.000000,20.000000,20.000000]}
; plater:{"center":[0.000000,0.000000,0.000000],"boundingbox_center":[0.000000,0.000000,10.000000],"boundingbox_size":[20.000000,20.000000,20.000000]}

;TYPE:Custom
START_PRINT
M107
G21 ; set units to millimeters
G90 ; use absolute coordinates
M83 ; use relative distances for extrusion
; Filament gcode
;_TOOLCHANGE 0
M109 S200 ; set temperature and wait for it to be reached
M190 S60 ; set bed temperature and wait for it to be reached
M107
;LAYER_CHANGE
;Z:0.2
;HEIGHT:0.2
;BEFORE_LAYER_CHANGE
G92 E0
;0.2
G1 E-5 F3600
G1 Z0.2 F10800
;AFTER_LAYER_CHANGE
;0.2
M204 S1000
G1 X0 Y-15.716
G1 E5 F2400
;TYPE:Skirt
;WIDTH:0.52
G1 F1200
G1 X-10 Y-15.716 E0.39669
G1 X-12.47 Y-15.155 E0.10046
G1 X-14.185 Y-13.893 E0.08445
G1 X-15.319 Y-12.092 E0.08445
G1 X-15.716 Y-10 E0.08445
G1 X-15.716 Y10 E0.79339
G1 X-15.155 Y12.47 E0.10046
G1 X-13.893 Y14.185 E0.08445
G1 X-12.092 Y15.319 E0.08445
G1 X-10 Y15.716 E0.08445
G1 X10 Y15.716 E0.79339
G1 X12.47 Y15.155 E0.10046
G1 X14.185 Y13.893 E0.08445
G1 X15.319 Y12.092 E0.08445
G1 X15.716 Y10 E0.08445
G1 X15.716 Y-10 E0.79339
G1 X15.155 Y-12.47 E0.10046
G1 X13.893 Y-14.185 E0.08445
G1 X12.092 Y-15.319 E0.08445
G1 X10 Y-15.716 E0.08445
G1 X0.06 Y-15.716 E0.39431
G1 X0.06 Y-15.239 F10800
G1 F1200
G1 X-10 Y-15.239 E0.39907
G1 X-12.023 Y-14.832 E0.08187
G1 X-13.714 Y-13.695 E0.08082
G1 X-14.842 Y-11.998 E0.08082
G1 X-15.239 Y-10 E0.08082
G1 X-15.239 Y10 E0.79339
G1 X-14.832 Y12.023 E0.08187
G1 X-13.695 Y13.714 E0.08082
G1 X-11.998 Y14.842 E0.08082
G1 X-10 Y15.239 E0.08082
G1 X10 Y15.239 E0.79339
G1 X12.023 Y14.832 E0.08187
G1 X13.714 Y13.695 E0.08082
G1 X14.842 Y11.998 E0.08082
G1 X15.239 Y10 E0.08082
G1 X15.239 Y-10 E0.79339
G1 X14.832 Y-12.023 E0.08187
G1 X13.695 Y-13.714 E0.08082
G1 X11.998 Y-14.842 E0.08082
G1 X10 Y-15.239 E0.08082
G1 X0.12 Y-15.239 E0.39193
G1 E-3.5 F3600
;WIPE_START
G1 F8640
G1 X-3.48 Y-15.239 E-1.425
;WIPE_END
G1 E-0.075 F3600
; printing object xyzCalibration_cube id:0 copy 0
; acceleration to travel
M204 S1500
G1 X-0.466 Y-10.677 F10800
; decel to extrusion
M204 S800
G1 X0.12 Y-9.79
; end travel
G1 E5 F2400
;TYPE:External perimeter
;WIDTH:0.42
G1 F1200
G1 X9.79 Y-9.79 E0.3032
G1 X9.79 Y9.79 E0.61392
G1 X-9.79 Y9.79 E0.61392
G1 X-9.79 Y-9.79 E0.61392
G1 X0.06 Y-9.79 E0.30884
;WIPE_START
M204 S1000
G1 X0.32 Y-9.444 F10800
;WIPE_END
G1 E-3.5 F3600
;WIPE_START
G1 F8640
G1 X3.92 Y-9.5 E-1.425
;WIPE_END
G1 E-0.075 F3600
; acceleration to travel
M204 S1500
G1 X7.938 Y-9.642 F10800
; decel to extrusion
M204 S1000
G1 X8.915 Y-9.677
; end travel
G1 E5 F2400
;TYPE:Solid infill
;WIDTH:0.42067
G1 F1200
G1 X9.515 Y-9.077 E0.02665
G1 X9.515 Y-8.544 E0.01675
G1 X8.544 Y-9.515 E0.04314
G1 X8.01 Y-9.515 E0.01675
G1 X9.515 Y-8.01 E0.06682
G1 X9.515 Y-7.477 E0.01675
G1 X7.477 Y-9.515 E0.0905
G1 X6.944 Y-9.515 E0.01675
G1 X9.515 Y-6.944 E0.11419
G1 X9.515 Y-6.41 E0.01675
G1 X6.41 Y-9.515 E0.13787
G1 X5.877 Y-9.515 E0.01675
G1 X9.515 Y-5.877 E0.16155
G1 X9.515 Y-5.344 E0.01675
G1 X5.344 Y-9.515 E0.18524
G1 X4.811 Y-9.515 E0.01675
G1 X9.515 Y-4.811 E0.20892
G1 X9.515 Y-4.277 E0.01675
G1 X4.277 Y-9.515 E0.23261
G1 X3.744 Y-9.515 E0.01675
G1 X9.515 Y-3.744 E0.25629
G1 X9.515 Y-3.211 E0.01675
G1 X3.211 Y-9.515 E0.27997
G1 X2.678 Y-9.515 E0.01675
G1 X9.515 Y-2.678 E0.30366
G1 X9.515 Y-2.144 E0.01675
G1 X2.144 Y-9.515 E0.32734
G1 X1.611 Y-9.515 E0.01675
G1 X9.515 Y-1.611 E0.35102
G1 X9.515 Y-1.078 E0.01675
G1 X1.078 Y-9.515 E0.37471
G1 X0.544 Y-9.515 E0.01675
G1 X9.515 Y-0.544 E0.39839
G1 X9.515 Y-0.011 E0.01675
G1 X0.011 Y-9.515 E0.42208
G1 X-0.522 Y-9.515 E0.01675
G1 X9.515 Y0.522 E0.44576
G1 X9.515 Y1.055 E0.01675
G1 X-1.055 Y-9.515 E0.46944
G1 X-1.589 Y-9.515 E0.01675
G1 X9.515 Y1.589 E0.49313
G1 X9.515 Y2.122 E0.01675
G1 X-2.122 Y-9.515 E0.51681
G1 X-2.655 Y-9.515 E0.01675
G1 X9.515 Y2.655 E0.5405
G1 X9.515 Y3.188 E0.01675
G1 X-3.188 Y-9.515 E0.56418
G1 X-3.722 Y-9.515 E0.01675
G1 X9.515 Y3.722 E0.58786
G1 X9.515 Y4.255 E0.01675
G1 X-4.255 Y-9.515 E0.61155
G1 X-4.788 Y-9.515 E0.01675
G1 X9.515 Y4.788 E0.63523
G1 X9.515 Y5.322 E0.01675
G1 X-5.322 Y-9.515 E0.65891
G1 X-5.855 Y-9.515 E0.01675
G1 X9.515 Y5.855 E0.6826
G1 X9.515 Y6.388 E0.01675
G1 X-6.388 Y-9.515 E0.70628
G1 X-6.921 Y-9.515 E0.01675
G1 X9.515 Y6.921 E0.72997
G1 X9.515 Y7.455 E0.01675
G1 X-7.455 Y-9.515 E0.75365
G1 X-7.988 Y-9.515 E0.01675
G1 X9.515 Y7.988 E0.77733
G1 X9.515 Y8.521 E0.01675
G1 X-8.521 Y-9.515 E0.80102
G1 X-9.054 Y-9.515 E0.01675
G1 X9.515 Y9.054 E0.8247
G1 X9.515 Y9.515 E0.01446
G1 X9.442 Y9.515 E0.00229
G1 X-9.515 Y-9.442 E0.84191
G1 X-9.515 Y-8.909 E0.01675
G1 X8.909 Y9.515 E0.81822
G1 X8.375 Y9.515 E0.01675
G1 X-9.515 Y-8.375 E0.79454
G1 X-9.515 Y-7.842 E0.01675
G1 X7.842 Y9.515 E0.77086
G1 X7.309 Y9.515 E0.01675
G1 X-9.515 Y-7.309 E0.74717
G1 X-9.515 Y-6.775 E0.01675
G1 X6.775 Y9.515 E0.72349
G1 X6.242 Y9.515 E0.01675
G1 X-9.515 Y-6.242 E0.6998
G1 X-9.515 Y-5.709 E0.01675
G1 X5.709 Y9.515 E0.67612
G1 X5.176 Y9.515 E0.01675
G1 X-9.515 Y-5.176 E0.65244
G1 X-9.515 Y-4.642 E0.01675
G1 X4.642 Y9.515 E0.62875
G1 X4.109 Y9.515 E0.01675
G1 X-9.515 Y-4.109 E0.60507
G1 X-9.515 Y-3.576 E0.01675
G1 X3.576 Y9.515 E0.58138
G1 X3.043 Y9.515 E0.01675
G1 X-9.515 Y-3.043 E0.5577
G1 X-9.515 Y-2.509 E0.01675
G1 X2.509 Y9.515 E0.53402
G1 X1.976 Y9.515 E0.01675
G1 X-9.515 Y-1.976 E0.51033
G1 X-9.515 Y-1.443 E0.01675
G1 X1.443 Y9.515 E0.48665
G1 X0.909 Y9.515 E0.01675
G1 X-9.515 Y-0.909 E0.46297
G1 X-9.515 Y-0.376 E0.01675
G1 X0.376 Y9.515 E0.43928
G1 X-0.157 Y9.515 E0.01675
G1 X-9.515 Y0.157 E0.4156
G1 X-9.515 Y0.69 E0.01675
G1 X-0.69 Y9.515 E0.39191
G1 X-1.224 Y9.515 E0.01675
G1 X-9.515 Y1.224 E0.36823
G1 X-9.515 Y1.757 E0.01675
G1 X-1.757 Y9.515 E0.34455
G1 X-2.29 Y9.515 E0.01675
G1 X-9.515 Y2.29 E0.32086
G1 X-9.515 Y2.823 E0.01675
G1 X-2.823 Y9.515 E0.29718
G1 X-3.357 Y9.515 E0.01675
G1 X-9.515 Y3.357 E0.2735
G1 X-9.515 Y3.89 E0.01675
G1 X-3.89 Y9.515 E0.24981
G1 X-4.423 Y9.515 E0.01675
G1 X-9.515 Y4.423 E0.22613
G1 X-9.515 Y4.956 E0.01675
G1 X-4.956 Y9.515 E0.20244
G1 X-5.49 Y9.515 E0.01675
G1 X-9.515 Y5.49 E0.17876
G1 X-9.515 Y6.023 E0.01675
G1 X-6.023 Y9.515 E0.15508
G1 X-6.556 Y9.515 E0.01675
G1 X-9.515 Y6.556 E0.13139
G1 X-9.515 Y7.09 E0.01675
G1 X-7.09 Y9.515 E0.10771
G1 X-7.623 Y9.515 E0.01675
G1 X-9.515 Y7.623 E0.08403
G1 X-9.515 Y8.156 E0.01675
G1 X-8.156 Y9.515 E0.06034
G1 X-8.689 Y9.515 E0.01675
G1 X-9.515 Y8.689 E0.03666
G1 X-9.515 Y9.223 E0.01675
G1 X-9.06 Y9.677 E0.02017
M106 S84.15
;LAYER_CHANGE
;Z:0.4
;HEIGHT:0.2
;BEFORE_LAYER_CHANGE
G92 E0
;0.4
G1 E-3.5 F3600
;WIPE_START
G1 F8640
G1 X-9.515 Y9.223 E-0.25429
G1 X-9.515 Y8.689 E-0.21109
G1 X-8.689 Y9.515 E-0.46205
G1 X-8.156 Y9.515 E-0.21109
G1 X-8.668 Y9.003 E-0.28649
;WIPE_END
G1 E-0.075 F3600
; stop printing object xyzCalibration_cube id:0 copy 0
G1 Z0.4 F10800
;AFTER_LAYER_CHANGE
;0.4
; printing object xyzCalibration_cube id:0 copy 0
M204 S800
G1 X-8.668 Y9.775
G1 E5 F2400
;TYPE:External perimeter
;WIDTH:0.45
G1 F1500
G1 X-9.775 Y9.775 E0.03747
G1 X-9.775 Y-9.775 E0.66174
G1 X9.775 Y-9.775 E0.66174
G1 X9.775 Y9.775 E0.66174
G1 X-8.608 Y9.775 E0.62224
;WIPE_START
M204 S1000
G1 X-8.868 Y9.429 F10800
;WIPE_END
G1 E-3.5 F3600
;WIPE_START
G1 F8640
G1 X-9.575 Y9.575 E-0.28584
G1 X-9.575 Y6.697 E-1.13916
;WIPE_END
G1 E-0.075 F3600
; acceleration to travel
M204 S1500
G1 X5.186 Y9.068 F10800
; decel to extrusion
M204 S1000
G1 X8.83 Y9.653
; end travel
G1 E5 F2400
;TYPE:Solid infill
;WIDTH:0.4499
G1 F1800
G1 X9.478 Y9.005 E0.03101
G1 X9.478 Y8.429 E0.01948
G1 X8.429 Y9.478 E0.05018
G1 X7.854 Y9.478 E0.01948
G1 X9.478 Y7.854 E0.07773
G1 X9.478 Y7.278 E0.01948
G1 X7.278 Y9.478 E0.10528
G1 X6.702 Y9.478 E0.01948
G1 X9.478 Y6.702 E0.13284
G1 X9.478 Y6.127 E0.01948
G1 X6.127 Y9.478 E0.16039
G1 X5.551 Y9.478 E0.01948
G1 X9.478 Y5.551 E0.18794
G1 X9.478 Y4.975 E0.01948
G1 X4.975 Y9.478 E0.21549
G1 X4.399 Y9.478 E0.01948
G1 X9.478 Y4.399 E0.24305
G1 X9.478 Y3.824 E0.01948
G1 X3.824 Y9.478 E0.2706
G1 X3.248 Y9.478 E0.01948
G1 X9.478 Y3.248 E0.29815
G1 X9.478 Y2.672 E0.01948
G1 X2.672 Y9.478 E0.3257
G1 X2.097 Y9.478 E0.01948
G1 X9.478 Y2.097 E0.35325
G1 X9.478 Y1.521 E0.01948
G1 X1.521 Y9.478 E0.38081
G1 X0.945 Y9.478 E0.01948
G1 X9.478 Y0.945 E0.40836
G1 X9.478 Y0.37 E0.01948
G1 X0.37 Y9.478 E0.43591
G1 X-0.206 Y9.478 E0.01948
G1 X9.478 Y-0.206 E0.46346
G1 X9.478 Y-0.782 E0.01948
G1 X-0.782 Y9.478 E0.49101
G1 X-1.358 Y9.478 E0.01948
G1 X9.478 Y-1.358 E0.51857
G1 X9.478 Y-1.933 E0.01948
G1 X-1.933 Y9.478 E0.54612
G1 X-2.509 Y9.478 E0.01948
G1 X9.478 Y-2.509 E0.57367
G1 X9.478 Y-3.085 E0.01948
G1 X-3.085 Y9.478 E0.60122
G1 X-3.66 Y9.478 E0.01948
G1 X9.478 Y-3.66 E0.62878
G1 X9.478 Y-4.236 E0.01948
G1 X-4.236 Y9.478 E0.65633
G1 X-4.812 Y9.478 E0.01948
G1 X9.478 Y-4.812 E0.68388
G1 X9.478 Y-5.387 E0.01948
G1 X-5.387 Y9.478 E0.71143
G1 X-5.963 Y9.478 E0.01948
G1 X9.478 Y-5.963 E0.73898
G1 X9.478 Y-6.539 E0.01948
G1 X-6.539 Y9.478 E0.76654
G1 X-7.114 Y9.478 E0.01948
G1 X9.478 Y-7.114 E0.79409
G1 X9.478 Y-7.69 E0.01948
G1 X-7.69 Y9.478 E0.82164
G1 X-8.266 Y9.478 E0.01948
G1 X9.478 Y-8.266 E0.84919
G1 X9.478 Y-8.842 E0.01948
G1 X-8.842 Y9.478 E0.87674
G1 X-9.417 Y9.478 E0.01948
G1 X9.478 Y-9.417 E0.9043
G1 X9.478 Y-9.478 E0.00205
G1 X8.963 Y-9.478 E0.01743
G1 X-9.478 Y8.963 E0.88254
G1 X-9.478 Y8.387 E0.01948
G1 X8.387 Y-9.478 E0.85499
G1 X7.811 Y-9.478 E0.01948
G1 X-9.478 Y7.811 E0.82744
G1 X-9.478 Y7.236 E0.01948
G1 X7.236 Y-9.478 E0.79989
G1 X6.66 Y-9.478 E0.01948
G1 X-9.478 Y6.66 E0.77233
G1 X-9.478 Y6.084 E0.01948
G1 X6.084 Y-9.478 E0.74478
G1 X5.509 Y-9.478 E0.01948
G1 X-9.478 Y5.509 E0.71723
G1 X-9.478 Y4.933 E0.01948
G1 X4.933 Y-9.478 E0.68968
G1 X4.357 Y-9.478 E0.01948
G1 X-9.478 Y4.357 E0.66213
G1 X-9.478 Y3.781 E0.01948
G1 X3.781 Y-9.478 E0.63457
G1 X3.206 Y-9.478 E0.01948
G1 X-9.478 Y3.206 E0.60702
G1 X-9.478 Y2.63 E0.01948
G1 X2.63 Y-9.478 E0.57947
G1 X2.054 Y-9.478 E0.01948
G1 X-9.478 Y2.054 E0.55192
G1 X-9.478 Y1.479 E0.01948
G1 X1.479 Y-9.478 E0.52436
G1 X0.903 Y-9.478 E0.01948
G1 X-9.478 Y0.903 E0.49681
G1 X-9.478 Y0.327 E0.01948
G1 X0.327 Y-9.478 E0.46926
G1 X-0.248 Y-9.478 E0.01948
G1 X-9.478 Y-0.248 E0.44171
G1 X-9.478 Y-0.824 E0.01948
G1 X-0.824 Y-9.478 E0.41416
G1 X-1.4 Y-9.478 E0.01948
G1 X-9.478 Y-1.4 E0.3866
G1 X-9.478 Y-1.976 E0.01948
G1 X-1.976 Y-9.478 E0.35905
G1 X-2.551 Y-9.478 E0.01948
G1 X-9.478 Y-2.551 E0.3315
G1 X-9.478 Y-3.127 E0.01948
G1 X-3.127 Y-9.478 E0.30395
G1 X-3.703 Y-9.478 E0.01948
G1 X-9.478 Y-3.703 E0.2764
G1 X-9.478 Y-4.278 E0.01948
G1 X-4.278 Y-9.478 E0.24884
G1 X-4.854 Y-9.478 E0.01948
G1 X-9.478 Y-4.854 E0.22129
G1 X-9.478 Y-5.43 E0.01948
G1 X-5.43 Y-9.478 E0.19374
G1 X-6.005 Y-9.478 E0.01948
G1 X-9.478 Y-6.005 E0.16619
G1 X-9.478 Y-6.581 E0.01948
G1 X-6.581 Y-9.478 E0.13864
G1 X-7.157 Y-9.478 E0.01948
G1 X-9.478 Y-7.157 E0.11108
G1 X-9.478 Y-7.732 E0.01948
G1 X-7.732 Y-9.478 E0.08353
G1 X-8.308 Y-9.478 E0.01948
G1 X-9.478 Y-8.308 E0.05598
G1 X-9.478 Y-8.884 E0.01948
G1 X-8.884 Y-9.478 E0.02843
G1 X-9.46 Y-9.478 E0.01948
G1 X-9.653 Y-9.285 E0.00925
M106 S170.85
;LAYER_CHANGE
;Z:0.6
;HEIGHT:0.2
;BEFORE_LAYER_CHANGE
G92 E0
;0.6
G1 E-3.5 F3600
;WIPE_START
G1 F8640
G1 X-9.46 Y-9.478 E-0.10822
G1 X-8.884 Y-9.478 E-0.22788
G1 X-9.478 Y-8.884 E-0.3325
G1 X-9.478 Y-8.308 E-0.22788
G1 X-8.534 Y-9.252 E-0.52852
;WIPE_END
G1 E-0.075 F3600
; stop printing object xyzCalibration_cube id:0 copy 0
G1 Z0.6 F10800
;AFTER_LAYER_CHANGE
;0.6
; printing object xyzCalibration_cube id:0 copy 0
M204 S800
G1 X-8.534 Y-9.775
G1 E5 F2400
;TYPE:External perimeter
;WIDTH:0.45
G1 F1500
G1 X9.775 Y-9.775 E0.61973
G1 X9.775 Y9.775 E0.66174
G1 X-9.775 Y9.775 E0.66174
G1 X-9.775 Y-9.775 E0.66174
G1 X-8.594 Y-9.775 E0.03999
;WIPE_START
M204 S1000
G1 X-8.334 Y-9.429 F10800
;WIPE_END
G1 E-3.5 F3600
;WIPE_START
G1 F8640
G1 X-4.734 Y-9.458 E-1.425
;WIPE_END
G1 E-0.075 F3600
; acceleration to travel
M204 S1500
G1 X6.805 Y-8.954 F10800
; decel to extrusion
M204 S1000
G1 X9.653 Y-8.83
; end travel
G1 E5 F2400
;TYPE:Solid infill
;WIDTH:0.4499
G1 F1800
G1 X9.005 Y-9.478 E0.03101
G1 X8.429 Y-9.478 E0.01948
G1 X9.478 Y-8.429 E0.05018
G1 X9.478 Y-7.854 E0.01948
G1 X7.854 Y-9.478 E0.07773
G1 X7.278 Y-9.478 E0.01948
G1 X9.478 Y-7.278 E0.10528
G1 X9.478 Y-6.702 E0.01948
G1 X6.702 Y-9.478 E0.13284
G1 X6.127 Y-9.478 E0.01948
G1 X9.478 Y-6.127 E0.16039
G1 X9.478 Y-5.551 E0.01948
G1 X5.551 Y-9.478 E0.18794
G1 X4.975 Y-9.478 E0.01948
G1 X9.478 Y-4.975 E0.21549
G1 X9.478 Y-4.399 E0.01948
G1 X4.399 Y-9.478 E0.24305
G1 X3.824 Y-9.478 E0.01948
G1 X9.478 Y-3.824 E0.2706
G1 X9.478 Y-3.248 E0.01948
G1 X3.248 Y-9.478 E0.29815
G1 X2.672 Y-9.478 E0.01948
G1 X9.478 Y-2.672 E0.3257
G1 X9.478 Y-2.097 E0.01948
G1 X2.097 Y-9.478 E0.35325
G1 X1.521 Y-9.478 E0.01948
G1 X9.478 Y-1.521 E0.38081
G1 X9.478 Y-0.945 E0.01948
G1 X0.945 Y-9.478 E0.40836
G1 X0.37 Y-9.478 E0.01948
G1 X9.478 Y-0.37 E0.43591
G1 X9.478 Y0.206 E0.01948
G1 X-0.206 Y-9.478 E0.46346
G1 X-0.782 Y-9.478 E0.01948
G1 X9.478 Y0.782 E0.49101
G1 X9.478 Y1.358 E0.01948
G1 X-1.358 Y-9.478 E0.51857
G1 X-1.933 Y-9.478 E0.01948
G1 X9.478 Y1.933 E0.54612
G1 X9.478 Y2.509 E0.01948
G1 X-2.509 Y-9.478 E0.57367
G1 X-3.085 Y-9.478 E0.01948
G1 X9.478 Y3.085 E0.60122
G1 X9.478 Y3.66 E0.01948
G1 X-3.66 Y-9.478 E0.62878
G1 X-4.236 Y-9.478 E0.01948
G1 X9.478 Y4.236 E0.65633
G1 X9.478 Y4.812 E0.01948
G1 X-4.812 Y-9.478 E0.68388
G1 X-5.387 Y-9.478 E0.01948
G1 X9.478 Y5.387 E0.71143
G1 X9.478 Y5.963 E0.01948
G1 X-5.963 Y-9.478 E0.73898
G1 X-6.539 Y-9.478 E0.01948
G1 X9.478 Y6.539 E0.76654
G1 X9.478 Y7.114 E0.01948
G1 X-7.114 Y-9.478 E0.79409
G1 X-7.69 Y-9.478 E0.01948
G1 X9.478 Y7.69 E0.82164
G1 X9.478 Y8.266 E0.01948
G1 X-8.266 Y-9.478 E0.84919
G1 X-8.842 Y-9.478 E0.01948
G1 X9.478 Y8.842 E0.87674
G1 X9.478 Y9.417 E0.01948
G1 X-9.417 Y-9.478 E0.9043
G1 X-9.478 Y-9.478 E0.00205
G1 X-9.478 Y-8.963 E0.01743
G1 X8.963 Y9.478 E0.88254
G1 X8.387 Y9.478 E0.01948
G1 X-9.478 Y-8.387 E0.85499
G1 X-9.478 Y-7.811 E0.01948
G1 X7.811 Y9.478 E0.82744
G1 X7.236 Y9.478 E0.01948
G1 X-9.478 Y-7.236 E0.79989
G1 X-9.478 Y-6.66 E0.01948
G1 X6.66 Y9.478 E0.77233
G1 X6.084 Y9.478 E0.01948
G1 X-9.478 Y-6.084 E0.74478
G1 X-9.478 Y-5.509 E0.01948
G1 X5.509 Y9.478 E0.71723
G1 X4.933 Y9.478 E0.01948
G1 X-9.478 Y-4.933 E0.68968
G1 X-9.478 Y-4.357 E0.01948
G1 X4.357 Y9.478 E0.66213
G1 X3.781 Y9.478 E0.01948
G1 X-9.478 Y-3.781 E0.63457
G1 X-9.478 Y-3.206 E0.01948
G1 X3.206 Y9.478 E0.60702
G1 X2.63 Y9.478 E0.01948
G1 X-9.478 Y-2.63 E0.57947
G1 X-9.478 Y-2.054 E0.01948
G1 X2.054 Y9.478 E0.55192
G1 X1.479 Y9.478 E0.01948
G1 X-9.478 Y-1.479 E0.52436
G1 X-9.478 Y-0.903 E0.01948
G1 X0.903 Y9.478 E0.49681
G1 X0.327 Y9.478 E0.01948
G1 X-9.478 Y-0.327 E0.46926
G1 X-9.478 Y0.248 E0.01948
G1 X-0.248 Y9.478 E0.44171
G1 X-0.824 Y9.478 E0.01948
G1 X-9.478 Y0.824 E0.41416
G1 X-9.478 Y1.4 E0.01948
G1 X-1.4 Y9.478 E0.3866
G1 X-1.976 Y9.478 E0.01948
G1 X-9.478 Y1.976 E0.35905
G1 X-9.478 Y2.551 E0.01948
G1 X-2.551 Y9.478 E0.3315
G1 X-3.127 Y9.478 E0.01948
G1 X-9.478 Y3.127 E0.30395
G1 X-9.478 Y3.703 E0.01948
G1 X-3.703 Y9.478 E0.2764
G1 X-4.278 Y9.478 E0.01948
G1 X-9.478 Y4.278 E0.24884
G1 X-9.478 Y4.854 E0.01948
G1 X-4.854 Y9.478 E0.22129
G1 X-5.43 Y9.478 E0.01948
G1 X-9.478 Y5.43 E0.19374
G1 X-9.478 Y6.005 E0.01948
G1 X-6.005 Y9.478 E0.16619
G1 X-6.581 Y9.478 E0.01948
G1 X-9.478 Y6.581 E0.13864
G1 X-9.478 Y7.157 E0.01948
G1 X-7.157 Y9.478 E0.11108
G1 X-7.732 Y9.478 E0.01948
G1 X-9.478 Y7.732 E0.08353
G1 X-9.478 Y8.308 E0.01948
G1 X-8.308 Y9.478 E0.05598
G1 X-8.884 Y9.478 E0.01948
G1 X-9.478 Y8.884 E0.02843
G1 X-9.478 Y9.46 E0.01948
G1 X-9.285 Y9.653 E0.00925
