; generated by SuperSlicer 2.4 on 2023-03-14 at 03:30:57 UTC


;
;

;
;
; 

; external perimeters extrusion width = 0.45mm
; perimeters extrusion width = 0.45mm
; infill extrusion width = 0.45mm
; solid infill extrusion width = 0.45mm
; top infill extrusion width = 0.40mm
; first layer extrusion width = 0.42mm

; object:{"name":"smart_compact_temp_calibration","id":"smart_compact_temp_calibration id:0 copy 0","object_center":[0.000000,-0.100000,0.000000],"boundingbox_center":[0.000000,-0.100000,35.000000],"boundingbox_size":[44.487499,5.200000,70.000000]}
; plater:{"center":[0.000000,-0.100000,0.000000],"boundingbox_center":[0.000000,-0.100000,35.000000],"boundingbox_size":[44.487499,5.200000,70.000000]}

;TYPE:Custom
START_PRINT
M107
G21 ; set units to millimeters
G90 ; use absolute coordinates
M83 ; use relative distances for extrusion
; Filament gcode
;_TOOLCHANGE 0
M104 S200 ; set temperature
M109 S200 ; set temperature and wait for it to be reached
M190 S60 ; set bed temperature and wait for it to be reached
M107
;LAYER_CHANGE
;Z:0.2
;HEIGHT:0.2
;BEFORE_LAYER_CHANGE
G92 E0
;0.2
G1 E-5 F3600
G1 Z0.2 F10800
;AFTER_LAYER_CHANGE
;0.2
M204 S1000
G1 X0 Y-11.266
G1 E5 F2400
;TYPE:Skirt
;WIDTH:0.52
G1 F1200
G1 X-17.851 Y-11.266 E0.70814
G1 X-21.916 Y-11.1 E0.16139
G1 X-24.147 Y-10.544 E0.09118
G1 X-25.862 Y-9.283 E0.08445
G1 X-26.996 Y-7.481 E0.08445
G1 X-27.393 Y-5.39 E0.08445
G1 X-27.393 Y5.39 E0.42761
G1 X-26.93 Y7.641 E0.09118
G1 X-25.742 Y9.408 E0.08445
G1 X-23.989 Y10.617 E0.08445
G1 X-21.916 Y11.1 E0.08445
G1 X-17.851 Y11.266 E0.16139
G1 X15.728 Y11.266 E1.33206
G1 X18.197 Y10.705 E0.10046
G1 X19.912 Y9.443 E0.08445
G1 X21.047 Y7.642 E0.08445
G1 X21.443 Y5.55 E0.08445
G1 X21.443 Y-5.55 E0.44033
G1 X20.882 Y-8.02 E0.10046
G1 X19.621 Y-9.735 E0.08445
G1 X17.82 Y-10.869 E0.08445
G1 X15.728 Y-11.266 E0.08445
G1 X0.06 Y-11.266 E0.62153
G1 X0.06 Y-10.789 F10800
G1 F1200
G1 X-17.851 Y-10.789 E0.71052
G1 X-21.896 Y-10.624 E0.1606
G1 X-23.7 Y-10.222 E0.07332
G1 X-25.391 Y-9.084 E0.08082
G1 X-26.519 Y-7.388 E0.08082
G1 X-26.915 Y-5.39 E0.08082
G1 X-26.915 Y5.39 E0.42761
G1 X-26.589 Y7.209 E0.07332
G1 X-25.524 Y8.946 E0.08082
G1 X-23.876 Y10.144 E0.08082
G1 X-21.896 Y10.624 E0.08082
G1 X-17.851 Y10.789 E0.1606
G1 X15.728 Y10.789 E1.33206
G1 X17.751 Y10.382 E0.08187
G1 X19.442 Y9.245 E0.08082
G1 X20.57 Y7.548 E0.08082
G1 X20.966 Y5.55 E0.08082
G1 X20.966 Y-5.55 E0.44033
G1 X20.56 Y-7.573 E0.08187
G1 X19.423 Y-9.264 E0.08082
G1 X17.726 Y-10.392 E0.08082
G1 X15.728 Y-10.789 E0.08082
G1 X0.12 Y-10.789 E0.61915
G1 E-3.5 F3600
;WIPE_START
G1 F8640
G1 X-3.48 Y-10.789 E-1.425
;WIPE_END
G1 E-0.075 F3600
; acceleration to travel
M204 S1500
G1 X-0.584 Y-6.273 F10800
; decel to extrusion
M204 S1000
G1 X0.119 Y-5.176
; end travel
G1 E5 F2400
;WIDTH:0.42
G1 F1200
G1 X12.852 Y-5.174 E0.39922
G1 X13.325 Y-5.086 E0.01511
G1 X13.799 Y-4.902 E0.01594
G1 X14.328 Y-4.55 E0.01991
G1 X14.718 Y-4.16 E0.0173
G1 X15.003 Y-3.765 E0.01526
G1 X15.247 Y-3.204 E0.01919
G1 X15.352 Y-2.677 E0.01684
G1 X15.356 Y2.626 E0.16626
G1 X15.272 Y3.119 E0.0157
G1 X15.086 Y3.606 E0.01634
G1 X14.836 Y4.016 E0.01505
G1 X14.342 Y4.537 E0.02252
G1 X13.857 Y4.872 E0.01849
G1 X13.454 Y5.045 E0.01374
G1 X13.042 Y5.153 E0.01337
G1 X-17.842 Y5.178 E0.96834
G1 X-18.963 Y5.123 E0.03518
G1 X-19.419 Y5.009 E0.01476
G1 X-19.87 Y4.807 E0.01548
G1 X-20.342 Y4.463 E0.01831
G1 X-20.77 Y4.002 E0.01974
G1 X-21 Y3.645 E0.01332
G1 X-21.182 Y3.215 E0.01462
G1 X-21.282 Y2.819 E0.01281
G1 X-21.292 Y-2.728 E0.17394
G1 X-21.197 Y-3.168 E0.01412
G1 X-20.954 Y-3.73 E0.0192
G1 X-20.7 Y-4.089 E0.01376
G1 X-20.329 Y-4.476 E0.01681
G1 X-19.866 Y-4.809 E0.01788
G1 X-19.484 Y-4.986 E0.01322
G1 X-19.095 Y-5.102 E0.01271
G1 X-17.815 Y-5.178 E0.04021
G1 X0.059 Y-5.176 E0.56043
G1 X0.059 Y-4.799 F10800
G1 F1200
G1 X12.834 Y-4.797 E0.40053
G1 X13.236 Y-4.719 E0.01286
G1 X13.642 Y-4.559 E0.01368
G1 X14.074 Y-4.27 E0.0163
G1 X14.441 Y-3.903 E0.01626
G1 X14.666 Y-3.594 E0.01201
G1 X14.882 Y-3.107 E0.01668
G1 X14.975 Y-2.658 E0.01441
G1 X14.979 Y2.61 E0.16517
G1 X14.913 Y3.002 E0.01246
G1 X14.741 Y3.455 E0.01519
G1 X14.526 Y3.8 E0.01274
G1 X14.083 Y4.262 E0.02008
G1 X13.691 Y4.533 E0.01494
G1 X13.319 Y4.693 E0.01269
G1 X12.971 Y4.782 E0.01127
G1 X-17.837 Y4.8 E0.96598
G1 X-18.925 Y4.747 E0.03414
G1 X-19.309 Y4.648 E0.01244
G1 X-19.696 Y4.472 E0.01332
G1 X-20.078 Y4.193 E0.01482
G1 X-20.482 Y3.759 E0.01862
G1 X-20.672 Y3.457 E0.01118
G1 X-20.828 Y3.083 E0.01269
G1 X-20.91 Y2.751 E0.01074
G1 X-20.915 Y-2.708 E0.17115
G1 X-20.833 Y-3.068 E0.01158
G1 X-20.634 Y-3.53 E0.01578
G1 X-20.418 Y-3.838 E0.0118
G1 X-20.069 Y-4.202 E0.01582
G1 X-19.691 Y-4.474 E0.01458
G1 X-19.338 Y-4.638 E0.01221
G1 X-19.01 Y-4.734 E0.01071
G1 X-17.81 Y-4.801 E0.03769
G1 X-0.001 Y-4.799 E0.55838
G1 X-0.001 Y-4.422 F10800
G1 F1200
G1 X12.815 Y-4.42 E0.40182
G1 X13.144 Y-4.353 E0.01054
G1 X13.482 Y-4.216 E0.01145
G1 X13.821 Y-3.99 E0.01275
G1 X14.164 Y-3.647 E0.01523
G1 X14.331 Y-3.42 E0.00882
G1 X14.518 Y-3.008 E0.0142
G1 X14.598 Y-2.637 E0.01189
G1 X14.602 Y2.594 E0.16402
G1 X14.545 Y2.919 E0.01034
G1 X14.396 Y3.301 E0.01285
G1 X14.218 Y3.582 E0.01043
G1 X13.825 Y3.986 E0.01768
G1 X13.525 Y4.194 E0.01145
G1 X13.185 Y4.34 E0.01162
G1 X12.902 Y4.411 E0.00913
G1 X-17.833 Y4.423 E0.96368
G1 X-18.886 Y4.372 E0.03307
G1 X-19.196 Y4.288 E0.01004
G1 X-19.52 Y4.137 E0.01123
G1 X-19.814 Y3.923 E0.0114
G1 X-20.193 Y3.515 E0.01747
G1 X-20.343 Y3.272 E0.00895
G1 X-20.474 Y2.954 E0.01079
G1 X-20.538 Y2.685 E0.00868
G1 X-20.538 Y-2.685 E0.16836
G1 X-20.47 Y-2.963 E0.00898
G1 X-20.313 Y-3.331 E0.01255
G1 X-20.135 Y-3.588 E0.00979
G1 X-19.808 Y-3.929 E0.01481
G1 X-19.516 Y-4.139 E0.01129
G1 X-19.193 Y-4.289 E0.01118
G1 X-18.927 Y-4.365 E0.00866
G1 X-17.805 Y-4.424 E0.03524
G1 X-0.061 Y-4.422 E0.55635
G1 X-0.061 Y-4.045 F10800
G1 F1200
G1 X12.794 Y-4.043 E0.40307
G1 X13.047 Y-3.988 E0.00812
G1 X13.321 Y-3.875 E0.00928
G1 X13.567 Y-3.711 E0.00928
G1 X13.887 Y-3.391 E0.01418
G1 X14.014 Y-3.215 E0.00679
G1 X14.165 Y-2.873 E0.01174
G1 X14.221 Y-2.617 E0.00822
G1 X14.225 Y2.577 E0.16285
G1 X14.178 Y2.832 E0.00813
G1 X14.053 Y3.143 E0.01051
G1 X13.912 Y3.361 E0.00812
G1 X13.569 Y3.709 E0.01534
G1 X13.359 Y3.855 E0.00801
G1 X13.051 Y3.987 E0.01051
G1 X12.836 Y4.039 E0.00693
G1 X-17.828 Y4.046 E0.96145
G1 X-18.847 Y3.996 E0.03198
G1 X-19.051 Y3.94 E0.00663
G1 X-19.345 Y3.803 E0.01016
G1 X-19.55 Y3.653 E0.00797
G1 X-19.904 Y3.273 E0.01627
G1 X-20.012 Y3.092 E0.00662
G1 X-20.118 Y2.827 E0.00896
G1 X-20.166 Y2.62 E0.00664
G1 X-20.166 Y-2.62 E0.16432
G1 X-20.117 Y-2.83 E0.00675
G1 X-19.974 Y-3.165 E0.01142
G1 X-19.853 Y-3.338 E0.00661
G1 X-19.549 Y-3.655 E0.01379
G1 X-19.314 Y-3.821 E0.00903
G1 X-19.051 Y-3.94 E0.00903
G1 X-18.847 Y-3.996 E0.00664
G1 X-17.8 Y-4.047 E0.03286
G1 X-0.121 Y-4.045 E0.55432
G1 X-0.121 Y-3.668 F10800
G1 F1200
G1 X12.774 Y-3.666 E0.40429
G1 X12.918 Y-3.634 E0.00465
G1 X13.16 Y-3.534 E0.00819
G1 X13.313 Y-3.431 E0.0058
G1 X13.609 Y-3.136 E0.01309
G1 X13.694 Y-3.014 E0.00465
G1 X13.812 Y-2.74 E0.00935
G1 X13.844 Y-2.596 E0.00465
G1 X13.848 Y2.559 E0.16161
G1 X13.812 Y2.74 E0.0058
G1 X13.712 Y2.982 E0.00819
G1 X13.609 Y3.136 E0.0058
G1 X13.313 Y3.431 E0.01309
G1 X13.192 Y3.516 E0.00465
G1 X12.918 Y3.634 E0.00935
G1 X12.774 Y3.666 E0.00465
G1 X-17.816 Y3.669 E0.9591
G1 X-18.771 Y3.626 E0.02997
G1 X-18.91 Y3.59 E0.00453
G1 X-19.142 Y3.485 E0.00797
G1 X-19.289 Y3.381 E0.00565
G1 X-19.592 Y3.06 E0.01385
G1 X-19.668 Y2.937 E0.00452
G1 X-19.762 Y2.701 E0.00797
G1 X-19.793 Y2.56 E0.00452
G1 X-19.793 Y-2.56 E0.16052
G1 X-19.763 Y-2.701 E0.00452
G1 X-19.651 Y-2.969 E0.0091
G1 X-19.57 Y-3.088 E0.00452
G1 X-19.289 Y-3.381 E0.01273
G1 X-19.142 Y-3.485 E0.00565
G1 X-18.91 Y-3.59 E0.00797
G1 X-18.77 Y-3.626 E0.00453
G1 X-17.796 Y-3.67 E0.03059
G1 X-0.181 Y-3.668 E0.55231
G1 X-0.181 Y-3.293 F10800
G1 F1200
G1 X12.718 Y-3.293 E0.40444
G1 X12.791 Y-3.278 E0.00233
G1 X12.998 Y-3.192 E0.00703
G1 X13.06 Y-3.151 E0.00233
G1 X13.329 Y-2.882 E0.01193
G1 X13.37 Y-2.82 E0.00233
G1 X13.456 Y-2.613 E0.00703
G1 X13.471 Y-2.54 E0.00233
G1 X13.471 Y2.54 E0.1593
G1 X13.456 Y2.613 E0.00233
G1 X13.37 Y2.82 E0.00703
G1 X13.329 Y2.882 E0.00233
G1 X13.06 Y3.151 E0.01193
G1 X12.998 Y3.192 E0.00233
G1 X12.791 Y3.278 E0.00703
G1 X12.718 Y3.293 E0.00233
G1 X-17.804 Y3.293 E0.95699
G1 X-18.701 Y3.255 E0.02816
G1 X-18.771 Y3.238 E0.00227
G1 X-18.97 Y3.149 E0.00684
G1 X-19.029 Y3.107 E0.00227
G1 X-19.285 Y2.84 E0.01159
G1 X-19.325 Y2.779 E0.00227
G1 X-19.406 Y2.577 E0.00684
G1 X-19.42 Y2.506 E0.00227
G1 X-19.42 Y-2.506 E0.15714
G1 X-19.406 Y-2.577 E0.00227
G1 X-19.325 Y-2.779 E0.00684
G1 X-19.285 Y-2.84 E0.00227
G1 X-19.029 Y-3.107 E0.01159
G1 X-18.97 Y-3.149 E0.00227
G1 X-18.771 Y-3.238 E0.00684
G1 X-18.701 Y-3.255 E0.00227
G1 X-17.792 Y-3.293 E0.02853
G1 X-0.241 Y-3.293 E0.5503
G1 X-0.241 Y-2.916 F10800
G1 F1200
G1 X12.681 Y-2.916 E0.40515
G1 X12.82 Y-2.858 E0.0047
G1 X13.036 Y-2.642 E0.0096
G1 X13.093 Y-2.503 E0.0047
G1 X13.093 Y2.503 E0.15697
G1 X13.036 Y2.642 E0.0047
G1 X12.82 Y2.858 E0.0096
G1 X12.681 Y2.916 E0.0047
G1 X-17.792 Y2.916 E0.95546
G1 X-18.649 Y2.88 E0.0269
G1 X-18.782 Y2.82 E0.00457
G1 X-18.988 Y2.605 E0.00933
G1 X-19.043 Y2.47 E0.00457
G1 X-19.043 Y-2.47 E0.15487
G1 X-18.988 Y-2.605 E0.00457
G1 X-18.782 Y-2.82 E0.00933
G1 X-18.649 Y-2.88 E0.00457
G1 X-17.788 Y-2.916 E0.02702
G1 X-0.301 Y-2.916 E0.5483
G1 X-0.301 Y-2.539 F10800
G1 F1200
G1 X12.606 Y-2.539 E0.40468
G1 X12.716 Y-2.428 E0.0049
G1 X12.716 Y2.428 E0.15226
G1 X12.606 Y2.539 E0.0049
G1 X-17.786 Y2.539 E0.95292
G1 X-18.561 Y2.506 E0.0243
G1 X-18.665 Y2.397 E0.00475
G1 X-18.665 Y-2.397 E0.1503
G1 X-18.561 Y-2.506 E0.00475
G1 X-17.786 Y-2.539 E0.0243
G1 X-0.361 Y-2.539 E0.54636
M104 S215 ; set temperature
; printing object smart_compact_temp_calibration id:0 copy 0
M204 S800
G1 X-0.361 Y-2.14 F10800
;TYPE:External perimeter
G1 F1200
G1 X12.318 Y-2.14 E0.39753
G1 X12.318 Y2.14 E0.1342
G1 X-17.78 Y2.14 E0.94369
G1 X-18.267 Y2.12 E0.01529
G1 X-18.267 Y-2.12 E0.13292
G1 X-17.78 Y-2.14 E0.01529
G1 X-0.421 Y-2.14 E0.54428
;WIPE_START
M204 S1000
G1 X-0.161 Y-1.794 F10800
;WIPE_END
G1 E-3.5 F3600
;WIPE_START
G1 F8640
G1 X3.439 Y-1.837 E-1.425
;WIPE_END
G1 E-0.075 F3600
; acceleration to travel
M204 S1500
G1 X10.491 Y-1.376 F10800
; decel to extrusion
M204 S1000
G1 X12.205 Y-1.265
; end travel
G1 E5 F2400
;TYPE:Solid infill
;WIDTH:0.421884
G1 F1200
G1 X11.605 Y-1.864 E0.02671
G1 X11.072 Y-1.864 E0.01678
G1 X12.043 Y-0.893 E0.04323
G1 X12.043 Y-0.36 E0.0168
G1 X10.539 Y-1.864 E0.06696
G1 X10.006 Y-1.863 E0.01678
G1 X12.043 Y0.173 E0.0907
G1 X12.043 Y0.706 E0.0168
G1 X9.473 Y-1.863 E0.11443
G1 X8.94 Y-1.863 E0.01678
G1 X12.043 Y1.24 E0.13817
G1 X12.043 Y1.773 E0.0168
G1 X8.408 Y-1.862 E0.16191
G1 X7.875 Y-1.862 E0.01678
G1 X11.601 Y1.864 E0.16596
G1 X11.067 Y1.864 E0.01681
G1 X7.342 Y-1.861 E0.16593
G1 X6.809 Y-1.861 E0.01678
G1 X10.533 Y1.864 E0.1659
G1 X10 Y1.863 E0.01681
G1 X6.276 Y-1.861 E0.16587
G1 X5.743 Y-1.86 E0.01678
G1 X9.466 Y1.863 E0.16583
G1 X8.933 Y1.862 E0.01681
G1 X5.21 Y-1.86 E0.1658
G1 X4.677 Y-1.86 E0.01678
G1 X8.399 Y1.862 E0.16577
G1 X7.865 Y1.862 E0.01681
G1 X4.144 Y-1.859 E0.16574
G1 X3.611 Y-1.859 E0.01678
G1 X7.332 Y1.861 E0.16571
G1 X6.798 Y1.861 E0.01681
G1 X3.078 Y-1.859 E0.16568
G1 X2.545 Y-1.858 E0.01678
G1 X6.264 Y1.861 E0.16564
G1 X5.731 Y1.86 E0.01681
G1 X2.013 Y-1.858 E0.16561
G1 X1.48 Y-1.858 E0.01678
G1 X5.197 Y1.86 E0.16558
G1 X4.664 Y1.86 E0.01681
G1 X0.947 Y-1.857 E0.16555
G1 X0.414 Y-1.857 E0.01678
G1 X4.13 Y1.859 E0.16552
G1 X3.596 Y1.859 E0.01681
G1 X-0.119 Y-1.856 E0.16549
G1 X-0.652 Y-1.856 E0.01678
G1 X3.063 Y1.859 E0.16545
G1 X2.529 Y1.858 E0.01681
G1 X-1.185 Y-1.856 E0.16542
G1 X-1.718 Y-1.855 E0.01678
G1 X1.995 Y1.858 E0.16539
G1 X1.462 Y1.858 E0.01681
G1 X-2.251 Y-1.855 E0.16536
G1 X-2.784 Y-1.855 E0.01678
G1 X0.928 Y1.857 E0.16533
G1 X0.395 Y1.857 E0.01681
G1 X-3.317 Y-1.854 E0.1653
G1 X-3.849 Y-1.854 E0.01678
G1 X-0.139 Y1.856 E0.16526
G1 X-0.673 Y1.856 E0.01681
G1 X-4.382 Y-1.854 E0.16523
G1 X-4.915 Y-1.853 E0.01678
G1 X-1.206 Y1.856 E0.1652
G1 X-1.74 Y1.855 E0.01681
G1 X-5.448 Y-1.853 E0.16517
G1 X-5.981 Y-1.853 E0.01678
G1 X-2.274 Y1.855 E0.16514
G1 X-2.807 Y1.855 E0.01681
G1 X-6.514 Y-1.852 E0.16511
G1 X-7.047 Y-1.852 E0.01678
G1 X-3.341 Y1.854 E0.16507
G1 X-3.874 Y1.854 E0.01681
G1 X-7.58 Y-1.851 E0.16504
G1 X-8.113 Y-1.851 E0.01678
G1 X-4.408 Y1.854 E0.16501
G1 X-4.942 Y1.853 E0.01681
G1 X-8.646 Y-1.851 E0.16498
G1 X-9.179 Y-1.85 E0.01678
G1 X-5.475 Y1.853 E0.16495
G1 X-6.009 Y1.853 E0.01681
G1 X-9.712 Y-1.85 E0.16492
G1 X-10.244 Y-1.85 E0.01678
G1 X-6.543 Y1.852 E0.16488
G1 X-7.076 Y1.852 E0.01681
G1 X-10.777 Y-1.849 E0.16485
G1 X-11.31 Y-1.849 E0.01678
G1 X-7.61 Y1.851 E0.16482
G1 X-8.143 Y1.851 E0.01681
G1 X-11.843 Y-1.849 E0.16479
G1 X-12.376 Y-1.848 E0.01678
G1 X-8.677 Y1.851 E0.16476
G1 X-9.211 Y1.85 E0.01681
G1 X-12.909 Y-1.848 E0.16472
G1 X-13.442 Y-1.848 E0.01678
G1 X-9.744 Y1.85 E0.16469
G1 X-10.278 Y1.85 E0.01681
G1 X-13.975 Y-1.847 E0.16466
G1 X-14.508 Y-1.847 E0.01678
G1 X-10.812 Y1.849 E0.16463
G1 X-11.345 Y1.849 E0.01681
G1 X-15.041 Y-1.846 E0.1646
G1 X-15.574 Y-1.846 E0.01678
G1 X-11.879 Y1.849 E0.16457
G1 X-12.412 Y1.848 E0.01681
G1 X-16.107 Y-1.846 E0.16453
G1 X-16.639 Y-1.845 E0.01678
G1 X-12.946 Y1.848 E0.1645
G1 X-13.48 Y1.848 E0.01681
G1 X-17.172 Y-1.845 E0.16447
G1 X-17.705 Y-1.845 E0.01678
G1 X-14.013 Y1.847 E0.16444
G1 X-14.547 Y1.847 E0.01681
G1 X-17.992 Y-1.598 E0.15343
G1 X-17.992 Y-1.065 E0.0168
G1 X-15.081 Y1.846 E0.12966
G1 X-15.614 Y1.846 E0.01681
G1 X-17.992 Y-0.531 E0.10589
G1 X-17.992 Y0.002 E0.0168
G1 X-16.148 Y1.846 E0.08212
G1 X-16.681 Y1.845 E0.01681
G1 X-17.992 Y0.535 E0.05836
G1 X-17.992 Y1.068 E0.0168
G1 X-17.215 Y1.845 E0.03459
G1 X-17.749 Y1.845 E0.01681
G1 X-18.154 Y1.44 E0.01804
M106 S84.15
;LAYER_CHANGE
;Z:0.4
;HEIGHT:0.2
;BEFORE_LAYER_CHANGE
G92 E0
;0.4
G1 E-3.5 F3600
;WIPE_START
G1 F8640
G1 X-17.749 Y1.845 E-0.22676
G1 X-17.215 Y1.845 E-0.21123
G1 X-17.992 Y1.068 E-0.43471
G1 X-17.992 Y0.535 E-0.21109
G1 X-17.382 Y1.145 E-0.34121
;WIPE_END
G1 E-0.075 F3600
; stop printing object smart_compact_temp_calibration id:0 copy 0
G1 Z0.4 F10800
;AFTER_LAYER_CHANGE
;0.4
M104 S200 ; set temperature
M104 S215 ; set temperature
; printing object smart_compact_temp_calibration id:0 copy 0
M204 S800
G1 X-17.382 Y1.818
G1 E5 F2400
;TYPE:Internal perimeter
;WIDTH:0.45
G1 F2700
G1 X-17.768 Y1.818 E0.01306
G1 X-18.108 Y1.8 E0.01152
G1 X-18.108 Y-1.8 E0.12183
G1 X-17.768 Y-1.818 E0.01152
G1 X12.242 Y-1.818 E1.01581
G1 X12.242 Y1.818 E0.12307
G1 X-17.322 Y1.818 E1.00072
G1 X-17.382 Y2.225 F10800
;TYPE:External perimeter
G1 F1500
G1 X-17.779 Y2.225 E0.01343
G1 X-18.515 Y2.186 E0.02495
G1 X-18.515 Y-2.186 E0.14795
G1 X-17.779 Y-2.225 E0.02495
G1 X12.649 Y-2.225 E1.02996
G1 X12.649 Y2.225 E0.15063
G1 X-17.322 Y2.225 E1.0145
;WIPE_START
M204 S1000
G1 X-17.582 Y1.879 F10800
;WIPE_END
G1 E-3.5 F3600
;WIPE_START
G1 F8640
G1 X-18.315 Y1.996 E-0.29373
G1 X-18.315 Y-0.862 E-1.13127
;WIPE_END
G1 E-0.075 F3600
G1 X-17.568 Y-1.678 F10800
G1 E5 F2400
;TYPE:Solid infill
;WIDTH:0.449899
G1 F1800
G1 X-17.811 Y-1.435 E0.0116
G1 X-17.811 Y-0.86 E0.01948
G1 X-17.167 Y-1.503 E0.03079
G1 X-16.591 Y-1.503 E0.01949
G1 X-17.811 Y-0.284 E0.05836
G1 X-17.811 Y0.292 E0.01948
G1 X-16.015 Y-1.504 E0.08593
G1 X-15.439 Y-1.504 E0.01949
G1 X-17.811 Y0.867 E0.1135
G1 X-17.811 Y1.443 E0.01948
G1 X-14.863 Y-1.504 E0.14106
G1 X-14.287 Y-1.505 E0.01949
G1 X-17.295 Y1.503 E0.14395
G1 X-16.72 Y1.503 E0.01947
G1 X-13.711 Y-1.505 E0.14398
G1 X-13.135 Y-1.506 E0.01949
G1 X-16.144 Y1.504 E0.14402
G1 X-15.569 Y1.504 E0.01947
G1 X-12.559 Y-1.506 E0.14405
G1 X-11.983 Y-1.506 E0.01949
G1 X-14.994 Y1.504 E0.14408
G1 X-14.418 Y1.505 E0.01947
G1 X-11.407 Y-1.507 E0.14412
G1 X-10.831 Y-1.507 E0.01949
G1 X-13.843 Y1.505 E0.14415
G1 X-13.267 Y1.505 E0.01947
G1 X-10.255 Y-1.507 E0.14418
G1 X-9.679 Y-1.508 E0.01949
G1 X-12.692 Y1.506 E0.14422
G1 X-12.117 Y1.506 E0.01947
G1 X-9.103 Y-1.508 E0.14425
G1 X-8.527 Y-1.508 E0.01949
G1 X-11.541 Y1.506 E0.14428
