; generated by SuperSlicer 2.4 on 2024-01-11 at 02:07:37 UTC


;
;

;
;
; 

; external perimeters extrusion width = 0.45mm
; perimeters extrusion width = 0.45mm
; infill extrusion width = 0.45mm
; solid infill extrusion width = 0.45mm
; top infill extrusion width = 0.40mm
; first layer extrusion width = 0.42mm

; object:{"name":"AC_Kobra_Go_Neo_Height_Gauge_v1","id":"AC_Kobra_Go_Neo_Height_Gauge_v1.stl id:0 copy 0","object_center":[0.000000,0.000000,0.000000],"boundingbox_center":[0.000000,0.000000,2.750000],"boundingbox_size":[75.000000,15.000000,5.500000]}
; plater:{"center":[0.000000,0.000000,0.000000],"boundingbox_center":[0.000000,0.000000,2.750000],"boundingbox_size":[75.000000,15.000000,5.500000]}

;TYPE:Custom
START_PRINT
M107
G21 ; set units to millimeters
G90 ; use absolute coordinates
M83 ; use relative distances for extrusion
; Filament gcode
;_TOOLCHANGE 0
M104 S240 ; set temperature
M109 S240 ; set temperature and wait for it to be reached
M190 S70 ; set bed temperature and wait for it to be reached
M107
;LAYER_CHANGE
;Z:0.2
;HEIGHT:0.2
;BEFORE_LAYER_CHANGE
G92 E0
;0.2
G1 E-5 F3600
G1 Z0.2 F10800
;AFTER_LAYER_CHANGE
;0.2
M204 S1000
G1 X0.002 Y-13.212
G1 E5 F2400
;TYPE:Skirt
;WIDTH:0.52
G1 F1200
G1 X-30 Y-13.216 E1.19014
G1 X-31.574 Y-13.118 E0.06255
G1 X-32.853 Y-12.9 E0.05147
G1 X-34.103 Y-12.558 E0.0514
G1 X-35.317 Y-12.094 E0.05155
G1 X-36.469 Y-11.519 E0.05108
G1 X-37.57 Y-10.828 E0.05158
G1 X-38.601 Y-10.029 E0.05173
G1 X-39.534 Y-9.146 E0.05097
G1 X-40.39 Y-8.161 E0.05176
G1 X-41.141 Y-7.101 E0.05155
G1 X-41.779 Y-5.982 E0.0511
G1 X-42.31 Y-4.796 E0.05155
G1 X-42.721 Y-3.567 E0.0514
G1 X-43.01 Y-2.302 E0.05148
G1 X-43.173 Y-1.015 E0.05147
G1 X-43.209 Y0.28 E0.05136
G1 X-43.118 Y1.574 E0.05146
G1 X-42.9 Y2.853 E0.05148
G1 X-42.31 Y4.796 E0.08054
G1 X-41.779 Y5.982 E0.05155
G1 X-41.141 Y7.101 E0.0511
G1 X-40.029 Y8.601 E0.07408
G1 X-38.601 Y10.029 E0.08012
G1 X-37.101 Y11.141 E0.07408
G1 X-35.317 Y12.094 E0.08024
G1 X-33.567 Y12.721 E0.07373
G1 X-31.574 Y13.118 E0.08062
G1 X-30 Y13.216 E0.06255
G1 X30 Y13.216 E2.38016
G1 X31.574 Y13.118 E0.06255
G1 X32.853 Y12.9 E0.05147
G1 X34.103 Y12.558 E0.0514
G1 X35.317 Y12.094 E0.05155
G1 X36.469 Y11.519 E0.05108
G1 X37.57 Y10.828 E0.05158
G1 X38.601 Y10.029 E0.05173
G1 X39.534 Y9.146 E0.05097
G1 X40.828 Y7.57 E0.08088
G1 X41.519 Y6.469 E0.05158
G1 X42.094 Y5.317 E0.05108
G1 X42.558 Y4.103 E0.05155
G1 X42.9 Y2.853 E0.0514
G1 X43.173 Y1.015 E0.07372
G1 X43.209 Y-0.28 E0.05136
G1 X43.118 Y-1.574 E0.05146
G1 X42.9 Y-2.853 E0.05147
G1 X42.558 Y-4.103 E0.0514
G1 X41.779 Y-5.982 E0.08069
G1 X41.141 Y-7.101 E0.0511
G1 X40.39 Y-8.161 E0.05155
G1 X39.534 Y-9.146 E0.05176
G1 X38.601 Y-10.029 E0.05097
G1 X37.101 Y-11.141 E0.07408
G1 X35.982 Y-11.779 E0.0511
G1 X34.796 Y-12.31 E0.05155
G1 X33.567 Y-12.721 E0.0514
G1 X32.302 Y-13.01 E0.05148
G1 X30.28 Y-13.209 E0.0806
G1 X0.061 Y-13.212 E1.19873
G1 X0.061 Y-12.735 F10800
G1 F1200
G1 X-30 Y-12.739 E1.19252
G1 X-31.504 Y-12.646 E0.05976
G1 X-32.737 Y-12.437 E0.04961
G1 X-33.942 Y-12.109 E0.04955
G1 X-35.113 Y-11.663 E0.04969
G1 X-36.224 Y-11.11 E0.04925
G1 X-37.286 Y-10.445 E0.04972
G1 X-38.28 Y-9.676 E0.04985
G1 X-39.181 Y-8.825 E0.04915
G1 X-40.007 Y-7.877 E0.04987
G1 X-40.732 Y-6.856 E0.04968
G1 X-41.348 Y-5.778 E0.04928
G1 X-41.861 Y-4.635 E0.04968
G1 X-42.258 Y-3.451 E0.04955
G1 X-42.538 Y-2.232 E0.04962
G1 X-42.696 Y-0.991 E0.04961
G1 X-42.732 Y0.256 E0.04951
G1 X-42.646 Y1.504 E0.0496
G1 X-42.437 Y2.737 E0.04962
G1 X-41.861 Y4.635 E0.07869
G1 X-41.348 Y5.778 E0.04968
G1 X-40.732 Y6.856 E0.04928
G1 X-39.676 Y8.28 E0.07033
G1 X-38.28 Y9.676 E0.0783
G1 X-36.856 Y10.732 E0.07033
G1 X-35.113 Y11.663 E0.07841
G1 X-33.451 Y12.258 E0.07002
G1 X-31.504 Y12.646 E0.07876
G1 X-30 Y12.739 E0.05976
G1 X30 Y12.739 E2.38016
G1 X31.504 Y12.646 E0.05976
G1 X32.737 Y12.437 E0.04961
G1 X33.942 Y12.109 E0.04955
G1 X35.113 Y11.663 E0.04969
G1 X36.224 Y11.11 E0.04925
G1 X37.286 Y10.445 E0.04972
G1 X38.28 Y9.676 E0.04985
G1 X39.181 Y8.825 E0.04915
G1 X40.445 Y7.286 E0.079
G1 X41.11 Y6.224 E0.04972
G1 X41.663 Y5.113 E0.04925
G1 X42.109 Y3.942 E0.04969
G1 X42.437 Y2.737 E0.04955
G1 X42.696 Y0.991 E0.07001
G1 X42.732 Y-0.256 E0.04951
G1 X42.646 Y-1.504 E0.0496
G1 X42.437 Y-2.737 E0.04961
G1 X42.109 Y-3.942 E0.04955
G1 X41.348 Y-5.778 E0.07882
G1 X40.732 Y-6.856 E0.04928
G1 X40.007 Y-7.877 E0.04968
G1 X39.181 Y-8.825 E0.04987
G1 X38.28 Y-9.676 E0.04915
G1 X36.856 Y-10.732 E0.07033
G1 X35.778 Y-11.348 E0.04928
G1 X34.635 Y-11.861 E0.04968
G1 X33.451 Y-12.258 E0.04955
G1 X32.232 Y-12.538 E0.04962
G1 X30.256 Y-12.732 E0.07874
G1 X0.121 Y-12.735 E1.19543
G1 E-3.5 F3600
;WIPE_START
G1 F8640
G1 X-3.479 Y-12.736 E-1.425
;WIPE_END
G1 E-0.075 F3600
; printing object AC_Kobra_Go_Neo_Height_Gauge_v1.stl id:0 copy 0
; acceleration to travel
M204 S1500
G1 X19.561 Y-4.174 F10800
; decel to extrusion
M204 S800
G1 X24.04 Y-2.509
; end travel
G1 E5 F2400
;TYPE:Internal perimeter
;WIDTH:0.42
G1 F1200
G1 X24.024 Y-2.475 E0.00117
G1 X23.81 Y-1.877 E0.01993
G1 X23.656 Y-1.261 E0.01991
G1 X23.563 Y-0.633 E0.0199
G1 X23.533 Y0 E0.01987
G1 X23.563 Y0.633 E0.01987
G1 X23.656 Y1.261 E0.0199
G1 X23.81 Y1.877 E0.01991
G1 X24.024 Y2.475 E0.01993
G1 X24.296 Y3.05 E0.01991
G1 X24.623 Y3.594 E0.0199
G1 X25.001 Y4.103 E0.01989
G1 X25.426 Y4.574 E0.01989
G1 X25.897 Y4.999 E0.01989
G1 X26.406 Y5.377 E0.01989
G1 X26.95 Y5.704 E0.0199
G1 X27.525 Y5.976 E0.01991
G1 X28.123 Y6.19 E0.01993
G1 X28.448 Y6.271 E0.0105
G1 X28.415 Y6.536 E0.00837
G1 X-29.976 Y6.536 E1.83083
G1 X-30.64 Y6.503 E0.02084
G1 X-31.275 Y6.409 E0.0201
G1 X-31.897 Y6.253 E0.02011
G1 X-32.5 Y6.037 E0.0201
G1 X-33.08 Y5.763 E0.02012
G1 X-33.631 Y5.433 E0.02013
G1 X-34.145 Y5.052 E0.02006
G1 X-34.62 Y4.62 E0.02012
G1 X-35.052 Y4.145 E0.02012
G1 X-35.433 Y3.631 E0.02006
G1 X-35.763 Y3.08 E0.02013
G1 X-36.037 Y2.5 E0.02012
G1 X-36.253 Y1.897 E0.0201
G1 X-36.409 Y1.275 E0.02011
G1 X-36.503 Y0.64 E0.0201
G1 X-36.535 Y0 E0.0201
G1 X-36.503 Y-0.64 E0.0201
G1 X-36.409 Y-1.275 E0.0201
G1 X-36.253 Y-1.897 E0.02011
G1 X-36.037 Y-2.5 E0.0201
G1 X-35.763 Y-3.08 E0.02012
G1 X-35.433 Y-3.631 E0.02013
G1 X-35.052 Y-4.145 E0.02006
G1 X-34.62 Y-4.62 E0.02012
G1 X-34.145 Y-5.052 E0.02012
G1 X-33.631 Y-5.433 E0.02006
G1 X-33.08 Y-5.763 E0.02013
G1 X-32.5 Y-6.037 E0.02012
G1 X-31.897 Y-6.253 E0.0201
G1 X-31.275 Y-6.409 E0.02011
G1 X-30.64 Y-6.503 E0.0201
G1 X-29.976 Y-6.536 E0.02084
G1 X28.415 Y-6.536 E1.83083
G1 X28.448 Y-6.271 E0.00837
G1 X28.123 Y-6.19 E0.0105
G1 X27.525 Y-5.976 E0.01993
G1 X26.95 Y-5.704 E0.01991
G1 X26.406 Y-5.377 E0.0199
G1 X25.897 Y-4.999 E0.01989
G1 X25.426 Y-4.574 E0.01989
G1 X25.001 Y-4.103 E0.01989
G1 X24.623 Y-3.594 E0.01989
G1 X24.296 Y-3.05 E0.0199
G1 X24.066 Y-2.563 E0.01687
G1 X24.373 Y-2.331 F10800
G1 F1200
G1 X24.171 Y-1.767 E0.01876
G1 X24.026 Y-1.187 E0.01875
G1 X23.939 Y-0.596 E0.01874
G1 X23.91 Y0 E0.01872
G1 X23.939 Y0.596 E0.01872
G1 X24.026 Y1.187 E0.01874
G1 X24.171 Y1.767 E0.01875
G1 X24.373 Y2.331 E0.01876
G1 X24.629 Y2.871 E0.01875
G1 X24.936 Y3.384 E0.01874
G1 X25.293 Y3.864 E0.01874
G1 X25.693 Y4.307 E0.01873
G1 X26.136 Y4.707 E0.01873
G1 X26.616 Y5.064 E0.01874
G1 X27.129 Y5.371 E0.01874
G1 X27.669 Y5.627 E0.01875
G1 X28.233 Y5.829 E0.01876
G1 X28.813 Y5.974 E0.01875
G1 X29.404 Y6.061 E0.01874
G1 X30 Y6.09 E0.01872
G1 X30.596 Y6.061 E0.01872
G1 X31.187 Y5.974 E0.01874
G1 X31.767 Y5.829 E0.01875
G1 X32.331 Y5.627 E0.01876
G1 X32.871 Y5.371 E0.01875
G1 X33.384 Y5.064 E0.01874
G1 X33.864 Y4.707 E0.01874
G1 X34.307 Y4.307 E0.01873
G1 X34.707 Y3.864 E0.01873
G1 X35.064 Y3.384 E0.01874
G1 X35.371 Y2.871 E0.01874
G1 X35.627 Y2.331 E0.01875
G1 X35.829 Y1.767 E0.01876
G1 X35.974 Y1.187 E0.01875
G1 X36.061 Y0.597 E0.01872
G1 X36.091 Y0 E0.01874
G1 X36.061 Y-0.597 E0.01874
G1 X35.974 Y-1.187 E0.01872
G1 X35.829 Y-1.767 E0.01875
G1 X35.627 Y-2.331 E0.01876
G1 X35.371 Y-2.871 E0.01875
G1 X35.064 Y-3.384 E0.01874
G1 X34.707 Y-3.864 E0.01874
G1 X34.307 Y-4.307 E0.01873
G1 X33.864 Y-4.707 E0.01873
G1 X33.384 Y-5.064 E0.01874
G1 X32.871 Y-5.371 E0.01874
G1 X32.331 Y-5.627 E0.01875
G1 X31.767 Y-5.829 E0.01876
G1 X31.187 Y-5.974 E0.01875
G1 X30.597 Y-6.061 E0.01872
G1 X30 Y-6.091 E0.01874
G1 X29.403 Y-6.061 E0.01874
G1 X28.813 Y-5.974 E0.01872
G1 X28.233 Y-5.829 E0.01875
G1 X27.669 Y-5.627 E0.01876
G1 X27.129 Y-5.371 E0.01875
G1 X26.616 Y-5.064 E0.01874
G1 X26.136 Y-4.707 E0.01874
G1 X25.693 Y-4.307 E0.01873
G1 X25.293 Y-3.864 E0.01873
G1 X24.936 Y-3.384 E0.01874
G1 X24.629 Y-2.871 E0.01874
G1 X24.399 Y-2.385 E0.01687
G1 X24.722 Y-2.186 F10800
;TYPE:External perimeter
G1 F1200
G1 X24.533 Y-1.658 E0.0176
G1 X24.397 Y-1.114 E0.01758
G1 X24.315 Y-0.559 E0.01757
G1 X24.288 Y0 E0.01756
G1 X24.315 Y0.559 E0.01756
G1 X24.397 Y1.114 E0.01757
G1 X24.533 Y1.658 E0.01758
G1 X24.722 Y2.186 E0.0176
G1 X24.962 Y2.693 E0.01758
G1 X25.25 Y3.174 E0.01758
G1 X25.584 Y3.624 E0.01759
G1 X25.96 Y4.04 E0.01756
G1 X26.376 Y4.416 E0.01756
G1 X26.826 Y4.75 E0.01759
G1 X27.307 Y5.038 E0.01758
G1 X27.814 Y5.278 E0.01758
G1 X28.342 Y5.467 E0.0176
G1 X28.886 Y5.603 E0.01758
G1 X29.441 Y5.685 E0.01757
G1 X30 Y5.712 E0.01756
G1 X30.559 Y5.685 E0.01756
G1 X31.114 Y5.603 E0.01757
G1 X31.658 Y5.467 E0.01758
G1 X32.186 Y5.278 E0.0176
G1 X32.693 Y5.038 E0.01758
G1 X33.174 Y4.75 E0.01758
G1 X33.624 Y4.416 E0.01759
G1 X34.04 Y4.04 E0.01756
G1 X34.416 Y3.624 E0.01756
G1 X34.75 Y3.174 E0.01759
G1 X35.038 Y2.693 E0.01758
G1 X35.278 Y2.186 E0.01758
G1 X35.467 Y1.658 E0.0176
G1 X35.603 Y1.114 E0.01758
G1 X35.685 Y0.56 E0.01757
G1 X35.713 Y0 E0.01757
G1 X35.685 Y-0.56 E0.01757
G1 X35.603 Y-1.114 E0.01757
G1 X35.467 Y-1.658 E0.01758
G1 X35.278 Y-2.186 E0.0176
G1 X35.038 Y-2.693 E0.01758
G1 X34.75 Y-3.174 E0.01758
G1 X34.416 Y-3.624 E0.01759
G1 X34.04 Y-4.04 E0.01756
G1 X33.624 Y-4.416 E0.01756
G1 X33.174 Y-4.75 E0.01759
G1 X32.693 Y-5.038 E0.01758
G1 X32.186 Y-5.278 E0.01758
G1 X31.658 Y-5.467 E0.0176
G1 X31.114 Y-5.603 E0.01758
G1 X30.56 Y-5.685 E0.01757
G1 X30 Y-5.713 E0.01757
G1 X29.44 Y-5.685 E0.01757
G1 X28.886 Y-5.603 E0.01757
G1 X28.342 Y-5.467 E0.01758
G1 X27.814 Y-5.278 E0.0176
G1 X27.307 Y-5.038 E0.01758
G1 X26.826 Y-4.75 E0.01758
G1 X26.376 Y-4.416 E0.01759
G1 X25.96 Y-4.04 E0.01756
G1 X25.584 Y-3.624 E0.01756
G1 X25.25 Y-3.174 E0.01759
G1 X24.962 Y-2.693 E0.01758
G1 X24.747 Y-2.241 E0.0157
;WIPE_START
M204 S1000
G1 X24.326 Y-2.128 F10800
;WIPE_END
G1 E-3.5 F3600
;WIPE_START
G1 F8640
G1 X24.341 Y-1.716 E-0.16308
G1 X24.2 Y-1.153 E-0.22976
G1 X24.115 Y-0.579 E-0.22966
G1 X24.088 Y0 E-0.22944
G1 X24.115 Y0.579 E-0.22944
G1 X24.2 Y1.153 E-0.22966
G1 X24.27 Y1.432 E-0.11395
;WIPE_END
G1 E-0.075 F3600
; acceleration to travel
M204 S1500
G1 X24.648 Y-5.555 F10800
; decel to extrusion
M204 S800
G1 X24.722 Y-6.913
; end travel
G1 E5 F2400
;TYPE:Internal perimeter
G1 F1200
G1 X29.986 Y-6.913 E0.16505
G1 X30.677 Y-6.879 E0.02172
G1 X31.348 Y-6.78 E0.02126
G1 X32.006 Y-6.615 E0.02127
G1 X32.645 Y-6.386 E0.02127
G1 X33.258 Y-6.096 E0.02127
G1 X33.841 Y-5.747 E0.02129
G1 X34.385 Y-5.344 E0.02124
G1 X34.887 Y-4.887 E0.02128
G1 X35.344 Y-4.385 E0.02128
G1 X35.747 Y-3.841 E0.02124
G1 X36.096 Y-3.258 E0.02129
G1 X36.386 Y-2.645 E0.02127
G1 X36.615 Y-2.006 E0.02127
G1 X36.78 Y-1.348 E0.02127
G1 X36.879 Y-0.677 E0.02126
G1 X36.912 Y0 E0.02127
G1 X36.879 Y0.677 E0.02127
G1 X36.78 Y1.348 E0.02126
G1 X36.615 Y2.006 E0.02127
G1 X36.386 Y2.645 E0.02127
G1 X36.096 Y3.258 E0.02127
G1 X35.747 Y3.841 E0.02129
G1 X35.344 Y4.385 E0.02124
G1 X34.887 Y4.887 E0.02128
G1 X34.385 Y5.344 E0.02128
G1 X33.841 Y5.747 E0.02124
G1 X33.258 Y6.096 E0.02129
G1 X32.645 Y6.386 E0.02127
G1 X32.006 Y6.615 E0.02127
G1 X31.348 Y6.78 E0.02127
G1 X30.677 Y6.879 E0.02126
G1 X29.986 Y6.913 E0.02172
G1 X-29.986 Y6.913 E1.88036
G1 X-30.677 Y6.879 E0.02172
G1 X-31.348 Y6.78 E0.02126
G1 X-32.006 Y6.615 E0.02127
G1 X-32.645 Y6.386 E0.02127
G1 X-33.258 Y6.096 E0.02127
G1 X-33.841 Y5.747 E0.02129
G1 X-34.385 Y5.344 E0.02124
G1 X-34.887 Y4.887 E0.02128
G1 X-35.344 Y4.385 E0.02128
G1 X-35.747 Y3.841 E0.02124
G1 X-36.096 Y3.258 E0.02129
G1 X-36.386 Y2.645 E0.02127
G1 X-36.615 Y2.006 E0.02127
G1 X-36.78 Y1.348 E0.02127
G1 X-36.879 Y0.677 E0.02126
G1 X-36.912 Y0 E0.02127
G1 X-36.879 Y-0.677 E0.02127
G1 X-36.78 Y-1.348 E0.02126
G1 X-36.615 Y-2.006 E0.02127
G1 X-36.386 Y-2.645 E0.02127
G1 X-36.096 Y-3.258 E0.02127
G1 X-35.747 Y-3.841 E0.02129
G1 X-35.344 Y-4.385 E0.02124
G1 X-34.887 Y-4.887 E0.02128
G1 X-34.385 Y-5.344 E0.02128
G1 X-33.841 Y-5.747 E0.02124
G1 X-33.258 Y-6.096 E0.02129
G1 X-32.645 Y-6.386 E0.02127
G1 X-32.006 Y-6.615 E0.02127
G1 X-31.348 Y-6.78 E0.02127
G1 X-30.677 Y-6.879 E0.02126
G1 X-29.986 Y-6.913 E0.02172
G1 X24.662 Y-6.913 E1.71343
G1 X24.722 Y-7.29 F10800
;TYPE:External perimeter
G1 F1200
G1 X29.995 Y-7.29 E0.16534
G1 X30.714 Y-7.255 E0.02259
G1 X31.422 Y-7.15 E0.02243
G1 X32.116 Y-6.976 E0.02243
G1 X32.789 Y-6.735 E0.02243
G1 X33.436 Y-6.429 E0.02243
G1 X34.05 Y-6.061 E0.02245
G1 X34.625 Y-5.636 E0.02241
G1 X35.154 Y-5.154 E0.02244
G1 X35.636 Y-4.625 E0.02244
G1 X36.061 Y-4.05 E0.02241
G1 X36.429 Y-3.436 E0.02245
G1 X36.735 Y-2.789 E0.02243
G1 X36.976 Y-2.116 E0.02243
G1 X37.15 Y-1.422 E0.02243
G1 X37.255 Y-0.714 E0.02243
G1 X37.29 Y0 E0.02243
G1 X37.255 Y0.714 E0.02243
G1 X37.15 Y1.422 E0.02243
G1 X36.976 Y2.116 E0.02243
G1 X36.735 Y2.789 E0.02243
G1 X36.429 Y3.436 E0.02243
G1 X36.061 Y4.05 E0.02245
G1 X35.636 Y4.625 E0.02241
G1 X35.154 Y5.154 E0.02244
G1 X34.625 Y5.636 E0.02244
G1 X34.05 Y6.061 E0.02241
G1 X33.436 Y6.429 E0.02245
G1 X32.789 Y6.735 E0.02243
G1 X32.116 Y6.976 E0.02243
G1 X31.422 Y7.15 E0.02243
G1 X30.714 Y7.255 E0.02243
G1 X29.995 Y7.29 E0.02259
G1 X-29.995 Y7.29 E1.88094
G1 X-30.714 Y7.255 E0.02259
G1 X-31.422 Y7.15 E0.02243
G1 X-32.116 Y6.976 E0.02243
G1 X-32.789 Y6.735 E0.02243
G1 X-33.436 Y6.429 E0.02243
G1 X-34.05 Y6.061 E0.02245
G1 X-34.625 Y5.636 E0.02241
G1 X-35.154 Y5.154 E0.02244
G1 X-35.636 Y4.625 E0.02244
G1 X-36.061 Y4.05 E0.02241
G1 X-36.429 Y3.436 E0.02245
G1 X-36.735 Y2.789 E0.02243
G1 X-36.976 Y2.116 E0.02243
G1 X-37.15 Y1.422 E0.02243
G1 X-37.255 Y0.714 E0.02243
G1 X-37.29 Y0 E0.02243
G1 X-37.255 Y-0.714 E0.02243
G1 X-37.15 Y-1.422 E0.02243
G1 X-36.976 Y-2.116 E0.02243
G1 X-36.735 Y-2.789 E0.02243
G1 X-36.429 Y-3.436 E0.02243
G1 X-36.061 Y-4.05 E0.02245
G1 X-35.636 Y-4.625 E0.02241
G1 X-35.154 Y-5.154 E0.02244
G1 X-34.625 Y-5.636 E0.02244
G1 X-34.05 Y-6.061 E0.02241
G1 X-33.436 Y-6.429 E0.02245
G1 X-32.789 Y-6.735 E0.02243
G1 X-32.116 Y-6.976 E0.02243
G1 X-31.422 Y-7.15 E0.02243
G1 X-30.714 Y-7.255 E0.02243
G1 X-29.995 Y-7.29 E0.02259
G1 X24.662 Y-7.29 E1.71372
;WIPE_START
M204 S1000
G1 X24.922 Y-6.944 F10800
;WIPE_END
G1 E-3.5 F3600
;WIPE_START
G1 F8640
G1 X28.52 Y-7.048 E-1.425
;WIPE_END
G1 E-0.075 F3600
G1 X27.262 Y-6.423 F10800
G1 E5 F2400
;TYPE:Solid infill
;WIDTH:0.420158
G1 F1200
G1 X27.445 Y-6.239 E0.00813
G1 X27.423 Y-6.232 E0.00073
G1 X27.081 Y-6.07 E0.01187
G1 X26.891 Y-6.261 E0.00843
G1 X26.358 Y-6.261 E0.01673
G1 X26.727 Y-5.891 E0.01639
G1 X26.394 Y-5.691 E0.01219
G1 X25.824 Y-6.261 E0.02526
G1 X25.291 Y-6.261 E0.01673
G1 X26.076 Y-5.475 E0.03483
G1 X25.77 Y-5.248 E0.01196
G1 X24.758 Y-6.261 E0.04491
G1 X24.225 Y-6.261 E0.01673
G1 X25.486 Y-4.999 E0.05596
G1 X25.232 Y-4.768 E0.01078
G1 X25.209 Y-4.743 E0.00107
G1 X23.691 Y-6.261 E0.06731
G1 X23.158 Y-6.261 E0.01673
G1 X24.955 Y-4.463 E0.07972
G1 X24.788 Y-4.278 E0.00784
G1 X24.711 Y-4.175 E0.00404
G1 X22.625 Y-6.261 E0.09253
G1 X22.092 Y-6.261 E0.01673
G1 X24.484 Y-3.868 E0.10611
G1 X24.394 Y-3.747 E0.00475
G1 X24.273 Y-3.546 E0.00735
G1 X21.558 Y-6.261 E0.12042
G1 X21.025 Y-6.261 E0.01673
G1 X24.073 Y-3.213 E0.1352
G1 X24.053 Y-3.18 E0.00121
G1 X23.899 Y-2.854 E0.01131
G1 X20.492 Y-6.261 E0.15112
G1 X19.959 Y-6.261 E0.01673
G1 X23.735 Y-2.484 E0.16752
G1 X23.595 Y-2.091 E0.01309
G1 X19.425 Y-6.261 E0.18494
G1 X18.892 Y-6.261 E0.01673
G1 X23.476 Y-1.676 E0.20335
G1 X23.386 Y-1.315 E0.01169
G1 X23.375 Y-1.244 E0.00224
G1 X18.359 Y-6.261 E0.22253
G1 X17.825 Y-6.261 E0.01673
G1 X23.307 Y-0.779 E0.24314
G1 X23.289 Y-0.66 E0.00379
G1 X23.271 Y-0.282 E0.01187
