; generated by SuperSlicer 2.4 on 2023-03-11 at 03:38:46 UTC


;
;

;
;
; 

; external perimeters extrusion width = 0.42mm
; perimeters extrusion width = 0.46mm
; infill extrusion width = 0.44mm
; solid infill extrusion width = 0.46mm
; top infill extrusion width = 0.44mm
; first layer extrusion width = 0.56mm

; external perimeters extrusion width = 0.42mm
; perimeters extrusion width = 0.46mm
; infill extrusion width = 0.44mm
; solid infill extrusion width = 0.46mm
; top infill extrusion width = 0.44mm
; first layer extrusion width = 0.56mm

; object:{"name":"Key","id":"Key.stl id:0 copy 0","object_center":[115.500001,138.499958,0.000000],"boundingbox_center":[115.500001,138.499958,1.210993],"boundingbox_size":[33.020985,13.014359,2.421986]}
; object:{"name":"Filament_Runout_Sensor","id":"Filament_Runout_Sensor.stl id:1 copy 0","object_center":[115.500000,105.992820,0.000000],"boundingbox_center":[115.500000,105.992820,17.896324],"boundingbox_size":[44.128529,39.999916,35.792648]}
; plater:{"center":[115.500000,115.500000,0.000000],"boundingbox_center":[115.500000,115.500000,17.896324],"boundingbox_size":[44.128529,59.014276,35.792648]}

;TYPE:Custom
START_PRINT
M107
G21 ; set units to millimeters
G90 ; use absolute coordinates
M82 ; use absolute distances for extrusion
G92 E0
; Filament gcode
;_TOOLCHANGE 0
M104 S210 ; set temperature
M109 S210 ; set temperature and wait for it to be reached
M190 S60 ; set bed temperature and wait for it to be reached
M107
;LAYER_CHANGE
;Z:0.2
;HEIGHT:0.2
;BEFORE_LAYER_CHANGE
;0.2


G1 E-5 F3600
G1 Z0.2 F9000
;AFTER_LAYER_CHANGE
;0.2
G92 E0
M204 S500
G1 X92.124 Y87.369
G1 E5 F2400
;TYPE:Skirt
;WIDTH:0.48
G1 F1200
G1 X91.477 Y88.259 E5.03999
G1 X91.015 Y89.497 E5.08802
G1 X90.844 Y90.642 E5.1301
G1 X90.844 Y121.343 E6.24589
G1 X90.963 Y122.277 E6.2801
G1 X95.867 Y145.473 E7.14174
G1 X96.093 Y146.161 E7.16807
G1 X97.458 Y147.717 E7.24327
G1 X99.144 Y148.193 E7.30695
G1 X132.01 Y148.199 E8.50141
G1 X133.045 Y148.028 E8.53952
G1 X134.379 Y147.16 E8.59738
G1 X135.134 Y145.758 E8.65525
G1 X140.687 Y123.446 E9.49087
G1 X140.783 Y122.669 E9.51933
G1 X140.783 Y98.958 E10.38108
G1 X140.621 Y97.95 E10.41816
G1 X139.764 Y96.608 E10.47603
G1 X138.369 Y95.841 E10.53389
G1 X100.969 Y86.184 E11.93771
G1 X100.154 Y86.081 E11.96757
G1 X94.925 Y86.098 E12.1576
G1 X93.8 Y86.305 E12.19916
G1 X93.442 Y86.441 E12.2131
G1 X92.173 Y87.334 E12.2695
G92 E0
G1 E-3.5 F3600
;WIPE_START
G1 F7200
G1 X91.477 Y88.259 E-4.04966
G1 X91.015 Y89.497 E-4.67744
G1 X90.938 Y90.012 E-4.925
;WIPE_END
G1 E-5 F3600
; printing object Key.stl id:0 copy 0
; acceleration to travel
M204 S1500
G1 X98.946 Y128.251 F9000
; decel to extrusion
M204 S500
G1 X99.924 Y132.923
; end travel
G1 E0 F2400
;TYPE:Internal perimeter
;WIDTH:0.564
G1 F1200
G1 X131.107 Y132.923 E1.3511
G1 X131.107 Y144.077 E1.8344
G1 X99.92 Y144.072 E3.1857
G1 X99.92 Y141.648 E3.29072
G1 X123.946 Y141.641 E4.3317
G1 X124.401 Y141.379 E4.35445
G1 X124.651 Y141.052 E4.37228
G1 X124.755 Y140.664 E4.3897
G1 X124.755 Y136.336 E4.57721
G1 X124.637 Y135.894 E4.59703
G1 X124.213 Y135.47 E4.62301
G1 X123.771 Y135.352 E4.64283
G1 X99.921 Y135.348 E5.67618
G1 X99.924 Y132.983 E5.77866
G1 X99.404 Y132.402 F9000
;TYPE:External perimeter
G1 F1200
G1 X131.628 Y132.402 E7.17489
G1 X131.628 Y144.598 E7.70335
G1 X99.398 Y144.592 E9.09981
G1 X99.399 Y141.127 E9.24997
G1 X123.806 Y141.12 E10.30748
G1 X124.05 Y140.979 E10.31969
G1 X124.175 Y140.817 E10.32853
G1 X124.234 Y140.595 E10.33849
G1 X124.234 Y136.405 E10.52006
G1 X124.17 Y136.164 E10.53086
G1 X123.943 Y135.937 E10.54473
G1 X123.702 Y135.873 E10.55553
G1 X99.4 Y135.869 E11.60851
G1 X99.404 Y132.462 E11.75615
;WIPE_START
G1 X99.75 Y132.602 F9000
;WIPE_END
G92 E0
G1 E-3.5 F3600
;WIPE_START
G1 F7200
G1 X102.75 Y132.602 E-4.925
;WIPE_END
G1 E-5 F3600
; acceleration to travel
M204 S1500
G1 X127.881 Y133.966 F9000
; decel to extrusion
M204 S500
G1 X130.951 Y134.132
; end travel
G1 E0 F2400
;TYPE:Solid infill
;WIDTH:0.550085
G1 F1200
G1 X130.122 Y133.303 E0.04956
G1 X129.385 Y133.303 E0.0807
G1 X130.727 Y134.645 E0.16091
G1 X130.727 Y135.382 E0.19205
G1 X128.648 Y133.303 E0.3163
G1 X127.911 Y133.303 E0.34744
G1 X130.727 Y136.119 E0.51574
G1 X130.727 Y136.856 E0.54688
G1 X127.174 Y133.303 E0.75921
G1 X126.437 Y133.303 E0.79035
G1 X130.727 Y137.593 E1.04672
G1 X130.727 Y138.33 E1.07786
G1 X125.7 Y133.303 E1.37828
G1 X124.963 Y133.303 E1.40942
G1 X130.727 Y139.067 E1.75387
G1 X130.727 Y139.804 E1.78501
G1 X124.227 Y133.303 E2.1735
G1 X123.49 Y133.303 E2.20465
G1 X130.727 Y140.54 E2.63718
G1 X130.727 Y141.277 E2.66832
G1 X122.753 Y133.303 E3.1449
G1 X122.016 Y133.303 E3.17604
G1 X123.684 Y134.972 E3.27575
G1 X123.821 Y134.972 E3.28153
G1 X124.41 Y135.129 E3.30729
G1 X124.978 Y135.697 E3.34123
G1 X125.135 Y136.286 E3.36699
G1 X125.135 Y136.423 E3.37277
G1 X130.727 Y142.014 E3.70694
G1 X130.727 Y142.751 E3.73808
G1 X125.135 Y137.16 E4.07225
G1 X125.135 Y137.897 E4.10339
G1 X130.727 Y143.488 E4.43756
G1 X130.727 Y143.697 E4.44637
G1 X130.199 Y143.697 E4.46871
G1 X125.135 Y138.634 E4.77129
G1 X125.135 Y139.37 E4.80243
G1 X129.462 Y143.696 E5.06097
G1 X128.724 Y143.696 E5.09212
G1 X125.135 Y140.107 E5.30661
G1 X125.135 Y140.714 E5.33224
G1 X125.108 Y140.817 E5.33674
G1 X127.987 Y143.696 E5.50882
G1 X127.25 Y143.696 E5.53997
G1 X124.903 Y141.349 E5.68025
G1 X124.656 Y141.67 E5.69738
G1 X124.549 Y141.732 E5.7026
G1 X126.513 Y143.696 E5.81997
G1 X125.776 Y143.696 E5.85112
G1 X124.082 Y142.002 E5.95236
G1 X124.048 Y142.021 E5.95404
G1 X123.365 Y142.022 E5.98288
G1 X125.039 Y143.696 E6.08292
G1 X124.302 Y143.696 E6.11407
G1 X122.629 Y142.022 E6.21409
G1 X121.892 Y142.022 E6.24522
G1 X123.565 Y143.695 E6.34523
G1 X122.828 Y143.695 E6.37637
G1 X121.155 Y142.022 E6.47635
G1 X120.418 Y142.022 E6.50749
G1 X122.091 Y143.695 E6.60745
G1 X121.354 Y143.695 E6.63859
G1 X119.682 Y142.023 E6.73854
G1 X118.945 Y142.023 E6.76967
G1 X120.617 Y143.695 E6.86959
G1 X119.88 Y143.695 E6.90074
G1 X118.208 Y142.023 E7.00064
G1 X117.472 Y142.023 E7.03177
G1 X119.143 Y143.695 E7.13165
G1 X118.406 Y143.694 E7.1628
G1 X116.735 Y142.024 E7.26266
G1 X115.998 Y142.024 E7.29379
G1 X117.669 Y143.694 E7.39363
G1 X116.932 Y143.694 E7.42478
G1 X115.261 Y142.024 E7.5246
G1 X114.525 Y142.024 E7.55573
G1 X116.195 Y143.694 E7.65553
G1 X115.458 Y143.694 E7.68668
G1 X113.788 Y142.024 E7.78646
G1 X113.051 Y142.025 E7.81759
G1 X114.721 Y143.694 E7.91735
G1 X113.983 Y143.694 E7.94849
G1 X112.315 Y142.025 E8.04823
G1 X111.578 Y142.025 E8.07937
G1 X113.246 Y143.694 E8.17909
G1 X112.509 Y143.693 E8.21023
G1 X110.841 Y142.025 E8.30993
G1 X110.104 Y142.025 E8.34107
G1 X111.772 Y143.693 E8.44074
G1 X111.035 Y143.693 E8.47189
G1 X109.368 Y142.026 E8.57155
G1 X108.631 Y142.026 E8.60268
G1 X110.298 Y143.693 E8.70232
G1 X109.561 Y143.693 E8.73347
G1 X107.894 Y142.026 E8.83309
G1 X107.158 Y142.026 E8.86422
G1 X108.824 Y143.693 E8.96382
G1 X108.087 Y143.693 E8.99497
G1 X106.421 Y142.026 E9.09454
G1 X105.684 Y142.027 E9.12568
G1 X107.35 Y143.692 E9.22524
G1 X106.613 Y143.692 E9.25638
G1 X104.947 Y142.027 E9.35592
G1 X104.211 Y142.027 E9.38705
G1 X105.876 Y143.692 E9.48657
G1 X105.139 Y143.692 E9.51772
G1 X103.474 Y142.027 E9.61722
G1 X102.737 Y142.027 E9.64835
G1 X104.402 Y143.692 E9.74783
G1 X103.665 Y143.692 E9.77897
G1 X102.001 Y142.028 E9.87843
G1 X101.264 Y142.028 E9.90957
G1 X102.928 Y143.692 E10.009
G1 X102.191 Y143.692 E10.04015
G1 X100.527 Y142.028 E10.13957
G1 X100.3 Y142.028 E10.14915
G1 X100.3 Y142.538 E10.1707
G1 X101.454 Y143.691 E10.23963
G1 X100.717 Y143.691 E10.27077
G1 X100.076 Y143.051 E10.30905
G92 E0
G1 E-3.5 F3600
;WIPE_START
G1 F7200
G1 X100.717 Y143.691 E-3.93023
G1 X101.454 Y143.691 E-4.28032
G1 X100.494 Y142.732 E-4.925
;WIPE_END
G1 E-5 F3600
; acceleration to travel
M204 S1500
G1 X118.816 Y134.13 F9000
; decel to extrusion
M204 S500
G1 X121.055 Y133.079
; end travel
G1 E0 F2400
G1 F1200
G1 X122.947 Y134.971 E0.1131
G1 X122.21 Y134.971 E0.14424
G1 X120.542 Y133.303 E0.24395
G1 X119.805 Y133.303 E0.27509
G1 X121.473 Y134.971 E0.37478
G1 X120.736 Y134.971 E0.40593
G1 X119.068 Y133.303 E0.50561
G1 X118.331 Y133.303 E0.53675
G1 X119.999 Y134.971 E0.63643
G1 X119.262 Y134.971 E0.66758
G1 X117.594 Y133.303 E0.76725
G1 X116.857 Y133.303 E0.79839
G1 X118.525 Y134.971 E0.89806
G1 X117.788 Y134.971 E0.9292
G1 X116.12 Y133.303 E1.02886
G1 X115.383 Y133.303 E1.06
G1 X117.051 Y134.97 E1.15965
G1 X116.314 Y134.97 E1.1908
G1 X114.647 Y133.303 E1.29044
G1 X113.91 Y133.303 E1.32158
G1 X115.577 Y134.97 E1.42122
G1 X114.84 Y134.97 E1.45237
G1 X113.173 Y133.303 E1.55199
G1 X112.436 Y133.303 E1.58314
G1 X114.103 Y134.97 E1.68276
G1 X113.366 Y134.97 E1.7139
G1 X111.699 Y133.303 E1.81352
G1 X110.962 Y133.303 E1.84466
G1 X112.629 Y134.97 E1.94427
G1 X111.892 Y134.97 E1.97541
G1 X110.225 Y133.303 E2.07501
G1 X109.488 Y133.303 E2.10616
G1 X111.155 Y134.969 E2.20575
G1 X110.418 Y134.969 E2.23689
G1 X108.751 Y133.303 E2.33648
G1 X108.014 Y133.303 E2.36762
G1 X109.681 Y134.969 E2.4672
G1 X108.944 Y134.969 E2.49835
G1 X107.277 Y133.303 E2.59792
G1 X106.54 Y133.303 E2.62906
G1 X108.206 Y134.969 E2.72862
G1 X107.469 Y134.969 E2.75977
G1 X105.804 Y133.303 E2.85933
G1 X105.067 Y133.303 E2.89047
G1 X106.732 Y134.969 E2.99002
G1 X105.995 Y134.969 E3.02116
G1 X104.33 Y133.303 E3.12071
G1 X103.593 Y133.303 E3.15185
G1 X105.258 Y134.969 E3.25138
G1 X104.521 Y134.968 E3.28253
G1 X102.856 Y133.303 E3.38206
G1 X102.119 Y133.303 E3.4132
G1 X103.784 Y134.968 E3.51272
G1 X103.047 Y134.968 E3.54387
G1 X101.382 Y133.303 E3.64338
G1 X100.645 Y133.303 E3.67452
G1 X102.31 Y134.968 E3.77403
G1 X101.573 Y134.968 E3.80518
G1 X100.304 Y133.699 E3.88104
G1 X100.303 Y134.435 E3.91214
G1 X101.06 Y135.192 E3.9574
G92 E0
G1 E-3.5 F3600
;WIPE_START
G1 F7200
G1 X100.303 Y134.435 E-4.00871
G1 X100.304 Y133.699 E-4.35833
G1 X101.147 Y134.542 E-4.925
;WIPE_END
G1 E-5 F3600
; stop printing object Key.stl id:0 copy 0
; printing object Filament_Runout_Sensor.stl id:1 copy 0
; acceleration to travel
M204 S1500
G1 X95.961 Y122.501 F9000
; decel to extrusion
M204 S500
G1 X95.327 Y121.03
; end travel
G1 E0 F2400
;TYPE:Internal perimeter
;WIDTH:0.564
G1 F1200
G1 X95.311 Y116.476 E0.19732
G1 X95.311 Y95.51 E1.10575
G1 X95.327 Y90.953 E1.30319
G1 X99.261 Y90.926 E1.47366
G1 X99.261 Y92.01 E1.5206
G1 X103.955 Y92.01 E1.72396
G1 X103.955 Y99.861 E2.06411
G1 X136.661 Y99.861 E3.48122
G1 X136.661 Y108.852 E3.87082
G1 X104.603 Y108.852 E5.25981
G1 X104.603 Y114.157 E5.48967
G1 X105.491 Y114.157 E5.52813
G1 X105.491 Y116.441 E5.62708
G1 X104.602 Y116.441 E5.6656
G1 X104.609 Y119.866 E5.814
G1 X104.639 Y120.417 E5.8379
G1 X104.722 Y121.055 E5.86577
G1 X104.38 Y121.037 E5.8806
G1 X103.863 Y121.031 E5.903
G1 X95.387 Y121.03 E6.27024
G1 X94.906 Y121.465 F9000
;TYPE:External perimeter
G1 F1200
G1 X94.806 Y120.956 E6.29273
G1 X94.79 Y116.477 E6.4868
G1 X94.79 Y95.509 E7.39529
G1 X94.806 Y91.03 E7.58936
G1 X94.906 Y90.521 E7.61184
G1 X95.046 Y90.434 E7.619
G1 X99.782 Y90.402 E7.82421
G1 X99.782 Y91.489 E7.8713
G1 X104.476 Y91.489 E8.07466
G1 X104.476 Y99.34 E8.41481
G1 X137.182 Y99.34 E9.83192
G1 X137.182 Y109.373 E10.26667
G1 X105.125 Y109.373 E11.65567
G1 X105.125 Y113.636 E11.84037
G1 X106.012 Y113.636 E11.87883
G1 X106.012 Y116.962 E12.02294
G1 X105.124 Y116.962 E12.06141
G1 X105.13 Y119.852 E12.1866
G1 X105.158 Y120.369 E12.20906
G1 X105.256 Y121.128 E12.2422
G1 X137.053 Y121.128 E13.61986
G1 X137.204 Y121.148 E13.62645
G1 X137.194 Y121.63 E13.64736
G1 X137.05 Y121.649 E13.65365
G1 X105.842 Y121.649 E15.00582
G1 X105.363 Y121.643 E15.02658
G1 X104.874 Y121.585 E15.04795
G1 X104.363 Y121.558 E15.07011
G1 X103.86 Y121.552 E15.09191
G1 X95.045 Y121.551 E15.47385
G1 X94.957 Y121.497 E15.47832
;WIPE_START
G1 X95.125 Y121.13 F9000
;WIPE_END
G92 E0
G1 E-3.5 F3600
;WIPE_START
G1 F7200
G1 X95.005 Y120.936 E-3.60833
G1 X94.996 Y118.164 E-4.925
;WIPE_END
G1 E-5 F3600
; acceleration to travel
M204 S1500
G1 X131.986 Y102.931 F9000
; decel to extrusion
M204 S500
G1 X136.505 Y101.07
; end travel
G1 E0 F2400
;TYPE:Solid infill
;WIDTH:0.559851
G1 F1200
G1 X135.676 Y100.241 E0.05044
G1 X134.939 Y100.241 E0.08213
G1 X136.281 Y101.583 E0.16377
G1 X136.281 Y102.32 E0.19546
G1 X134.202 Y100.241 E0.32192
G1 X133.465 Y100.241 E0.35361
G1 X136.281 Y103.057 E0.52489
G1 X136.281 Y103.794 E0.55658
G1 X132.728 Y100.241 E0.77269
G1 X131.991 Y100.241 E0.80438
G1 X136.281 Y104.531 E1.0653
G1 X136.281 Y105.268 E1.097
G1 X131.254 Y100.241 E1.40274
G1 X130.517 Y100.241 E1.43444
G1 X136.281 Y106.005 E1.785
G1 X136.281 Y106.741 E1.8167
G1 X129.78 Y100.241 E2.21209
G1 X129.043 Y100.241 E2.24378
G1 X136.281 Y107.478 E2.684
G1 X136.281 Y108.215 E2.71569
G1 X128.306 Y100.241 E3.20073
G1 X127.57 Y100.241 E3.23242
G1 X135.801 Y108.472 E3.73307
G1 X135.064 Y108.472 E3.76476
G1 X126.833 Y100.241 E4.26541
G1 X126.096 Y100.241 E4.29711
G1 X134.327 Y108.472 E4.79776
G1 X133.59 Y108.472 E4.82945
G1 X125.359 Y100.241 E5.3301
G1 X124.622 Y100.241 E5.36179
G1 X132.853 Y108.472 E5.86244
G1 X132.116 Y108.472 E5.89414
G1 X123.885 Y100.241 E6.39479
G1 X123.148 Y100.241 E6.42648
G1 X131.379 Y108.472 E6.92713
G1 X130.642 Y108.472 E6.95882
G1 X122.411 Y100.241 E7.45947
G1 X121.674 Y100.241 E7.49117
G1 X129.905 Y108.472 E7.99181
G1 X129.168 Y108.472 E8.02351
G1 X120.937 Y100.241 E8.52416
G1 X120.2 Y100.241 E8.55585
G1 X128.431 Y108.472 E9.0565
G1 X127.695 Y108.472 E9.0882
G1 X119.463 Y100.241 E9.58884
G1 X118.727 Y100.241 E9.62054
G1 X126.958 Y108.472 E10.12119
G1 X126.221 Y108.472 E10.15288
G1 X117.99 Y100.241 E10.65353
G1 X117.253 Y100.241 E10.68523
G1 X125.484 Y108.472 E11.18587
G1 X124.747 Y108.472 E11.21757
G1 X116.516 Y100.241 E11.71822
G1 X115.779 Y100.241 E11.74991
G1 X124.01 Y108.472 E12.25056
G1 X123.273 Y108.472 E12.28226
G1 X115.042 Y100.241 E12.78291
G1 X114.305 Y100.241 E12.8146
G1 X122.536 Y108.472 E13.31525
G1 X121.799 Y108.472 E13.34694
G1 X113.568 Y100.241 E13.84759
G1 X112.831 Y100.241 E13.87929
G1 X121.062 Y108.472 E14.37994
G1 X120.325 Y108.472 E14.41163
G1 X112.094 Y100.241 E14.91228
G1 X111.357 Y100.241 E14.94397
G1 X119.588 Y108.472 E15.44462
G1 X118.852 Y108.472 E15.47632
G1 X110.62 Y100.241 E15.97697
G1 X109.884 Y100.241 E16.00866
G1 X118.115 Y108.472 E16.50931
G1 X117.378 Y108.472 E16.541
G1 X109.147 Y100.241 E17.04165
G1 X108.41 Y100.241 E17.07335
G1 X116.641 Y108.472 E17.574
G1 X115.904 Y108.472 E17.60569
G1 X107.673 Y100.241 E18.10634
G1 X106.936 Y100.241 E18.13803
G1 X115.167 Y108.472 E18.63868
G1 X114.43 Y108.472 E18.67038
G1 X106.199 Y100.241 E19.17102
G1 X105.462 Y100.241 E19.20272
G1 X113.693 Y108.472 E19.70337
G1 X112.956 Y108.472 E19.73506
G1 X104.501 Y100.017 E20.24934
G92 E0
G1 E-3.5 F3600
;WIPE_START
G1 F7200
G1 X106.622 Y102.138 E-4.925
;WIPE_END
G1 E-5 F3600
; acceleration to travel
M204 S1500
G1 X104.106 Y93.711 F9000
; decel to extrusion
M204 S500
G1 X103.798 Y92.682
; end travel
G1 E0 F2400
G1 F1200
G1 X103.507 Y92.39 E0.01774
G1 X102.77 Y92.39 E0.04944
G1 X103.574 Y93.195 E0.09838
G1 X103.574 Y93.932 E0.13007
G1 X102.033 Y92.39 E0.22383
G1 X101.296 Y92.39 E0.25552
G1 X103.574 Y94.669 E0.39411
G1 X103.574 Y95.406 E0.4258
G1 X100.559 Y92.39 E0.6092
G1 X99.822 Y92.39 E0.6409
G1 X103.798 Y96.367 E0.88275
G92 E0
G1 E-3.5 F3600
;WIPE_START
G1 F7200
G1 X101.677 Y94.245 E-4.925
;WIPE_END
G1 E-5 F3600
; acceleration to travel
M204 S1500
G1 X99.385 Y91.953 F9000
; decel to extrusion
M204 S500
G1 X99.105 Y91.673
; end travel
G1 E0 F2400
G1 F1200
G1 X98.742 Y91.31 E0.02207
G1 X98.01 Y91.315 E0.05355
G1 X103.574 Y96.879 E0.39199
G1 X103.574 Y97.616 E0.42368
G1 X97.278 Y91.32 E0.80664
G1 X96.546 Y91.325 E0.83812
G1 X103.574 Y98.353 E1.26561
G1 X103.574 Y99.09 E1.2973
G1 X95.814 Y91.33 E1.76931
G1 X95.707 Y91.331 E1.7739
G1 X95.707 Y91.96 E1.80097
G1 X112.219 Y108.472 E2.8053
G1 X111.482 Y108.472 E2.83699
G1 X95.707 Y92.697 E3.7965
G1 X95.707 Y93.434 E3.8282
G1 X110.745 Y108.472 E4.74288
G1 X110.009 Y108.472 E4.77458
G1 X95.707 Y94.171 E5.64444
G1 X95.707 Y94.908 E5.67613
G1 X109.272 Y108.472 E6.50118
G1 X108.535 Y108.472 E6.53287
G1 X95.707 Y95.645 E7.31309
