; generated by SuperSlicer 2.4 on 2023-03-15 at 03:18:11 UTC


;
;

;
;
; 

; external perimeters extrusion width = 0.42mm
; perimeters extrusion width = 0.46mm
; infill extrusion width = 0.44mm
; solid infill extrusion width = 0.46mm
; top infill extrusion width = 0.44mm
; first layer extrusion width = 0.56mm

; object:{"name":"Brio_Bridge_Sides","id":"Brio_Bridge_Sides.stl id:0 copy 0","object_center":[115.500000,115.500000,0.000000],"boundingbox_center":[115.500000,115.500000,10.000000],"boundingbox_size":[74.000000,82.564911,20.000000]}
; plater:{"center":[115.500000,115.500000,0.000000],"boundingbox_center":[115.500000,115.500000,10.000000],"boundingbox_size":[74.000000,82.564911,20.000000]}

;TYPE:Custom
START_PRINT
M107
G21 ; set units to millimeters
G90 ; use absolute coordinates
M82 ; use absolute distances for extrusion
G92 E0
; Filament gcode
;_TOOLCHANGE 0
M104 S210 ; set temperature
M109 S210 ; set temperature and wait for it to be reached
M190 S60 ; set bed temperature and wait for it to be reached
M107
;LAYER_CHANGE
;Z:0.2
;HEIGHT:0.2
;BEFORE_LAYER_CHANGE
;0.2


G1 E-5 F3600
G1 Z0.2 F9000
;AFTER_LAYER_CHANGE
;0.2
G92 E0
M204 S500
G1 X76.76 Y71.51
G1 E5 F2400
;TYPE:Skirt
;WIDTH:0.48
G1 F1200
G1 X75.675 Y72.675 E5.08101
G1 X75.281 Y74.218 E5.16202
G1 X75.281 Y135.218 E8.26574
G1 X75.385 Y136.026 E8.30719
G1 X78.385 Y147.591 E8.9151
G1 X78.794 Y148.526 E8.96703
G1 X79.961 Y149.609 E9.04804
G1 X84.635 Y152.074 E9.3169
G1 X89.41 Y154.264 E9.58423
G1 X93.731 Y155.953 E9.82024
G1 X96.205 Y156.797 E9.95328
G1 X100.927 Y158.152 E10.20321
G1 X105.597 Y159.139 E10.4461
G1 X109.858 Y159.72 E10.66487
G1 X111.873 Y159.885 E10.76777
G1 X115.622 Y160.001 E10.9586
G1 X119.497 Y159.859 E11.15586
G1 X123.713 Y159.405 E11.37161
G1 X128.406 Y158.544 E11.61441
G1 X130.899 Y157.939 E11.74494
G1 X134.173 Y156.995 E11.91831
G1 X137.654 Y155.809 E12.10543
G1 X139.856 Y154.966 E12.22537
G1 X144.295 Y153.055 E12.47125
G1 X148.75 Y150.856 E12.72406
G1 X151.039 Y149.61 E12.85667
G1 X151.847 Y148.985 E12.90863
G1 X152.615 Y147.591 E12.98964
G1 X155.615 Y136.026 E13.59756
G1 X155.719 Y135.218 E13.63901
G1 X155.719 Y74.218 E16.74273
G1 X155.208 Y72.478 E16.83498
G1 X154.043 Y71.393 E16.91599
G1 X152.5 Y70.999 E16.997
G1 X78.5 Y70.999 E20.76217
G1 X76.818 Y71.493 E20.85137
G92 E0
G1 E-3.5 F3600
;WIPE_START
G1 F7200
G1 X75.675 Y72.675 E-4.2809
G1 X75.34 Y73.989 E-4.925
;WIPE_END
G1 E-5 F3600
; printing object Brio_Bridge_Sides.stl id:0 copy 0
; acceleration to travel
M204 S1500
G1 X124.819 Y131.254 F9000
; decel to extrusion
M204 S500
G1 X130.864 Y138.25
; end travel
G1 E0 F2400
;TYPE:Internal perimeter
;WIDTH:0.564
G1 F1200
G1 X130.54 Y138.52 E0.02558
G1 X130.227 Y138.841 E0.05279
G1 X129.949 Y139.193 E0.08001
G1 X129.708 Y139.571 E0.10722
G1 X129.507 Y139.973 E0.13443
G1 X129.349 Y140.392 E0.16164
G1 X129.235 Y140.826 E0.18885
G1 X129.166 Y141.27 E0.21606
G1 X129.143 Y141.718 E0.24328
G1 X129.166 Y142.166 E0.27049
G1 X129.235 Y142.609 E0.2977
G1 X129.349 Y143.043 E0.32491
G1 X129.507 Y143.462 E0.35212
G1 X129.708 Y143.864 E0.37933
G1 X129.949 Y144.242 E0.40655
G1 X130.227 Y144.594 E0.43376
G1 X130.54 Y144.915 E0.46097
G1 X130.885 Y145.203 E0.48818
G1 X131.257 Y145.453 E0.51539
G1 X131.653 Y145.664 E0.5426
G1 X132.068 Y145.833 E0.56981
G1 X132.499 Y145.958 E0.59703
G1 X132.941 Y146.039 E0.62424
G1 X133.388 Y146.073 E0.65145
G1 X133.836 Y146.062 E0.67866
G1 X134.281 Y146.004 E0.70587
G1 X134.718 Y145.901 E0.73309
G1 X135.141 Y145.754 E0.7603
G1 X135.548 Y145.563 E0.78751
G1 X135.932 Y145.333 E0.81472
G1 X136.291 Y145.063 E0.84193
G1 X136.62 Y144.759 E0.86914
G1 X136.917 Y144.422 E0.89636
G1 X137.176 Y144.056 E0.92357
G1 X137.397 Y143.666 E0.95078
G1 X137.577 Y143.255 E0.97799
G1 X137.713 Y142.827 E1.0052
G1 X137.805 Y142.388 E1.03241
G1 X137.851 Y141.942 E1.05962
G1 X137.851 Y141.493 E1.08684
G1 X137.805 Y141.047 E1.11405
G1 X137.713 Y140.608 E1.14126
G1 X137.577 Y140.181 E1.16847
G1 X137.397 Y139.769 E1.19568
G1 X137.176 Y139.379 E1.22289
G1 X136.917 Y139.013 E1.25011
G1 X136.62 Y138.677 E1.27732
G1 X136.291 Y138.372 E1.30453
G1 X135.932 Y138.103 E1.33174
G1 X135.548 Y137.872 E1.35895
G1 X135.141 Y137.681 E1.38616
G1 X134.718 Y137.534 E1.41338
G1 X134.281 Y137.431 E1.44059
G1 X133.836 Y137.373 E1.4678
G1 X133.388 Y137.362 E1.49501
G1 X132.941 Y137.396 E1.52222
G1 X132.499 Y137.477 E1.54943
G1 X132.069 Y137.602 E1.57665
G1 X131.653 Y137.771 E1.60386
G1 X131.257 Y137.982 E1.63107
G1 X130.912 Y138.214 E1.65627
G1 X131.198 Y138.65 F9000
;TYPE:External perimeter
G1 F1200
G1 X130.895 Y138.903 E1.68022
G1 X130.619 Y139.186 E1.70418
G1 X130.374 Y139.495 E1.72813
G1 X130.162 Y139.828 E1.75208
G1 X129.986 Y140.182 E1.77604
G1 X129.846 Y140.551 E1.79999
G1 X129.746 Y140.933 E1.82394
G1 X129.685 Y141.323 E1.8479
G1 X129.665 Y141.718 E1.87185
G1 X129.685 Y142.112 E1.8958
G1 X129.746 Y142.502 E1.91975
G1 X129.846 Y142.884 E1.94371
G1 X129.986 Y143.253 E1.96766
G1 X130.162 Y143.607 E1.99161
G1 X130.374 Y143.94 E2.01557
G1 X130.619 Y144.249 E2.03952
G1 X130.895 Y144.532 E2.06347
G1 X131.198 Y144.785 E2.08743
G1 X131.526 Y145.006 E2.11138
G1 X131.874 Y145.191 E2.13533
G1 X132.24 Y145.34 E2.15928
G1 X132.619 Y145.45 E2.18324
G1 X133.008 Y145.521 E2.20719
G1 X133.401 Y145.552 E2.23114
G1 X133.796 Y145.541 E2.2551
G1 X134.188 Y145.491 E2.27905
G1 X134.572 Y145.4 E2.303
G1 X134.945 Y145.27 E2.32696
G1 X135.303 Y145.103 E2.35091
G1 X135.641 Y144.9 E2.37486
G1 X135.957 Y144.663 E2.39881
G1 X136.247 Y144.394 E2.42277
G1 X136.507 Y144.098 E2.44672
G1 X136.736 Y143.776 E2.47067
G1 X136.931 Y143.432 E2.49463
G1 X137.089 Y143.07 E2.51858
G1 X137.209 Y142.694 E2.54253
G1 X137.29 Y142.308 E2.56649
G1 X137.33 Y141.915 E2.59044
G1 X137.33 Y141.52 E2.61439
G1 X137.29 Y141.127 E2.63834
G1 X137.209 Y140.741 E2.6623
G1 X137.089 Y140.365 E2.68625
G1 X136.931 Y140.003 E2.7102
G1 X136.736 Y139.659 E2.73416
G1 X136.507 Y139.337 E2.75811
G1 X136.247 Y139.041 E2.78206
G1 X135.957 Y138.772 E2.80602
G1 X135.641 Y138.535 E2.82997
G1 X135.303 Y138.332 E2.85392
G1 X134.945 Y138.165 E2.87788
G1 X134.572 Y138.035 E2.90183
G1 X134.188 Y137.944 E2.92578
G1 X133.796 Y137.894 E2.94973
G1 X133.401 Y137.883 E2.97369
G1 X133.008 Y137.914 E2.99764
G1 X132.619 Y137.985 E3.02159
G1 X132.24 Y138.095 E3.04555
G1 X131.874 Y138.244 E3.0695
G1 X131.526 Y138.429 E3.09345
G1 X131.248 Y138.616 E3.11377
;WIPE_START
G1 X130.827 Y138.499 F9000
;WIPE_END
G92 E0
G1 E-3.5 F3600
;WIPE_START
G1 F7200
G1 X130.759 Y138.756 E-3.62622
G1 X130.469 Y139.053 E-3.82358
G1 X130.211 Y139.379 E-4.02094
G1 X129.988 Y139.73 E-4.2183
G1 X129.802 Y140.101 E-4.41566
G1 X129.656 Y140.49 E-4.61303
G1 X129.55 Y140.892 E-4.81039
G1 X129.513 Y141.13 E-4.925
;WIPE_END
G1 E-5 F3600
; acceleration to travel
M204 S1500
G1 X104.863 Y141.478 F9000
; decel to extrusion
M204 S500
G1 X101.851 Y141.52
; end travel
G1 E0 F2400
;TYPE:Internal perimeter
G1 F1200
G1 X101.851 Y141.493 E0.00163
G1 X101.805 Y141.047 E0.02884
G1 X101.713 Y140.608 E0.05605
G1 X101.577 Y140.181 E0.08326
G1 X101.397 Y139.769 E0.11048
G1 X101.176 Y139.379 E0.13769
G1 X100.917 Y139.013 E0.1649
G1 X100.62 Y138.677 E0.19211
G1 X100.291 Y138.372 E0.21932
G1 X99.932 Y138.103 E0.24653
G1 X99.548 Y137.872 E0.27375
G1 X99.141 Y137.681 E0.30096
G1 X98.718 Y137.534 E0.32817
G1 X98.281 Y137.431 E0.35538
G1 X97.836 Y137.373 E0.38259
G1 X97.388 Y137.362 E0.4098
G1 X96.941 Y137.396 E0.43702
G1 X96.499 Y137.477 E0.46423
G1 X96.068 Y137.602 E0.49144
G1 X95.653 Y137.771 E0.51865
G1 X95.257 Y137.982 E0.54586
G1 X94.885 Y138.233 E0.57307
G1 X94.54 Y138.52 E0.60029
G1 X94.227 Y138.841 E0.6275
G1 X93.949 Y139.193 E0.65471
G1 X93.708 Y139.571 E0.68192
G1 X93.507 Y139.973 E0.70913
G1 X93.349 Y140.392 E0.73634
G1 X93.235 Y140.826 E0.76356
G1 X93.166 Y141.27 E0.79077
G1 X93.143 Y141.718 E0.81798
G1 X93.166 Y142.166 E0.84519
G1 X93.235 Y142.609 E0.8724
G1 X93.349 Y143.043 E0.89961
G1 X93.507 Y143.462 E0.92682
G1 X93.708 Y143.864 E0.95404
G1 X93.949 Y144.242 E0.98125
G1 X94.227 Y144.594 E1.00846
G1 X94.54 Y144.915 E1.03567
G1 X94.885 Y145.203 E1.06288
G1 X95.257 Y145.453 E1.09009
G1 X95.653 Y145.664 E1.11731
G1 X96.068 Y145.833 E1.14452
G1 X96.499 Y145.958 E1.17173
G1 X96.941 Y146.039 E1.19894
G1 X97.388 Y146.073 E1.22615
G1 X97.836 Y146.062 E1.25337
G1 X98.281 Y146.004 E1.28058
G1 X98.718 Y145.901 E1.30779
G1 X99.141 Y145.754 E1.335
G1 X99.548 Y145.563 E1.36221
G1 X99.932 Y145.333 E1.38942
G1 X100.291 Y145.063 E1.41663
G1 X100.62 Y144.759 E1.44385
G1 X100.917 Y144.422 E1.47106
G1 X101.176 Y144.056 E1.49827
G1 X101.397 Y143.666 E1.52548
G1 X101.577 Y143.255 E1.55269
G1 X101.713 Y142.827 E1.5799
G1 X101.805 Y142.388 E1.60712
G1 X101.851 Y141.942 E1.63433
G1 X101.851 Y141.58 E1.65627
G1 X101.33 Y141.52 F9000
;TYPE:External perimeter
G1 F1200
G1 X101.29 Y141.127 E1.68022
G1 X101.209 Y140.741 E1.70418
G1 X101.089 Y140.365 E1.72813
G1 X100.931 Y140.003 E1.75208
G1 X100.736 Y139.659 E1.77604
G1 X100.507 Y139.337 E1.79999
G1 X100.247 Y139.041 E1.82394
G1 X99.957 Y138.772 E1.84789
G1 X99.641 Y138.535 E1.87185
G1 X99.303 Y138.332 E1.8958
G1 X98.945 Y138.165 E1.91975
G1 X98.572 Y138.035 E1.94371
G1 X98.188 Y137.944 E1.96766
G1 X97.796 Y137.894 E1.99161
G1 X97.401 Y137.883 E2.01557
G1 X97.008 Y137.914 E2.03952
G1 X96.619 Y137.985 E2.06347
G1 X96.24 Y138.095 E2.08742
G1 X95.874 Y138.244 E2.11138
G1 X95.526 Y138.429 E2.13533
G1 X95.198 Y138.65 E2.15928
G1 X94.895 Y138.903 E2.18324
G1 X94.619 Y139.186 E2.20719
G1 X94.374 Y139.495 E2.23114
G1 X94.162 Y139.828 E2.2551
G1 X93.986 Y140.182 E2.27905
G1 X93.846 Y140.551 E2.303
G1 X93.746 Y140.933 E2.32696
G1 X93.685 Y141.323 E2.35091
G1 X93.665 Y141.718 E2.37486
G1 X93.685 Y142.112 E2.39881
G1 X93.746 Y142.502 E2.42277
G1 X93.846 Y142.884 E2.44672
G1 X93.986 Y143.253 E2.47067
G1 X94.162 Y143.607 E2.49463
G1 X94.374 Y143.94 E2.51858
G1 X94.619 Y144.249 E2.54253
G1 X94.895 Y144.532 E2.56649
G1 X95.198 Y144.785 E2.59044
G1 X95.526 Y145.006 E2.61439
G1 X95.874 Y145.191 E2.63834
G1 X96.24 Y145.34 E2.6623
G1 X96.619 Y145.45 E2.68625
G1 X97.008 Y145.521 E2.7102
G1 X97.401 Y145.552 E2.73416
G1 X97.796 Y145.541 E2.75811
G1 X98.188 Y145.491 E2.78206
G1 X98.572 Y145.4 E2.80602
G1 X98.945 Y145.27 E2.82997
G1 X99.303 Y145.103 E2.85392
G1 X99.641 Y144.9 E2.87787
G1 X99.957 Y144.663 E2.90183
G1 X100.247 Y144.394 E2.92578
G1 X100.507 Y144.098 E2.94973
G1 X100.736 Y143.776 E2.97369
G1 X100.931 Y143.432 E2.99764
G1 X101.089 Y143.07 E3.02159
G1 X101.209 Y142.694 E3.04555
G1 X101.29 Y142.308 E3.0695
G1 X101.33 Y141.915 E3.09345
G1 X101.33 Y141.58 E3.11377
;WIPE_START
G1 X101.662 Y141.297 F9000
;WIPE_END
G92 E0
G1 E-3.5 F3600
;WIPE_START
G1 F7200
G1 X101.488 Y141.097 E-3.62621
G1 X101.403 Y140.69 E-3.82358
G1 X101.276 Y140.294 E-4.02094
G1 X101.11 Y139.913 E-4.2183
G1 X100.905 Y139.552 E-4.41566
G1 X100.664 Y139.213 E-4.61302
G1 X100.39 Y138.901 E-4.81039
G1 X100.213 Y138.737 E-4.925
;WIPE_END
G1 E-5 F3600
; acceleration to travel
M204 S1500
G1 X93.426 Y133.677 F9000
; decel to extrusion
M204 S500
G1 X92.597 Y133.059
; end travel
G1 E0 F2400
;TYPE:Internal perimeter
G1 F1200
G1 X94.582 Y133.795 E0.12843
G1 X96.053 Y134.308 E0.2229
G1 X97.549 Y134.795 E0.31835
G1 X99.089 Y135.26 E0.41595
G1 X101.47 Y135.901 E0.56551
G1 X103.057 Y136.277 E0.66444
G1 X104.625 Y136.605 E0.7616
G1 X106.942 Y137.013 E0.90432
G1 X108.464 Y137.23 E0.99757
G1 X109.988 Y137.405 E1.09065
G1 X111.451 Y137.534 E1.17969
G1 X112.92 Y137.623 E1.26898
G1 X114.374 Y137.673 E1.35724
G1 X115.814 Y137.684 E1.44458
G1 X117.24 Y137.657 E1.53111
G1 X118.653 Y137.594 E1.61693
G1 X120.055 Y137.494 E1.70213
G1 X121.444 Y137.36 E1.78682
G1 X122.823 Y137.193 E1.87109
G1 X124.191 Y136.993 E1.95494
G1 X125.543 Y136.762 E2.03816
G1 X126.866 Y136.506 E2.11985
G1 X128.181 Y136.221 E2.20151
G1 X129.482 Y135.911 E2.2826
G1 X131.99 Y135.235 E2.44016
G1 X134.4 Y134.49 E2.59321
G1 X135.58 Y134.091 E2.66873
G1 X138.403 Y133.063 E2.851
G1 X138.403 Y75.121 E6.36574
G1 X151.597 Y75.121 E7.16607
G1 X151.597 Y134.314 E10.75672
G1 X148.597 Y134.314 E10.93869
G1 X148.597 Y146.246 E11.66245
G1 X146.79 Y147.23 E11.78723
G1 X145.08 Y148.109 E11.90387
G1 X142.608 Y149.295 E12.0702
G1 X140.516 Y150.228 E12.20912
G1 X138.367 Y151.123 E12.35035
G1 X136.281 Y151.923 E12.48589
G1 X134.267 Y152.631 E12.61536
G1 X132.963 Y153.055 E12.69857
G1 X131.687 Y153.442 E12.77942
G1 X129.831 Y153.958 E12.89627
G1 X127.452 Y154.534 E13.04476
G1 X125.194 Y154.989 E13.1845
G1 X123.064 Y155.335 E13.3154
G1 X121.043 Y155.586 E13.43894
G1 X119.149 Y155.752 E13.55426
G1 X117.364 Y155.846 E13.66269
G1 X115.665 Y155.879 E13.76575
G1 X113.914 Y155.856 E13.872
G1 X112.09 Y155.769 E13.98273
G1 X110.21 Y155.613 E14.09717
G1 X108.255 Y155.381 E14.21662
G1 X106.23 Y155.066 E14.34089
G1 X104.143 Y154.664 E14.46981
G1 X101.976 Y154.166 E14.6047
G1 X99.735 Y153.566 E14.74544
G1 X97.414 Y152.856 E14.89266
G1 X95.153 Y152.085 E15.03756
G1 X93.008 Y151.28 E15.17651
G1 X90.98 Y150.454 E15.30935
G1 X89.072 Y149.617 E15.43574
G1 X86.421 Y148.359 E15.61373
G1 X84.046 Y147.141 E15.77563
G1 X82.403 Y146.246 E15.88913
G1 X82.403 Y134.314 E16.6129
G1 X79.403 Y134.314 E16.79488
G1 X79.403 Y75.121 E20.38552
G1 X92.597 Y75.121 E21.18585
G1 X92.597 Y132.999 E24.69672
G1 X93.118 Y132.697 F9000
;TYPE:External perimeter
G1 F1200
G1 X94.758 Y133.305 E24.80285
G1 X96.219 Y133.814 E24.89668
G1 X97.705 Y134.298 E24.99146
G1 X99.232 Y134.759 E25.08824
G1 X101.598 Y135.396 E25.23684
G1 X103.171 Y135.768 E25.33488
G1 X104.724 Y136.094 E25.43113
G1 X107.024 Y136.499 E25.57281
G1 X108.53 Y136.713 E25.66511
G1 X110.041 Y136.886 E25.75735
G1 X111.489 Y137.014 E25.84555
G1 X112.945 Y137.103 E25.93399
G1 X114.385 Y137.152 E26.02141
G1 X115.811 Y137.163 E26.10791
G1 X117.223 Y137.136 E26.1936
G1 X118.623 Y137.073 E26.2786
G1 X120.011 Y136.975 E26.363
G1 X121.388 Y136.842 E26.44689
G1 X122.754 Y136.676 E26.53039
G1 X124.11 Y136.478 E26.61348
G1 X125.45 Y136.25 E26.69597
G1 X126.761 Y135.995 E26.77695
G1 X128.066 Y135.713 E26.85795
G1 X129.353 Y135.406 E26.93824
G1 X131.845 Y134.734 E27.09476
G1 X134.24 Y133.994 E27.24683
G1 X135.407 Y133.6 E27.32157
G1 X137.882 Y132.698 E27.48133
G1 X137.882 Y74.6 E31.00556
G1 X152.118 Y74.6 E31.8691
G1 X152.118 Y134.836 E35.52296
G1 X149.118 Y134.836 E35.70494
G1 X149.118 Y146.556 E36.41587
G1 X147.034 Y147.69 E36.5598
G1 X145.312 Y148.576 E36.67726
G1 X142.827 Y149.768 E36.84446
G1 X140.723 Y150.706 E36.98421
G1 X138.56 Y151.606 E37.12628
G1 X136.461 Y152.412 E37.26272
G1 X134.434 Y153.125 E37.39301
G1 X133.119 Y153.552 E37.4769
G1 X131.833 Y153.943 E37.55844
G1 X129.962 Y154.462 E37.67619
G1 X127.565 Y155.043 E37.82582
G1 X125.287 Y155.502 E37.96677
G1 X123.138 Y155.851 E38.09887
G1 X121.098 Y156.104 E38.22356
G1 X119.185 Y156.272 E38.34001
G1 X117.382 Y156.367 E38.44951
G1 X115.667 Y156.4 E38.55362
G1 X113.898 Y156.376 E38.66092
G1 X112.056 Y156.289 E38.77275
G1 X110.158 Y156.132 E38.8883
G1 X108.184 Y155.897 E39.00889
G1 X106.141 Y155.58 E39.13429
G1 X104.036 Y155.174 E39.26434
G1 X101.85 Y154.672 E39.40037
G1 X99.591 Y154.067 E39.54222
G1 X97.254 Y153.352 E39.6905
G1 X94.977 Y152.575 E39.83639
G1 X92.818 Y151.766 E39.97626
G1 X90.777 Y150.934 E40.10996
G1 X88.856 Y150.091 E40.23723
G1 X86.19 Y148.827 E40.41618
G1 X83.803 Y147.602 E40.57896
G1 X81.882 Y146.556 E40.71163
G1 X81.882 Y134.836 E41.42257
G1 X78.882 Y134.836 E41.60455
G1 X78.882 Y74.6 E45.25841
G1 X93.118 Y74.6 E46.12195
G1 X93.118 Y132.637 E49.64244
;WIPE_START
G1 X93.024 Y133.086 F9000
;WIPE_END
G92 E0
G1 E-3.5 F3600
;WIPE_START
G1 F7200
G1 X94.691 Y133.493 E-4.31499
G1 X95.903 Y133.916 E-4.925
;WIPE_END
G1 E-5 F3600
; acceleration to travel
M204 S1500
G1 X145.394 Y82.6 F9000
; decel to extrusion
M204 S500
G1 X151.441 Y76.33
; end travel
G1 E0 F2400
;TYPE:Solid infill
;WIDTH:0.560887
G1 F1200
G1 X150.611 Y75.501 E0.07075
G1 X149.874 Y75.501 E0.1152
G1 X151.217 Y76.843 E0.2297
G1 X151.217 Y77.58 E0.27415
G1 X149.138 Y75.501 E0.45152
G1 X148.401 Y75.501 E0.49597
G1 X151.217 Y78.317 E0.73621
G1 X151.217 Y79.054 E0.78066
G1 X147.664 Y75.501 E1.08376
G1 X146.927 Y75.501 E1.12822
