; generated by SuperSlicer 2.4 on 2023-03-09 at 15:21:00 UTC


;
;

;
;
; 

; external perimeters extrusion width = 0.42mm
; perimeters extrusion width = 0.46mm
; infill extrusion width = 0.44mm
; solid infill extrusion width = 0.46mm
; top infill extrusion width = 0.44mm
; first layer extrusion width = 0.56mm

; object:{"name":"brio_cross_fixed","id":"brio_cross_fixed.stl id:0 copy 0","object_center":[115.500000,115.500000,0.000000],"boundingbox_center":[115.500000,115.500000,6.000000],"boundingbox_size":[71.955704,71.955704,12.000001]}
; plater:{"center":[115.500000,115.500000,0.000000],"boundingbox_center":[115.500000,115.500000,6.000000],"boundingbox_size":[71.955704,71.955704,12.000001]}

;TYPE:Custom
START_PRINT
M107
G21 ; set units to millimeters
G90 ; use absolute coordinates
M82 ; use absolute distances for extrusion
G92 E0
; Filament gcode
;_TOOLCHANGE 0
M104 S210 ; set temperature
M109 S210 ; set temperature and wait for it to be reached
M190 S60 ; set bed temperature and wait for it to be reached
M107
;LAYER_CHANGE
;Z:0.2
;HEIGHT:0.2
;BEFORE_LAYER_CHANGE
;0.2


G1 E-5 F3600
G1 Z0.2 F9000
;AFTER_LAYER_CHANGE
;0.2
G92 E0
M204 S500
G1 X78.077 Y93.602
G1 E5 F2400
;TYPE:Skirt
;WIDTH:0.48
G1 F1200
G1 X76.697 Y94.935 E5.06971
G1 X76.304 Y96.478 E5.12757
G1 X76.304 Y136.978 E6.59949
G1 X76.434 Y137.885 E6.63278
G1 X77.246 Y139.254 E6.69064
G1 X91.746 Y153.754 E7.43588
G1 X92.479 Y154.303 E7.46916
G1 X94.022 Y154.696 E7.52703
G1 X134.522 Y154.696 E8.99895
G1 X136.353 Y154.125 E9.06866
G1 X137.398 Y152.923 E9.12652
G1 X153.521 Y120.85 E10.43118
G1 X154.141 Y119.309 E10.49156
G1 X154.425 Y118.024 E10.53938
G1 X154.513 Y117.027 E10.57575
G1 X154.463 Y115.721 E10.62323
G1 X154.255 Y114.561 E10.66608
G1 X153.847 Y113.32 E10.71356
G1 X153.418 Y112.416 E10.74991
G1 X152.706 Y111.31 E10.79773
G1 X152.054 Y110.538 E10.83447
G1 X136.719 Y94.125 E11.6508
G1 X120.46 Y78.944 E12.45925
G1 X119.337 Y78.041 E12.51162
G1 X117.94 Y77.263 E12.56972
G1 X116.439 Y76.745 E12.62744
G1 X114.851 Y76.499 E12.68584
G1 X113.693 Y76.499 E12.72794
G1 X112.389 Y76.681 E12.77579
G1 X111.423 Y76.945 E12.81217
G1 X110.216 Y77.447 E12.8597
G1 X78.13 Y93.575 E14.16482
G92 E0
G1 E-3.5 F3600
;WIPE_START
G1 F7200
G1 X76.697 Y94.935 E-4.43831
G1 X76.444 Y95.928 E-4.925
;WIPE_END
G1 E-5 F3600
; printing object brio_cross_fixed.stl id:0 copy 0
; acceleration to travel
M204 S1500
G1 X125.632 Y129.942 F9000
; decel to extrusion
M204 S500
G1 X131.642 Y134.098
; end travel
G1 E0 F2400
;TYPE:Internal perimeter
;WIDTH:0.564
G1 F1200
G1 X133.619 Y134.098 E0.08567
G1 X133.619 Y150.575 E0.79957
G1 X131.642 Y150.575 E0.88523
G1 X131.642 Y134.158 E1.59654
G1 X131.121 Y133.577 F9000
;TYPE:External perimeter
G1 F1200
G1 X134.14 Y133.577 E1.72736
G1 X134.14 Y151.096 E2.48641
G1 X131.121 Y151.096 E2.61723
G1 X131.121 Y133.637 E3.37369
;WIPE_START
G1 X131.467 Y133.777 F9000
;WIPE_END
G1 X132.409 Y134.254
;TYPE:Solid infill
;WIDTH:0.545869
G1 F1200
G1 X133.239 Y135.084 E3.42287
G1 X133.239 Y135.821 E3.45377
G1 X132.022 Y134.604 E3.52591
G1 X132.022 Y135.341 E3.55682
G1 X133.239 Y136.557 E3.62896
G1 X133.239 Y137.294 E3.65986
G1 X132.022 Y136.078 E3.732
G1 X132.022 Y136.815 E3.76291
G1 X133.239 Y138.031 E3.83505
G1 X133.239 Y138.768 E3.86595
G1 X132.022 Y137.552 E3.93809
G1 X132.022 Y138.289 E3.96899
G1 X133.239 Y139.505 E4.04114
G1 X133.239 Y140.242 E4.07204
G1 X132.022 Y139.026 E4.14418
G1 X132.022 Y139.763 E4.17508
G1 X133.239 Y140.979 E4.24723
G1 X133.239 Y141.716 E4.27813
G1 X132.022 Y140.499 E4.35027
G1 X132.022 Y141.236 E4.38117
G1 X133.239 Y142.453 E4.45332
G1 X133.239 Y143.19 E4.48422
G1 X132.022 Y141.973 E4.55636
G1 X132.022 Y142.71 E4.58726
G1 X133.239 Y143.927 E4.6594
G1 X133.239 Y144.664 E4.69031
G1 X132.022 Y143.447 E4.76245
G1 X132.022 Y144.184 E4.79335
G1 X133.239 Y145.4 E4.86549
G1 X133.239 Y146.137 E4.8964
G1 X132.022 Y144.921 E4.96854
G1 X132.022 Y145.658 E4.99944
G1 X133.239 Y146.874 E5.07158
G1 X133.239 Y147.611 E5.10249
G1 X132.022 Y146.395 E5.17463
G1 X132.022 Y147.132 E5.20553
G1 X133.239 Y148.348 E5.27767
G1 X133.239 Y149.085 E5.30857
G1 X132.022 Y147.869 E5.38072
G1 X132.022 Y148.606 E5.41162
G1 X133.239 Y149.822 E5.48376
G1 X133.239 Y150.194 E5.49938
G1 X132.874 Y150.194 E5.51466
G1 X132.022 Y149.342 E5.56519
G1 X132.022 Y150.079 E5.59609
G1 X132.361 Y150.418 E5.6162
G92 E0
G1 E-3.5 F3600
;WIPE_START
G1 F7200
G1 X132.022 Y150.079 E-3.72779
G1 X132.022 Y149.342 E-4.07783
G1 X132.874 Y150.194 E-4.65013
G1 X133.239 Y150.194 E-4.82326
G1 X133.239 Y149.98 E-4.925
;WIPE_END
G1 E-5 F3600
; acceleration to travel
M204 S1500
G1 X124.027 Y150.51 F9000
; decel to extrusion
M204 S500
G1 X122.902 Y150.575
; end travel
G1 E0 F2400
;TYPE:Internal perimeter
;WIDTH:0.564
G1 F1200
G1 X118.825 Y150.575 E0.17664
G1 X118.825 Y147.785 E0.29751
G1 X119.438 Y147.287 E0.33174
G1 X120.285 Y146.303 E0.388
G1 X120.949 Y145.184 E0.44435
G1 X121.405 Y143.971 E0.50052
G1 X121.645 Y142.693 E0.55686
G1 X121.656 Y141.395 E0.61308
G1 X121.441 Y140.116 E0.66928
G1 X121.007 Y138.892 E0.72555
G1 X120.363 Y137.762 E0.78191
G1 X119.533 Y136.764 E0.83817
G1 X118.542 Y135.925 E0.8944
G1 X117.418 Y135.273 E0.95069
G1 X116.2 Y134.825 E1.00693
G1 X114.921 Y134.598 E1.0632
G1 X113.622 Y134.598 E1.11949
G1 X112.344 Y134.825 E1.17576
G1 X111.125 Y135.273 E1.23201
G1 X110.003 Y135.925 E1.28823
G1 X109.011 Y136.764 E1.3445
G1 X108.181 Y137.763 E1.4008
G1 X107.54 Y138.892 E1.45707
G1 X107.103 Y140.115 E1.51334
G1 X106.887 Y141.396 E1.56962
G1 X106.901 Y142.693 E1.6258
G1 X107.139 Y143.97 E1.68208
G1 X107.595 Y145.184 E1.7383
G1 X108.259 Y146.303 E1.79464
G1 X109.106 Y147.287 E1.85091
G1 X109.719 Y147.785 E1.88513
G1 X109.719 Y150.575 E2.00601
G1 X105.642 Y150.575 E2.18265
G1 X105.642 Y134.098 E2.89655
G1 X122.902 Y134.098 E3.64437
G1 X122.902 Y150.515 E4.35567
G1 X123.423 Y151.096 F9000
;TYPE:External perimeter
G1 F1200
G1 X118.304 Y151.096 E4.57747
G1 X118.304 Y147.537 E4.73165
G1 X119.073 Y146.912 E4.77461
G1 X119.86 Y145.997 E4.82689
G1 X120.477 Y144.958 E4.87925
G1 X120.901 Y143.83 E4.93148
G1 X121.125 Y142.642 E4.98385
G1 X121.135 Y141.437 E5.03607
G1 X120.935 Y140.248 E5.08832
G1 X120.531 Y139.11 E5.14061
G1 X119.933 Y138.06 E5.19298
G1 X119.161 Y137.132 E5.24527
G1 X118.241 Y136.352 E5.29753
G1 X117.196 Y135.746 E5.34985
G1 X116.064 Y135.33 E5.40212
G1 X114.876 Y135.119 E5.45441
G1 X113.668 Y135.119 E5.50672
G1 X112.48 Y135.33 E5.55901
G1 X111.348 Y135.746 E5.61129
G1 X110.305 Y136.352 E5.66356
G1 X109.383 Y137.132 E5.71585
G1 X108.611 Y138.06 E5.76817
G1 X108.015 Y139.11 E5.82046
G1 X107.609 Y140.247 E5.87278
G1 X107.409 Y141.437 E5.92506
G1 X107.422 Y142.642 E5.97727
G1 X107.643 Y143.829 E6.0296
G1 X108.067 Y144.958 E6.08184
G1 X108.683 Y145.997 E6.1342
G1 X109.471 Y146.912 E6.18648
G1 X110.24 Y147.537 E6.22944
G1 X110.24 Y151.096 E6.38363
G1 X105.121 Y151.096 E6.60542
G1 X105.121 Y133.577 E7.36448
G1 X123.423 Y133.577 E8.15746
G1 X123.423 Y151.036 E8.91391
;WIPE_START
G1 X123.076 Y150.896 F9000
;WIPE_END
G92 E0
G1 E-3.5 F3600
;WIPE_START
G1 F7200
G1 X120.076 Y150.896 E-4.925
;WIPE_END
G1 E-5 F3600
; acceleration to travel
M204 S1500
G1 X122.455 Y144.352 F9000
; decel to extrusion
M204 S500
G1 X122.745 Y143.552
; end travel
G1 E0 F2400
;TYPE:Solid infill
;WIDTH:0.581155
G1 F1200
G1 X122.009 Y142.816 E0.04649
G1 X121.892 Y143.436 E0.07467
G1 X122.521 Y144.065 E0.11438
G1 X122.521 Y144.802 E0.14728
G1 X121.776 Y144.056 E0.19437
G1 X121.772 Y144.073 E0.19515
G1 X121.577 Y144.594 E0.21999
G1 X122.521 Y145.539 E0.27963
G1 X122.521 Y146.276 E0.31253
G1 X121.375 Y145.13 E0.38489
G1 X121.293 Y145.349 E0.39536
G1 X121.131 Y145.622 E0.40953
G1 X122.521 Y147.013 E0.49731
G1 X122.521 Y147.75 E0.53021
G1 X120.857 Y146.085 E0.63532
G1 X120.595 Y146.526 E0.6582
G1 X120.579 Y146.544 E0.6593
G1 X122.521 Y148.486 E0.78193
G1 X122.521 Y149.223 E0.81483
G1 X120.238 Y146.94 E0.95899
G1 X119.897 Y147.336 E0.98232
G1 X122.521 Y149.96 E1.14802
G1 X122.521 Y150.194 E1.15847
G1 X122.019 Y150.194 E1.18092
G1 X119.528 Y147.704 E1.33819
G1 X119.205 Y147.966 E1.35675
G1 X119.205 Y148.118 E1.36354
G1 X121.282 Y150.194 E1.49464
G1 X120.545 Y150.194 E1.52754
G1 X119.205 Y148.855 E1.61211
G1 X119.205 Y149.592 E1.64501
G1 X120.032 Y150.418 E1.6972
G92 E0
G1 E-3.5 F3600
;WIPE_START
G1 F7200
G1 X119.205 Y149.592 E-4.05528
G1 X119.205 Y148.855 E-4.40532
G1 X119.979 Y149.629 E-4.925
;WIPE_END
G1 E-5 F3600
; acceleration to travel
M204 S1500
G1 X121.506 Y135.928 F9000
; decel to extrusion
M204 S500
G1 X121.692 Y134.254
; end travel
G1 E0 F2400
G1 F1200
G1 X122.521 Y135.084 E0.05236
G1 X122.521 Y135.821 E0.08526
G1 X121.179 Y134.478 E0.17
G1 X120.442 Y134.478 E0.2029
G1 X122.521 Y136.557 E0.33417
G1 X122.521 Y137.294 E0.36707
G1 X119.705 Y134.478 E0.54486
G1 X118.968 Y134.478 E0.57776
G1 X122.521 Y138.031 E0.80209
G1 X122.521 Y138.768 E0.83499
G1 X118.232 Y134.478 E1.10584
G1 X117.591 Y134.478 E1.13443
G1 X117.571 Y134.554 E1.13795
G1 X122.521 Y139.505 E1.45053
G1 X122.521 Y140.242 E1.48343
G1 X121.542 Y139.262 E1.54528
G1 X121.81 Y140.02 E1.58118
G1 X121.861 Y140.318 E1.59467
G1 X122.521 Y140.979 E1.63638
G1 X122.521 Y141.307 E1.65105
G1 X122.144 Y141.339 E1.66793
G1 X121.737 Y140.931 E1.69368
G1 X122.398 Y141.569 F9000
;TYPE:Gap fill
;WIDTH:0.956772
G1 F1200
G1 X122.37 Y141.642 E1.69966
;WIDTH:0.928525
G1 X122.348 Y141.707 E1.70472
;WIDTH:0.89117
G1 X122.33 Y141.762 E1.7088
G1 X122.304 Y141.854 E1.7155
;WIDTH:0.771894
G1 X122.277 Y141.945 E1.72126
G1 X122.276 Y142.199 E1.73667
;WIDTH:0.732615
G1 X122.266 Y142.249 E1.73961
;WIDTH:0.691153
G1 X122.253 Y142.311 E1.74303
;WIDTH:0.739138
G1 X122.239 Y142.373 E1.7467
;WIDTH:0.787123
G1 X122.226 Y142.435 E1.75063
;WIDTH:0.835107
G1 X122.213 Y142.497 E1.7548
G1 X122.187 Y142.613 E1.76263
G92 E0
G1 E-3.5 F3600
;WIPE_START
G1 F7200
G1 X122.213 Y142.497 E-3.55644
G1 X122.226 Y142.435 E-3.58657
;WIPE_END
G1 E-5 F3600
; acceleration to travel
M204 S1500
G1 X117.858 Y135.52 F9000
; decel to extrusion
M204 S500
G1 X117.324 Y134.675
; end travel
G1 E0 F2400
;WIDTH:0.560825
G1 F1200
G1 X117.2 Y134.645 E0.0055
G1 X117.143 Y134.631 E0.00802
;WIDTH:0.514495
G1 X117.058 Y134.603 E0.01154
G1 X116.933 Y134.58 E0.01653
;WIDTH:0.477579
G1 X116.808 Y134.558 E0.02112
;WIDTH:0.424083
G1 X116.682 Y134.536 E0.02515
;WIDTH:0.370586
G1 X116.557 Y134.514 E0.02862
;WIDTH:0.31709
G1 X116.432 Y134.491 E0.03152
;WIDTH:0.263593
G1 X116.307 Y134.469 E0.03386
G1 X116.287 Y134.466 E0.03421
G1 X115.948 Y134.437 E0.04047
;WIDTH:0.15572
G1 X115.608 Y134.407 E0.04367
G92 E0
G1 E-3.5 F3600
;WIPE_START
G1 F7200
G1 X115.948 Y134.437 E-3.66196
;WIPE_END
G1 E-5 F3600
; acceleration to travel
M204 S1500
G1 X107.911 Y142.69 F9000
; decel to extrusion
M204 S500
G1 X106.929 Y143.699
; end travel
G1 E0 F2400
;TYPE:Solid infill
;WIDTH:0.58717
G1 F1200
G1 X106.022 Y142.792 E0.05786
G1 X106.022 Y143.529 E0.0911
G1 X106.895 Y144.401 E0.14673
G1 X107.251 Y145.349 E0.19244
G1 X107.462 Y145.705 E0.2111
G1 X106.022 Y144.266 E0.30294
G1 X106.022 Y145.003 E0.33618
G1 X109.339 Y148.319 E0.54772
G1 X109.339 Y149.056 E0.58096
G1 X106.022 Y145.74 E0.7925
G1 X106.022 Y146.476 E0.82574
G1 X109.339 Y149.793 E1.03728
G1 X109.339 Y150.194 E1.05541
G1 X109.003 Y150.194 E1.07052
G1 X106.022 Y147.213 E1.26069
G1 X106.022 Y147.95 E1.29393
G1 X108.267 Y150.194 E1.43709
G1 X107.53 Y150.194 E1.47033
G1 X106.022 Y148.687 E1.56647
G1 X106.022 Y149.424 E1.59971
G1 X106.793 Y150.194 E1.64885
G1 X106.056 Y150.194 E1.68209
G1 X105.798 Y149.937 E1.69851
G92 E0
G1 E-3.5 F3600
;WIPE_START
G1 F7200
G1 X106.056 Y150.194 E-3.67292
G1 X106.793 Y150.194 E-4.02295
G1 X106.022 Y149.424 E-4.54038
G1 X106.022 Y148.687 E-4.89042
G1 X106.074 Y148.739 E-4.925
;WIPE_END
G1 E-5 F3600
; acceleration to travel
M204 S1500
G1 X109.63 Y135.831 F9000
; decel to extrusion
M204 S500
G1 X110.065 Y134.254
; end travel
G1 E0 F2400
G1 F1200
G1 X110.82 Y135.01 E0.0482
G1 X110.354 Y135.281 E0.07252
G1 X109.552 Y134.478 E0.12371
G1 X108.815 Y134.478 E0.15695
G1 X109.888 Y135.552 E0.22542
G1 X109.783 Y135.613 E0.23091
G1 X109.474 Y135.874 E0.24917
G1 X108.078 Y134.478 E0.33821
G1 X107.341 Y134.478 E0.37145
G1 X109.075 Y136.212 E0.48204
G1 X108.74 Y136.495 E0.50179
G1 X108.686 Y136.56 E0.50563
G1 X106.604 Y134.478 E0.63842
G1 X106.022 Y134.478 E0.66467
G1 X106.022 Y134.634 E0.67166
G1 X108.351 Y136.963 E0.82023
G1 X108.017 Y137.365 E0.84384
G1 X106.022 Y135.37 E0.97107
G1 X106.022 Y136.107 E1.00431
G1 X107.72 Y137.805 E1.11257
G1 X107.453 Y138.275 E1.13695
G1 X106.022 Y136.844 E1.2282
G1 X106.022 Y137.581 E1.26144
G1 X107.188 Y138.746 E1.33577
G1 X106.994 Y139.29 E1.36178
G1 X106.022 Y138.318 E1.42375
G1 X106.022 Y139.055 E1.45699
G1 X106.8 Y139.833 E1.5066
G1 X106.734 Y140.019 E1.51552
G1 X106.664 Y140.433 E1.53447
G1 X106.022 Y139.792 E1.57539
G1 X106.022 Y140.529 E1.60863
G1 X106.558 Y141.064 E1.64276
G1 X106.51 Y141.348 E1.65577
G1 X106.068 Y141.311 E1.67576
G1 X105.798 Y141.042 E1.69296
G1 X106.263 Y141.579 F9000
;TYPE:Gap fill
;WIDTH:0.73528
G1 F1200
G1 X106.265 Y141.762 E1.70351
;WIDTH:0.77513
G1 X106.268 Y141.945 E1.71467
G1 X106.268 Y142.049 E1.72101
G1 X106.269 Y142.153 E1.72735
G1 X106.291 Y142.198 E1.73041
;WIDTH:0.686706
G1 X106.314 Y142.243 E1.7331
G1 X106.339 Y142.303 E1.73656
;WIDTH:0.630958
G1 X106.364 Y142.362 E1.73972
;WIDTH:0.575211
G1 X106.389 Y142.422 E1.74257
;WIDTH:0.519463
G1 X106.414 Y142.481 E1.74513
;WIDTH:0.463715
G1 X106.439 Y142.541 E1.74739
;WIDTH:0.407967
G1 X106.464 Y142.6 E1.74935
;WIDTH:0.352219
G1 X106.489 Y142.66 E1.75101
;WIDTH:0.283337
G1 X106.514 Y142.719 E1.7523
G1 X106.552 Y142.793 E1.75395
;WIDTH:0.239376
G1 X106.58 Y142.846 E1.75494
;WIDTH:0.197548
G1 X106.608 Y142.899 E1.75571
;WIDTH:0.15572
G1 X106.636 Y142.952 E1.75627
G92 E0
G1 E-3.5 F3600
;WIPE_START
G1 F7200
G1 X106.608 Y142.899 E-3.52852
;WIPE_END
G1 E-5 F3600
; acceleration to travel
M204 S1500
G1 X110.422 Y135.586 F9000
; decel to extrusion
M204 S500
G1 X110.887 Y134.692
; end travel
G1 E0 F2400
;WIDTH:0.587196
G1 F1200
G1 X110.96 Y134.684 E0.00329
G1 X111.022 Y134.677 E0.00612
;WIDTH:0.538399
G1 X111.084 Y134.67 E0.0087
G1 X111.165 Y134.658 E0.01208
;WIDTH:0.616362
G1 X111.246 Y134.645 E0.01598
G1 X111.37 Y134.623 E0.02198
;WIDTH:0.565967
G1 X111.494 Y134.601 E0.02746
;WIDTH:0.515571
G1 X111.618 Y134.579 E0.0324
;WIDTH:0.465176
G1 X111.742 Y134.557 E0.03682
;WIDTH:0.41478
G1 X111.866 Y134.535 E0.04071
;WIDTH:0.364385
G1 X111.989 Y134.513 E0.04407
;WIDTH:0.313989
G1 X112.113 Y134.491 E0.04691
;WIDTH:0.263593
G1 X112.237 Y134.469 E0.04922
G1 X112.256 Y134.466 E0.04958
G1 X112.596 Y134.437 E0.05583
;WIDTH:0.15572
G1 X112.936 Y134.407 E0.05903
G92 E0
G1 E-3.5 F3600
;WIPE_START
G1 F7200
G1 X112.596 Y134.437 E-3.66196
;WIPE_END
G1 E-5 F3600
; acceleration to travel
M204 S1500
G1 X107.492 Y125.253 F9000
; decel to extrusion
M204 S500
G1 X106.869 Y124.131
; end travel
G1 E0 F2400
;TYPE:Internal perimeter
;WIDTH:0.564
G1 F1200
G1 X121.675 Y124.131 E0.64154
G1 X121.675 Y109.325 E1.28308
G1 X106.869 Y109.325 E1.92462
G1 X106.869 Y124.071 E2.56357
G1 X107.39 Y123.61 F9000
;TYPE:External perimeter
G1 F1200
G1 X121.154 Y123.61 E3.15995
G1 X121.154 Y109.846 E3.75634
G1 X107.39 Y109.846 E4.35273
G1 X107.39 Y123.55 E4.94651
;WIPE_START
G1 X107.39 Y124.01 F9000
;WIPE_END
G1 X107.39 Y124.837
;TYPE:Internal perimeter
G1 F1200
G1 X106.163 Y124.837 E4.99966
G1 X106.163 Y108.619 E5.70232
G1 X122.381 Y108.619 E6.40499
G1 X122.381 Y124.837 E7.10766
G1 X107.45 Y124.837 E7.75459
G1 X105.642 Y125.358 F9000
G1 F1200
G1 X105.642 Y108.098 E8.50241
G1 X122.902 Y108.098 E9.25024
G1 X122.902 Y125.358 E9.99806
G1 X105.702 Y125.358 E10.74328
G1 X105.121 Y125.879 F9000
;TYPE:External perimeter
G1 F1200
G1 X105.121 Y107.577 E11.53626
G1 X123.423 Y107.577 E12.32924
G1 X123.423 Y125.879 E13.12221
G1 X105.181 Y125.879 E13.91259
;WIPE_START
G1 X105.321 Y125.533 F9000
;WIPE_END
G1 X106.535 Y124.465
;TYPE:Gap fill
;WIDTH:0.287143
G1 F1200
G1 X106.516 Y124.372 E13.91452
G1 X106.516 Y109.085 E14.22496
G1 X106.535 Y108.991 E14.22689
G1 X106.628 Y108.972 E14.22883
G1 X121.915 Y108.972 E14.53927
