; HEADER_BLOCK_START
; generated by OrcaSlicer 1.9.1 on 2024-02-17 at 18:06:57
; total layer number: 4
; filament_density: 1.27
; filament_diameter: 1.75
; max_z_height: 0.85
; HEADER_BLOCK_END

; THUMBNAIL_BLOCK_START

;
; THUMBNAIL_BLOCK_END

; external perimeters extrusion width = 0.40mm
; perimeters extrusion width = 0.45mm
; infill extrusion width = 0.45mm
; solid infill extrusion width = 0.40mm
; top infill extrusion width = 0.40mm
; first layer extrusion width = 0.56mm

; EXECUTABLE_BLOCK_START
EXCLUDE_OBJECT_DEFINE NAME=Orca-PA-Calibration-Test CENTER=0,0 POLYGON=[[5,5],[215,5],[215,215],[5,215],[5,5]]
M73 P0 R8
;TYPE:Custom
M190 S80
M109 S235
PRINT_START EXTRUDER=235 BED=80
START_PRINT
G90
G21
M83 ; use relative distances for extrusion
; filament start gcode
M106 S0
;LAYER_CHANGE
;Z:0.25
;HEIGHT:0.25
;BEFORE_LAYER_CHANGE
;0.25
G92 E0

;AFTER_LAYER_CHANGE
;0.25
;_SET_FAN_SPEED_CHANGING_LAYER
SET_VELOCITY_LIMIT ACCEL=500 ACCEL_TO_DECEL=250
;CUSTOM_GCODE
; start pressure advance pattern for layer
G10 ; retract
G1 X53.258 Y86.007 F10800
G11 ; unretract
G1 Z.25
SET_PRESSURE_ADVANCE ADVANCE=0; Override pressure advance value
G10 ; retract
G11 ; unretract
G1 F1800
G1 X53.258 Y128.433 E1.65231

G1 X151.742 Y128.433 E3.83551

M73 P1 R8
G1 X151.742 Y86.007 E1.65231

G1 X53.258 Y86.007 E3.83551
G10 ; retract
M73 P2 R8
G1 X53.764 Y86.513 F10800
G11 ; unretract
G1 F1800
G1 X53.764 Y127.927 E1.61287

G1 X151.236 Y127.927 E3.79607

G1 X151.236 Y86.513 E1.61287

M73 P3 R8
G1 X53.764 Y86.513 E3.79607
G10 ; retract
G1 X54.271 Y87.019 F10800
G11 ; unretract
G1 F1800
G1 X54.271 Y127.421 E1.57343

M73 P4 R8
G1 X150.729 Y127.421 E3.75663

G1 X150.729 Y87.019 E1.57343

G1 X54.271 Y87.019 E3.75663
G10 ; retract
M73 P5 R8
G1 X53.258 Y128.94 F10800
G11 ; unretract
G1 F1800
G1 X53.258 Y139.446 E.40917

G1 X131.933 Y139.446 E3.06404

M73 P6 R8
G1 X131.933 Y128.94 E.40917

G1 X53.258 Y128.94 E3.06404
G10 ; retract
G1 X53.764 Y129.446 F10800
G11 ; unretract
G1 F1800
G1 X53.764 Y138.94 E.36973

G1 X131.427 Y138.94 E3.0246

M73 P7 R8
G1 X131.427 Y129.446 E.36973

G1 X53.764 Y129.446 E3.0246
G10 ; retract
M73 P8 R7
G1 X54.271 Y129.952 F10800
G11 ; unretract
G1 F1800
G1 X54.271 Y138.433 E.33029

G1 X130.921 Y138.433 E2.98516

G1 X130.921 Y129.952 E.33029

G1 X54.271 Y129.952 E2.98516
G10 ; retract
M73 P9 R7
G1 X54.644 Y130.326 F10800
G11 ; unretract
G10 ; retract
G1 X55.36 Y130.326
G11 ; unretract
G1 F1800
G1 X54.644 Y131.042 E.03944
G10 ; retract
G1 X54.644 Y131.758 F10800
G11 ; unretract
G1 F1800
G1 X56.076 Y130.326 E.07888
G10 ; retract
G1 X56.792 Y130.326 F10800
G11 ; unretract
G1 F1800
G1 X54.644 Y132.474 E.11832
G10 ; retract
G1 X54.644 Y133.19 F10800
G11 ; unretract
G1 F1800
G1 X57.508 Y130.326 E.15776
G10 ; retract
G1 X58.224 Y130.326 F10800
G11 ; unretract
G1 F1800
G1 X54.644 Y133.906 E.1972
G10 ; retract
G1 X54.644 Y134.622 F10800
G11 ; unretract
G1 F1800
G1 X58.94 Y130.326 E.23664
G10 ; retract
G1 X59.657 Y130.326 F10800
G11 ; unretract
G1 F1800
G1 X54.644 Y135.338 E.27608
G10 ; retract
G1 X54.644 Y136.054 F10800
G11 ; unretract
G1 F1800
G1 X60.373 Y130.326 E.31552
G10 ; retract
G1 X61.089 Y130.326 F10800
G11 ; unretract
G1 F1800
G1 X54.644 Y136.77 E.35496
G10 ; retract
G1 X54.644 Y137.486 F10800
G11 ; unretract
G1 F1800
G1 X61.805 Y130.326 E.3944
G10 ; retract
G1 X62.521 Y130.326 F10800
G11 ; unretract
G1 F1800
G1 X54.787 Y138.06 E.42598
G10 ; retract
G1 X55.503 Y138.06 F10800
G11 ; unretract
G1 F1800
G1 X63.237 Y130.326 E.42598
G10 ; retract
G1 X63.953 Y130.326 F10800
G11 ; unretract
G1 F1800
G1 X56.219 Y138.06 E.42598
G10 ; retract
G1 X56.935 Y138.06 F10800
G11 ; unretract
G1 F1800
G1 X64.669 Y130.326 E.42598
G10 ; retract
G1 X65.385 Y130.326 F10800
G11 ; unretract
G1 F1800
G1 X57.651 Y138.06 E.42598
G10 ; retract
M73 P10 R7
G1 X58.367 Y138.06 F10800
G11 ; unretract
G1 F1800
G1 X66.101 Y130.326 E.42598
G10 ; retract
G1 X66.817 Y130.326 F10800
G11 ; unretract
G1 F1800
G1 X59.083 Y138.06 E.42598
G10 ; retract
G1 X59.799 Y138.06 F10800
G11 ; unretract
G1 F1800
G1 X67.533 Y130.326 E.42598
G10 ; retract
G1 X68.25 Y130.326 F10800
G11 ; unretract
G1 F1800
G1 X60.515 Y138.06 E.42598
G10 ; retract
G1 X61.231 Y138.06 F10800
G11 ; unretract
G1 F1800
G1 X68.966 Y130.326 E.42598
G10 ; retract
G1 X69.682 Y130.326 F10800
G11 ; unretract
G1 F1800
G1 X61.947 Y138.06 E.42598
G10 ; retract
G1 X62.664 Y138.06 F10800
G11 ; unretract
G1 F1800
G1 X70.398 Y130.326 E.42598
G10 ; retract
G1 X71.114 Y130.326 F10800
G11 ; unretract
G1 F1800
G1 X63.38 Y138.06 E.42598
G10 ; retract
G1 X64.096 Y138.06 F10800
G11 ; unretract
G1 F1800
G1 X71.83 Y130.326 E.42598
G10 ; retract
G1 X72.546 Y130.326 F10800
G11 ; unretract
G1 F1800
G1 X64.812 Y138.06 E.42598
G10 ; retract
G1 X65.528 Y138.06 F10800
G11 ; unretract
G1 F1800
G1 X73.262 Y130.326 E.42598
G10 ; retract
G1 X73.978 Y130.326 F10800
G11 ; unretract
M73 P11 R7
G1 F1800
G1 X66.244 Y138.06 E.42598
G10 ; retract
G1 X66.96 Y138.06 F10800
G11 ; unretract
G1 F1800
G1 X74.694 Y130.326 E.42598
G10 ; retract
G1 X75.41 Y130.326 F10800
G11 ; unretract
G1 F1800
G1 X67.676 Y138.06 E.42598
G10 ; retract
G1 X68.392 Y138.06 F10800
G11 ; unretract
G1 F1800
G1 X76.127 Y130.326 E.42598
G10 ; retract
G1 X76.843 Y130.326 F10800
G11 ; unretract
G1 F1800
G1 X69.108 Y138.06 E.42598
G10 ; retract
G1 X69.824 Y138.06 F10800
G11 ; unretract
G1 F1800
G1 X77.559 Y130.326 E.42598
G10 ; retract
G1 X78.275 Y130.326 F10800
G11 ; unretract
G1 F1800
G1 X70.54 Y138.06 E.42598
G10 ; retract
G1 X71.257 Y138.06 F10800
G11 ; unretract
G1 F1800
G1 X78.991 Y130.326 E.42598
G10 ; retract
G1 X79.707 Y130.326 F10800
G11 ; unretract
G1 F1800
G1 X71.973 Y138.06 E.42598
G10 ; retract
G1 X72.689 Y138.06 F10800
G11 ; unretract
G1 F1800
G1 X80.423 Y130.326 E.42598
G10 ; retract
G1 X81.139 Y130.326 F10800
G11 ; unretract
G1 F1800
G1 X73.405 Y138.06 E.42598
G10 ; retract
G1 X74.121 Y138.06 F10800
G11 ; unretract
G1 F1800
G1 X81.855 Y130.326 E.42598
G10 ; retract
M73 P12 R7
G1 X82.571 Y130.326 F10800
G11 ; unretract
G1 F1800
G1 X74.837 Y138.06 E.42598
G10 ; retract
G1 X75.553 Y138.06 F10800
G11 ; unretract
G1 F1800
G1 X83.287 Y130.326 E.42598
G10 ; retract
G1 X84.003 Y130.326 F10800
G11 ; unretract
G1 F1800
G1 X76.269 Y138.06 E.42598
G10 ; retract
G1 X76.985 Y138.06 F10800
G11 ; unretract
G1 F1800
G1 X84.72 Y130.326 E.42598
G10 ; retract
G1 X85.436 Y130.326 F10800
G11 ; unretract
G1 F1800
G1 X77.701 Y138.06 E.42598
G10 ; retract
G1 X78.417 Y138.06 F10800
G11 ; unretract
G1 F1800
G1 X86.152 Y130.326 E.42598
G10 ; retract
G1 X86.868 Y130.326 F10800
G11 ; unretract
G1 F1800
G1 X79.134 Y138.06 E.42598
G10 ; retract
G1 X79.85 Y138.06 F10800
G11 ; unretract
G1 F1800
G1 X87.584 Y130.326 E.42598
G10 ; retract
G1 X88.3 Y130.326 F10800
G11 ; unretract
G1 F1800
G1 X80.566 Y138.06 E.42598
G10 ; retract
G1 X81.282 Y138.06 F10800
G11 ; unretract
G1 F1800
G1 X89.016 Y130.326 E.42598
G10 ; retract
G1 X89.732 Y130.326 F10800
G11 ; unretract
G1 F1800
G1 X81.998 Y138.06 E.42598
G10 ; retract
G1 X82.714 Y138.06 F10800
G11 ; unretract
G1 F1800
G1 X90.448 Y130.326 E.42598
G10 ; retract
M73 P13 R7
G1 X91.164 Y130.326 F10800
G11 ; unretract
G1 F1800
G1 X83.43 Y138.06 E.42598
G10 ; retract
G1 X84.146 Y138.06 F10800
G11 ; unretract
G1 F1800
G1 X91.88 Y130.326 E.42598
G10 ; retract
G1 X92.596 Y130.326 F10800
G11 ; unretract
G1 F1800
G1 X84.862 Y138.06 E.42598
G10 ; retract
G1 X85.578 Y138.06 F10800
G11 ; unretract
G1 F1800
G1 X93.313 Y130.326 E.42598
G10 ; retract
G1 X94.029 Y130.326 F10800
G11 ; unretract
G1 F1800
G1 X86.294 Y138.06 E.42598
G10 ; retract
G1 X87.01 Y138.06 F10800
G11 ; unretract
G1 F1800
G1 X94.745 Y130.326 E.42598
G10 ; retract
G1 X95.461 Y130.326 F10800
G11 ; unretract
G1 F1800
G1 X87.727 Y138.06 E.42598
G10 ; retract
G1 X88.443 Y138.06 F10800
G11 ; unretract
G1 F1800
G1 X96.177 Y130.326 E.42598
G10 ; retract
G1 X96.893 Y130.326 F10800
G11 ; unretract
G1 F1800
G1 X89.159 Y138.06 E.42598
G10 ; retract
G1 X89.875 Y138.06 F10800
G11 ; unretract
G1 F1800
G1 X97.609 Y130.326 E.42598
G10 ; retract
G1 X98.325 Y130.326 F10800
G11 ; unretract
G1 F1800
G1 X90.591 Y138.06 E.42598
G10 ; retract
G1 X91.307 Y138.06 F10800
G11 ; unretract
G1 F1800
G1 X99.041 Y130.326 E.42598
G10 ; retract
M73 P14 R7
G1 X99.757 Y130.326 F10800
G11 ; unretract
G1 F1800
G1 X92.023 Y138.06 E.42598
G10 ; retract
G1 X92.739 Y138.06 F10800
G11 ; unretract
G1 F1800
G1 X100.473 Y130.326 E.42598
G10 ; retract
G1 X101.19 Y130.326 F10800
G11 ; unretract
G1 F1800
G1 X93.455 Y138.06 E.42598
G10 ; retract
G1 X94.171 Y138.06 F10800
G11 ; unretract
G1 F1800
G1 X101.906 Y130.326 E.42598
G10 ; retract
G1 X102.622 Y130.326 F10800
G11 ; unretract
G1 F1800
G1 X94.887 Y138.06 E.42598
G10 ; retract
G1 X95.603 Y138.06 F10800
G11 ; unretract
G1 F1800
G1 X103.338 Y130.326 E.42598
G10 ; retract
G1 X104.054 Y130.326 F10800
G11 ; unretract
G1 F1800
G1 X96.32 Y138.06 E.42598
G10 ; retract
G1 X97.036 Y138.06 F10800
G11 ; unretract
G1 F1800
G1 X104.77 Y130.326 E.42598
G10 ; retract
G1 X105.486 Y130.326 F10800
G11 ; unretract
G1 F1800
G1 X97.752 Y138.06 E.42598
G10 ; retract
G1 X98.468 Y138.06 F10800
G11 ; unretract
G1 F1800
G1 X106.202 Y130.326 E.42598
G10 ; retract
G1 X106.918 Y130.326 F10800
G11 ; unretract
G1 F1800
G1 X99.184 Y138.06 E.42598
G10 ; retract
G1 X99.9 Y138.06 F10800
G11 ; unretract
G1 F1800
G1 X107.634 Y130.326 E.42598
G10 ; retract
M73 P15 R7
G1 X108.35 Y130.326 F10800
G11 ; unretract
G1 F1800
G1 X100.616 Y138.06 E.42598
G10 ; retract
G1 X101.332 Y138.06 F10800
G11 ; unretract
G1 F1800
G1 X109.066 Y130.326 E.42598
G10 ; retract
G1 X109.783 Y130.326 F10800
G11 ; unretract
G1 F1800
G1 X102.048 Y138.06 E.42598
G10 ; retract
G1 X102.764 Y138.06 F10800
G11 ; unretract
G1 F1800
G1 X110.499 Y130.326 E.42598
G10 ; retract
G1 X111.215 Y130.326 F10800
G11 ; unretract
G1 F1800
G1 X103.48 Y138.06 E.42598
G10 ; retract
G1 X104.197 Y138.06 F10800
G11 ; unretract
G1 F1800
G1 X111.931 Y130.326 E.42598
G10 ; retract
G1 X112.647 Y130.326 F10800
G11 ; unretract
G1 F1800
G1 X104.913 Y138.06 E.42598
G10 ; retract
G1 X105.629 Y138.06 F10800
G11 ; unretract
G1 F1800
G1 X113.363 Y130.326 E.42598
G10 ; retract
G1 X114.079 Y130.326 F10800
G11 ; unretract
G1 F1800
G1 X106.345 Y138.06 E.42598
G10 ; retract
G1 X107.061 Y138.06 F10800
G11 ; unretract
G1 F1800
G1 X114.795 Y130.326 E.42598
G10 ; retract
G1 X115.511 Y130.326 F10800
G11 ; unretract
G1 F1800
G1 X107.777 Y138.06 E.42598
G10 ; retract
G1 X108.493 Y138.06 F10800
G11 ; unretract
G1 F1800
G1 X116.227 Y130.326 E.42598
G10 ; retract
M73 P16 R7
G1 X116.943 Y130.326 F10800
G11 ; unretract
G1 F1800
G1 X109.209 Y138.06 E.42598
G10 ; retract
G1 X109.925 Y138.06 F10800
G11 ; unretract
G1 F1800
G1 X117.66 Y130.326 E.42598
G10 ; retract
G1 X118.376 Y130.326 F10800
G11 ; unretract
G1 F1800
G1 X110.641 Y138.06 E.42598
G10 ; retract
G1 X111.357 Y138.06 F10800
G11 ; unretract
G1 F1800
G1 X119.092 Y130.326 E.42598
G10 ; retract
G1 X119.808 Y130.326 F10800
G11 ; unretract
G1 F1800
G1 X112.073 Y138.06 E.42598
G10 ; retract
G1 X112.79 Y138.06 F10800
G11 ; unretract
G1 F1800
G1 X120.524 Y130.326 E.42598
G10 ; retract
G1 X121.24 Y130.326 F10800
G11 ; unretract
G1 F1800
G1 X113.506 Y138.06 E.42598
G10 ; retract
G1 X114.222 Y138.06 F10800
G11 ; unretract
G1 F1800
G1 X121.956 Y130.326 E.42598
G10 ; retract
G1 X122.672 Y130.326 F10800
G11 ; unretract
G1 F1800
G1 X114.938 Y138.06 E.42598
G10 ; retract
G1 X115.654 Y138.06 F10800
G11 ; unretract
G1 F1800
G1 X123.388 Y130.326 E.42598
G10 ; retract
G1 X124.104 Y130.326 F10800
G11 ; unretract
G1 F1800
G1 X116.37 Y138.06 E.42598
G10 ; retract
G1 X117.086 Y138.06 F10800
G11 ; unretract
G1 F1800
G1 X124.82 Y130.326 E.42598
G10 ; retract
M73 P17 R7
G1 X125.536 Y130.326 F10800
G11 ; unretract
G1 F1800
G1 X117.802 Y138.06 E.42598
G10 ; retract
G1 X118.518 Y138.06 F10800
G11 ; unretract
G1 F1800
G1 X126.253 Y130.326 E.42598
G10 ; retract
G1 X126.969 Y130.326 F10800
G11 ; unretract
G1 F1800
G1 X119.234 Y138.06 E.42598
G10 ; retract
G1 X119.95 Y138.06 F10800
G11 ; unretract
G1 F1800
G1 X127.685 Y130.326 E.42598
G10 ; retract
G1 X128.401 Y130.326 F10800
G11 ; unretract
G1 F1800
G1 X120.667 Y138.06 E.42598
G10 ; retract
G1 X121.383 Y138.06 F10800
G11 ; unretract
G1 F1800
G1 X129.117 Y130.326 E.42598
G10 ; retract
G1 X129.833 Y130.326 F10800
G11 ; unretract
G1 F1800
G1 X122.099 Y138.06 E.42598
G10 ; retract
G1 X122.815 Y138.06 F10800
G11 ; unretract
G1 F1800
G1 X130.547 Y130.327 E.42588
G10 ; retract
G1 X130.547 Y131.044 F10800
G11 ; unretract
G1 F1800
G1 X123.531 Y138.06 E.38644
G10 ; retract
G1 X124.247 Y138.06 F10800
G11 ; unretract
G1 F1800
G1 X130.547 Y131.76 E.347
G10 ; retract
G1 X130.547 Y132.476 F10800
G11 ; unretract
G1 F1800
G1 X124.963 Y138.06 E.30756
G10 ; retract
G1 X125.679 Y138.06 F10800
G11 ; unretract
G1 F1800
G1 X130.547 Y133.192 E.26812
G10 ; retract
M73 P18 R7
G1 X130.547 Y133.908 F10800
G11 ; unretract
G1 F1800
G1 X126.395 Y138.06 E.22868
G10 ; retract
G1 X127.111 Y138.06 F10800
G11 ; unretract
G1 F1800
G1 X130.547 Y134.624 E.18924
G10 ; retract
G1 X130.547 Y135.34 F10800
G11 ; unretract
G1 F1800
G1 X127.827 Y138.06 E.1498
G10 ; retract
G1 X128.543 Y138.06 F10800
G11 ; unretract
G1 F1800
G1 X130.547 Y136.056 E.11036
G10 ; retract
G1 X130.547 Y136.772 F10800
G11 ; unretract
G1 F1800
G1 X129.26 Y138.06 E.07092
G10 ; retract
G1 X129.976 Y138.06 F10800
G11 ; unretract
G1 F1800
G1 X130.547 Y137.488 E.03148
G1 Z.45 F10800
G10 ; retract
G1 X57.217 Y87.393
G11 ; unretract
G1 Z.25
SET_PRESSURE_ADVANCE ADVANCE=0; Override pressure advance value
G1 F1800
G1 X77.044 Y107.22 E.85479

G1 X57.217 Y127.047 E.85479
G1 Z.45 F10800
G10 ; retract
G1 X57.792 Y87.393
G11 ; unretract
G1 Z.25
G1 F1800
G1 X77.619 Y107.22 E.85479

M73 P19 R7
G1 X57.792 Y127.047 E.85479
G1 Z.45 F10800
G10 ; retract
G1 X58.368 Y87.393
G11 ; unretract
M73 P19 R6
G1 Z.25
G1 F1800
G1 X78.195 Y107.22 E.85479

G1 X58.368 Y127.047 E.85479
G1 Z.45 F10800
G10 ; retract
G1 X60.818 Y87.393
G11 ; unretract
G1 Z.25
SET_PRESSURE_ADVANCE ADVANCE=0.05; Override pressure advance value
G1 F1800
G1 X80.645 Y107.22 E.85479

M73 P20 R6
G1 X60.818 Y127.047 E.85479
G1 Z.45 F10800
G10 ; retract
G1 X61.394 Y87.393
G11 ; unretract
G1 Z.25
G1 F1800
G1 X81.221 Y107.22 E.85479

G1 X61.394 Y127.047 E.85479
G1 Z.45 F10800
G10 ; retract
G1 X61.969 Y87.393
G11 ; unretract
G1 Z.25
G1 F1800
G1 X81.797 Y107.22 E.85479

M73 P21 R6
G1 X61.969 Y127.047 E.85479
G1 Z.45 F10800
G10 ; retract
G1 X64.419 Y87.393
G11 ; unretract
G1 Z.25
SET_PRESSURE_ADVANCE ADVANCE=0.1; Override pressure advance value
G1 F1800
G1 X84.247 Y107.22 E.85479

G1 X64.419 Y127.047 E.85479
G1 Z.45 F10800
G10 ; retract
G1 X64.995 Y87.393
G11 ; unretract
G1 Z.25
G1 F1800
G1 X84.822 Y107.22 E.85479

M73 P22 R6
G1 X64.995 Y127.047 E.85479
G1 Z.45 F10800
G10 ; retract
G1 X65.571 Y87.393
G11 ; unretract
G1 Z.25
G1 F1800
G1 X85.398 Y107.22 E.85479

G1 X65.571 Y127.047 E.85479
G1 Z.45 F10800
G10 ; retract
G1 X68.021 Y87.393
G11 ; unretract
G1 Z.25
SET_PRESSURE_ADVANCE ADVANCE=0.15; Override pressure advance value
G1 F1800
G1 X87.848 Y107.22 E.85479

M73 P23 R6
G1 X68.021 Y127.047 E.85479
G1 Z.45 F10800
G10 ; retract
G1 X68.596 Y87.393
G11 ; unretract
G1 Z.25
G1 F1800
G1 X88.424 Y107.22 E.85479

G1 X68.596 Y127.047 E.85479
G1 Z.45 F10800
G10 ; retract
G1 X69.172 Y87.393
G11 ; unretract
G1 Z.25
G1 F1800
G1 X88.999 Y107.22 E.85479

M73 P24 R6
G1 X69.172 Y127.047 E.85479
G1 Z.45 F10800
G10 ; retract
G1 X71.622 Y87.393
G11 ; unretract
G1 Z.25
SET_PRESSURE_ADVANCE ADVANCE=0.2; Override pressure advance value
G1 F1800
G1 X91.449 Y107.22 E.85479

G1 X71.622 Y127.047 E.85479
G1 Z.45 F10800
G10 ; retract
G1 X72.198 Y87.393
G11 ; unretract
G1 Z.25
G1 F1800
G1 X92.025 Y107.22 E.85479

G1 X72.198 Y127.047 E.85479
M73 P25 R6
G1 Z.45 F10800
G10 ; retract
G1 X72.774 Y87.393
G11 ; unretract
G1 Z.25
G1 F1800
G1 X92.601 Y107.22 E.85479

G1 X72.774 Y127.047 E.85479
G1 Z.45 F10800
G10 ; retract
G1 X75.224 Y87.393
G11 ; unretract
G1 Z.25
SET_PRESSURE_ADVANCE ADVANCE=0.25; Override pressure advance value
G1 F1800
G1 X95.051 Y107.22 E.85479

G1 X75.224 Y127.047 E.85479
