; HEADER_BLOCK_START
; generated by OrcaSlicer 1.9.1 on 2024-02-17 at 16:46:44
; total layer number: 7
; filament_density: 1.27
; filament_diameter: 1.75
; max_z_height: 1.40
; HEADER_BLOCK_END

; THUMBNAIL_BLOCK_START

;
; THUMBNAIL_BLOCK_END

; external perimeters extrusion width = 0.40mm
; perimeters extrusion width = 0.45mm
; infill extrusion width = 0.45mm
; solid infill extrusion width = 0.48mm
; top infill extrusion width = 0.48mm
; support material extrusion width = 0.40mm
; first layer extrusion width = 0.50mm

; external perimeters extrusion width = 0.40mm
; perimeters extrusion width = 0.45mm
; infill extrusion width = 0.45mm
; solid infill extrusion width = 0.48mm
; top infill extrusion width = 0.48mm
; support material extrusion width = 0.40mm
; first layer extrusion width = 0.50mm

; external perimeters extrusion width = 0.40mm
; perimeters extrusion width = 0.45mm
; infill extrusion width = 0.45mm
; solid infill extrusion width = 0.48mm
; top infill extrusion width = 0.48mm
; support material extrusion width = 0.40mm
; first layer extrusion width = 0.50mm

; external perimeters extrusion width = 0.40mm
; perimeters extrusion width = 0.45mm
; infill extrusion width = 0.45mm
; solid infill extrusion width = 0.48mm
; top infill extrusion width = 0.48mm
; support material extrusion width = 0.40mm
; first layer extrusion width = 0.50mm

; external perimeters extrusion width = 0.40mm
; perimeters extrusion width = 0.45mm
; infill extrusion width = 0.45mm
; solid infill extrusion width = 0.48mm
; top infill extrusion width = 0.48mm
; support material extrusion width = 0.40mm
; first layer extrusion width = 0.50mm

; external perimeters extrusion width = 0.40mm
; perimeters extrusion width = 0.45mm
; infill extrusion width = 0.45mm
; solid infill extrusion width = 0.48mm
; top infill extrusion width = 0.48mm
; support material extrusion width = 0.40mm
; first layer extrusion width = 0.50mm

; external perimeters extrusion width = 0.40mm
; perimeters extrusion width = 0.45mm
; infill extrusion width = 0.45mm
; solid infill extrusion width = 0.48mm
; top infill extrusion width = 0.48mm
; support material extrusion width = 0.40mm
; first layer extrusion width = 0.50mm

; external perimeters extrusion width = 0.40mm
; perimeters extrusion width = 0.45mm
; infill extrusion width = 0.45mm
; solid infill extrusion width = 0.48mm
; top infill extrusion width = 0.48mm
; support material extrusion width = 0.40mm
; first layer extrusion width = 0.50mm

; external perimeters extrusion width = 0.40mm
; perimeters extrusion width = 0.45mm
; infill extrusion width = 0.45mm
; solid infill extrusion width = 0.48mm
; top infill extrusion width = 0.48mm
; support material extrusion width = 0.40mm
; first layer extrusion width = 0.50mm

; external perimeters extrusion width = 0.40mm
; perimeters extrusion width = 0.45mm
; infill extrusion width = 0.45mm
; solid infill extrusion width = 0.48mm
; top infill extrusion width = 0.48mm
; support material extrusion width = 0.40mm
; first layer extrusion width = 0.50mm

; EXECUTABLE_BLOCK_START
EXCLUDE_OBJECT_DEFINE NAME=flowrate_0_id_0_copy_0 CENTER=110,158 POLYGON=[[90,143],[130,143],[130,163],[120,173],[100,173],[90,163],[90,143]]
EXCLUDE_OBJECT_DEFINE NAME=flowrate_m1_id_1_copy_0 CENTER=68,126 POLYGON=[[48,111],[88,111],[88,131],[78,141],[58,141],[48,131],[48,111]]
EXCLUDE_OBJECT_DEFINE NAME=flowrate_m2_id_2_copy_0 CENTER=110,126 POLYGON=[[90,111],[130,111],[130,131],[120,141],[100,141],[90,131],[90,111]]
EXCLUDE_OBJECT_DEFINE NAME=flowrate_m3_id_3_copy_0 CENTER=152,126 POLYGON=[[132,111],[172,111],[172,131],[162,141],[142,141],[132,131],[132,111]]
EXCLUDE_OBJECT_DEFINE NAME=flowrate_m4_id_4_copy_0 CENTER=68,94 POLYGON=[[48,79],[88,79],[88,99],[78,109],[58,109],[48,99],[48,79]]
EXCLUDE_OBJECT_DEFINE NAME=flowrate_m5_id_5_copy_0 CENTER=110,94 POLYGON=[[90,79],[130,79],[130,99],[120,109],[100,109],[90,99],[90,79]]
EXCLUDE_OBJECT_DEFINE NAME=flowrate_m6_id_6_copy_0 CENTER=152,94 POLYGON=[[132,79],[172,79],[172,99],[162,109],[142,109],[132,99],[132,79]]
EXCLUDE_OBJECT_DEFINE NAME=flowrate_m7_id_7_copy_0 CENTER=152,62 POLYGON=[[132,47],[172,47],[172,67],[162,77],[142,77],[132,67],[132,47]]
EXCLUDE_OBJECT_DEFINE NAME=flowrate_m8_id_8_copy_0 CENTER=110,62 POLYGON=[[90,47],[130,47],[130,67],[120,77],[100,77],[90,67],[90,47]]
EXCLUDE_OBJECT_DEFINE NAME=flowrate_m9_id_9_copy_0 CENTER=68,62 POLYGON=[[48,47],[88,47],[88,67],[78,77],[58,77],[48,67],[48,47]]
M73 P0 R56
;TYPE:Custom
M190 S80
M109 S235
PRINT_START EXTRUDER=235 BED=80
START_PRINT
G90
G21
M83 ; use relative distances for extrusion
; filament start gcode
M106 S0
;LAYER_CHANGE
;Z:0.2
;HEIGHT:0.2
;BEFORE_LAYER_CHANGE
;0.2
G92 E0

G10 ; retract
;AFTER_LAYER_CHANGE
;0.2
;_SET_FAN_SPEED_CHANGING_LAYER
SET_VELOCITY_LIMIT ACCEL=500 ACCEL_TO_DECEL=250
; printing object flowrate_m3 id:3 copy 0
EXCLUDE_OBJECT_START NAME=flowrate_m3_id_3_copy_0
G1 Z.4 F10800
G1 X143.141 Y130.835
G1 Z.2
G11 ; unretract
;TYPE:Inner wall
;WIDTH:0.499999
G1 F1800
G1 X143.116 Y130.65 E.00524
G1 X142.969 Y130.339 E.00964
G1 X142.707 Y130.064 E.01063
G1 X142.392 Y129.898 E.00999
G1 X142.021 Y129.836 E.01053
G1 X133.164 Y129.836 E.24817
G1 X133.164 Y112.164 E.49513
G1 X170.836 Y112.164 E1.05549
G1 X170.836 Y121 E.24756
G1 X170.836 Y129.836 E.24756
G1 X162 Y129.836 E.24756
G1 X161.789 Y129.852 E.00592
G1 X161.441 Y129.97 E.01032
G1 X161.113 Y130.233 E.01176
G1 X160.909 Y130.577 E.01123
G1 X160.836 Y130.979 E.01143
G1 X160.836 Y139.836 E.24817
G1 X143.164 Y139.836 E.49513
G1 X143.164 Y131 E.24756
G1 X143.147 Y130.875 E.00354
G1 X142.695 Y130.909 F10800
G1 F1800
G1 X142.678 Y130.782 E.00359
G1 X142.541 Y130.531 E.00801
G1 X142.295 Y130.35 E.00855
G1 X142.021 Y130.293 E.00784
G1 X132.707 Y130.293 E.26097
G1 X132.707 Y111.707 E.52074
G1 X171.293 Y111.707 E1.08111
G1 X171.293 Y121 E.26037
G1 X171.293 Y130.293 E.26037
G1 X162 Y130.293 E.26037
G1 X161.81 Y130.314 E.00536
G1 X161.528 Y130.462 E.00892
G1 X161.353 Y130.697 E.0082
G1 X161.293 Y130.979 E.00806
G1 X161.293 Y140.293 E.26097
G1 X142.707 Y140.293 E.52074
G1 X142.707 Y131 E.26037
G1 X142.7 Y130.948 E.00146
G1 X142.25 Y130.979 F10800
;TYPE:Outer wall
G1 F1800
G1 X142.184 Y130.818 E.00488
G1 X142.021 Y130.75 E.00493
G1 X132.25 Y130.75 E.27378
G1 X132.25 Y111.25 E.54636
G1 X171.75 Y111.25 E1.10672
G1 X171.75 Y121 E.27318
G1 X171.75 Y130.75 E.27318
G1 X161.979 Y130.75 E.27378
G1 X161.816 Y130.818 E.00493
G1 X161.75 Y130.979 E.00488
G1 X161.75 Y140.75 E.27378
G1 X142.25 Y140.75 E.54636
G1 X142.25 Y131.019 E.27266
G10 ; retract
;WIPE_START
G1 X142.184 Y130.818 E-.05078
G1 X142.021 Y130.75 E-.04219
G1 X141.409 Y130.75 E-.14703
;WIPE_END
G1 Z.6 F10800
G1 X141.409 Y130.314 Z.6
G1 X171.314 Y111.686
G1 X171.314 Y113.236
G1 X170.699 Y113.236
G1 Z.2
G11 ; unretract
;TYPE:Bottom surface
;WIDTH:0.504948
G1 F2400
G1 X169.97 Y112.507 E.02919
G1 X169.317 Y112.507 E.01851
G1 X170.493 Y113.683 E.04712
G1 X170.493 Y114.337 E.01851
G1 X168.663 Y112.507 E.07329
G1 X168.01 Y112.507 E.01851
G1 X170.493 Y114.99 E.09946
G1 X170.493 Y115.644 E.01851
G1 X167.356 Y112.507 E.12563
G1 X166.703 Y112.507 E.01851
G1 X170.493 Y116.297 E.15181
G1 X170.493 Y116.951 E.01851
G1 X166.049 Y112.507 E.17798
G1 X165.396 Y112.507 E.01851
G1 X170.493 Y117.604 E.20415
G1 X170.493 Y118.257 E.01851
G1 X164.743 Y112.507 E.23032
G1 X164.089 Y112.507 E.01851
G1 X170.493 Y118.911 E.25649
G1 X170.493 Y119.564 E.01851
G1 X163.436 Y112.507 E.28266
G1 X162.782 Y112.507 E.01851
G1 X170.493 Y120.218 E.30883
G1 X170.493 Y120.871 E.01851
G1 X162.129 Y112.507 E.335
G1 X161.476 Y112.507 E.01851
G1 X170.493 Y121.524 E.36117
G1 X170.493 Y122.178 E.01851
G1 X160.822 Y112.507 E.38734
G1 X160.169 Y112.507 E.01851
G1 X170.493 Y122.831 E.41351
G1 X170.493 Y123.485 E.01851
G1 X159.515 Y112.507 E.43968
G1 X158.862 Y112.507 E.01851
G1 X170.493 Y124.138 E.46585
G1 X170.493 Y124.791 E.01851
G1 X158.209 Y112.507 E.49202
G1 X157.555 Y112.507 E.01851
G1 X170.493 Y125.445 E.5182
G1 X170.493 Y126.098 E.01851
G1 X156.902 Y112.507 E.54437
G1 X156.248 Y112.507 E.01851
G1 X170.493 Y126.752 E.57054
G1 X170.493 Y127.405 E.01851
G1 X155.595 Y112.507 E.59671
G1 X154.942 Y112.507 E.01851
G1 X170.493 Y128.058 E.62288
G1 X170.493 Y128.712 E.01851
G1 X154.288 Y112.507 E.64905
G1 X153.635 Y112.507 E.01851
G1 X170.493 Y129.365 E.67522
G1 X170.493 Y129.493 E.00362
G1 X169.968 Y129.493 E.01488
G1 X152.981 Y112.507 E.68035
G1 X152.328 Y112.507 E.01851
G1 X169.315 Y129.494 E.68037
G1 X168.662 Y129.494 E.0185
G1 X151.675 Y112.507 E.68038
G1 X151.021 Y112.507 E.01851
G1 X168.009 Y129.494 E.6804
G1 X167.356 Y129.495 E.0185
G1 X150.368 Y112.507 E.68041
G1 X149.714 Y112.507 E.01851
G1 X166.703 Y129.495 E.68042
G1 X166.049 Y129.496 E.0185
G1 X149.061 Y112.507 E.68044
G1 X148.408 Y112.507 E.01851
G1 X165.396 Y129.496 E.68045
G1 X164.743 Y129.496 E.0185
G1 X147.754 Y112.507 E.68047
G1 X147.101 Y112.507 E.01851
G1 X164.09 Y129.497 E.68048
G1 X163.437 Y129.497 E.0185
G1 X146.447 Y112.507 E.6805
G1 X145.794 Y112.507 E.01851
M73 P1 R56
G1 X162.784 Y129.497 E.68051
G1 X162.131 Y129.498 E.0185
G1 X145.14 Y112.507 E.68052
G1 X144.487 Y112.507 E.01851
G1 X161.543 Y129.562 E.68312
G1 X161.385 Y129.616 E.00471
G1 X161.178 Y129.727 E.00665
G1 X161.109 Y129.782 E.00251
G1 X143.834 Y112.507 E.69192
G1 X143.18 Y112.507 E.01851
G1 X160.78 Y130.107 E.70492
G1 X160.623 Y130.37 E.00867
G1 X160.565 Y130.545 E.00523
G1 X142.527 Y112.507 E.72246
G1 X141.873 Y112.507 E.01851
G1 X160.497 Y131.13 E.74591
G1 X160.496 Y131.783 E.0185
G1 X141.22 Y112.507 E.77207
G1 X140.567 Y112.507 E.01851
G1 X160.496 Y132.437 E.79823
G1 X160.496 Y133.09 E.0185
G1 X139.913 Y112.507 E.82439
G1 X139.26 Y112.507 E.01851
G1 X160.496 Y133.743 E.85055
G1 X160.495 Y134.396 E.0185
G1 X138.606 Y112.507 E.87671
G1 X137.953 Y112.507 E.01851
G1 X160.495 Y135.049 E.90287
G1 X160.495 Y135.702 E.0185
G1 X137.3 Y112.507 E.92903
G1 X136.646 Y112.507 E.01851
G1 X160.494 Y136.355 E.95519
G1 X160.494 Y137.008 E.0185
G1 X135.993 Y112.507 E.98135
G1 X135.339 Y112.507 E.01851
G1 X160.494 Y137.661 E1.00751
G1 X160.494 Y138.315 E.0185
G1 X134.686 Y112.507 E1.03367
G1 X134.033 Y112.507 E.01851
G1 X160.493 Y138.968 E1.05983
G1 X160.493 Y139.493 E.01488
G1 X160.365 Y139.493 E.00362
G1 X133.507 Y112.635 E1.07575
G1 X133.507 Y113.288 E.01851
G1 X159.712 Y139.493 E1.04958
G1 X159.058 Y139.493 E.01851
G1 X133.507 Y113.942 E1.02341
G1 X133.507 Y114.595 E.01851
G1 X158.405 Y139.493 E.99724
G1 X157.752 Y139.493 E.01851
G1 X133.507 Y115.248 E.97107
G1 X133.507 Y115.902 E.01851
G1 X157.098 Y139.493 E.9449
G1 X156.445 Y139.493 E.01851
G1 X133.507 Y116.555 E.91872
G1 X133.507 Y117.209 E.01851
G1 X155.791 Y139.493 E.89255
M73 P1 R55
G1 X155.138 Y139.493 E.01851
G1 X133.507 Y117.862 E.86638
G1 X133.507 Y118.515 E.01851
G1 X154.485 Y139.493 E.84021
G1 X153.831 Y139.493 E.01851
G1 X133.507 Y119.169 E.81404
G1 X133.507 Y119.822 E.01851
G1 X153.178 Y139.493 E.78787
G1 X152.524 Y139.493 E.01851
G1 X133.507 Y120.476 E.7617
G1 X133.507 Y121.129 E.01851
G1 X141.876 Y129.498 E.33519
G1 X141.222 Y129.497 E.01852
G1 X133.507 Y121.782 E.309
G1 X133.507 Y122.436 E.01851
G1 X140.568 Y129.497 E.28282
G1 X139.914 Y129.497 E.01852
G1 X133.507 Y123.089 E.25663
G1 X133.507 Y123.743 E.01851
G1 X139.261 Y129.496 E.23045
G1 X138.607 Y129.496 E.01852
G1 X133.507 Y124.396 E.20426
G1 X133.507 Y125.049 E.01851
G1 X137.953 Y129.496 E.17808
G1 X137.299 Y129.495 E.01852
G1 X133.507 Y125.703 E.15189
G1 X133.507 Y126.356 E.01851
G1 X136.645 Y129.495 E.12571
G1 X135.992 Y129.494 E.01852
G1 X133.507 Y127.01 E.09952
G1 X133.507 Y127.663 E.01851
G1 X135.338 Y129.494 E.07334
G1 X134.684 Y129.494 E.01852
G1 X133.507 Y128.316 E.04715
G1 X133.507 Y128.97 E.01851
G1 X134.236 Y129.699 E.02921
G10 ; retract
;WIPE_START
G1 X133.529 Y128.992 E-.24
;WIPE_END
G1 Z.6 F10800
G1 X143.297 Y130.92 Z.6
G1 Z.2
G11 ; unretract
G1 F2400
G1 X151.871 Y139.493 E.34339
G1 X151.218 Y139.493 E.01851
G1 X143.504 Y131.779 E.30897
G1 X143.504 Y132.433 E.01851
G1 X150.564 Y139.493 E.28279
G1 X149.911 Y139.493 E.01851
G1 X143.504 Y133.086 E.2566
G1 X143.504 Y133.74 E.01851
G1 X149.257 Y139.493 E.23042
G1 X148.604 Y139.493 E.01851
G1 X143.505 Y134.394 E.20424
G1 X143.505 Y135.047 E.01851
G1 X147.951 Y139.493 E.17806
G1 X147.297 Y139.493 E.01851
G1 X143.505 Y135.701 E.15188
G1 X143.506 Y136.355 E.01851
G1 X146.644 Y139.493 E.12569
G1 X145.99 Y139.493 E.01851
G1 X143.506 Y137.009 E.09951
G1 X143.506 Y137.662 E.01851
G1 X145.337 Y139.493 E.07333
G1 X144.684 Y139.493 E.01851
G1 X143.506 Y138.316 E.04715
G1 X143.507 Y138.97 E.01851
G1 X144.236 Y139.699 E.0292
; stop printing object flowrate_m3 id:3 copy 0
; printing object flowrate_m6 id:6 copy 0
G10 ; retract
;WIPE_START
G1 X143.529 Y138.992 E-.24
;WIPE_END
EXCLUDE_OBJECT_END NAME=flowrate_m3_id_3_copy_0
EXCLUDE_OBJECT_START NAME=flowrate_m6_id_6_copy_0
G1 Z.6 F10800
G1 X143.141 Y98.835 Z.6
M73 P2 R55
G1 Z.2
G11 ; unretract
;TYPE:Inner wall
;WIDTH:0.499999
G1 F1800
G1 X143.116 Y98.65 E.00507
G1 X142.969 Y98.339 E.00934
G1 X142.707 Y98.064 E.0103
G1 X142.392 Y97.898 E.00968
G1 X142.021 Y97.836 E.0102
G1 X133.164 Y97.836 E.24049
G1 X133.164 Y80.164 E.47982
G1 X170.836 Y80.164 E1.02285
G1 X170.836 Y89 E.23991
G1 X170.836 Y97.836 E.23991
G1 X162 Y97.836 E.23991
G1 X161.789 Y97.852 E.00573
G1 X161.441 Y97.97 E.01
G1 X161.113 Y98.233 E.0114
G1 X160.909 Y98.577 E.01088
G1 X160.836 Y98.979 E.01107
G1 X160.836 Y107.836 E.24049
G1 X143.164 Y107.836 E.47982
G1 X143.164 Y99 E.23991
G1 X143.147 Y98.875 E.00343
G1 X142.695 Y98.909 F10800
G1 F1800
G1 X142.678 Y98.782 E.00348
G1 X142.541 Y98.531 E.00776
G1 X142.295 Y98.35 E.00828
G1 X142.021 Y98.293 E.00759
G1 X132.707 Y98.293 E.2529
G1 X132.707 Y79.707 E.50464
G1 X171.293 Y79.707 E1.04767
G1 X171.293 Y89 E.25232
G1 X171.293 Y98.293 E.25232
G1 X162 Y98.293 E.25232
G1 X161.81 Y98.314 E.0052
G1 X161.528 Y98.462 E.00865
G1 X161.353 Y98.697 E.00795
G1 X161.293 Y98.979 E.00781
G1 X161.293 Y108.293 E.2529
G1 X142.707 Y108.293 E.50464
G1 X142.707 Y99 E.25232
G1 X142.7 Y98.948 E.00142
G1 X142.25 Y98.979 F10800
;TYPE:Outer wall
G1 F1800
G1 X142.184 Y98.818 E.00473
G1 X142.021 Y98.75 E.00477
G1 X132.25 Y98.75 E.26531
G1 X132.25 Y79.25 E.52946
G1 X171.75 Y79.25 E1.07249
G1 X171.75 Y89 E.26473
G1 X171.75 Y98.75 E.26473
G1 X161.979 Y98.75 E.26531
G1 X161.816 Y98.818 E.00477
G1 X161.75 Y98.979 E.00473
G1 X161.75 Y108.75 E.26531
G1 X142.25 Y108.75 E.52946
G1 X142.25 Y99.019 E.26423
G10 ; retract
;WIPE_START
G1 X142.184 Y98.818 E-.05078
G1 X142.021 Y98.75 E-.04219
G1 X141.409 Y98.75 E-.14703
;WIPE_END
G1 Z.6 F10800
G1 X141.409 Y98.314 Z.6
G1 X171.314 Y79.686
G1 X171.314 Y81.236
G1 X170.699 Y81.236
G1 Z.2
G11 ; unretract
;TYPE:Bottom surface
;WIDTH:0.504948
G1 F2400
G1 X169.97 Y80.507 E.02829
G1 X169.317 Y80.507 E.01793
G1 X170.493 Y81.683 E.04566
G1 X170.493 Y82.337 E.01793
G1 X168.663 Y80.507 E.07103
G1 X168.01 Y80.507 E.01793
G1 X170.493 Y82.99 E.09639
G1 X170.493 Y83.644 E.01793
G1 X167.356 Y80.507 E.12175
G1 X166.703 Y80.507 E.01793
G1 X170.493 Y84.297 E.14711
G1 X170.493 Y84.951 E.01793
G1 X166.049 Y80.507 E.17247
G1 X165.396 Y80.507 E.01793
G1 X170.493 Y85.604 E.19783
G1 X170.493 Y86.257 E.01793
G1 X164.743 Y80.507 E.22319
G1 X164.089 Y80.507 E.01793
G1 X170.493 Y86.911 E.24856
G1 X170.493 Y87.564 E.01793
G1 X163.436 Y80.507 E.27392
G1 X162.782 Y80.507 E.01793
G1 X170.493 Y88.218 E.29928
G1 X170.493 Y88.871 E.01793
G1 X162.129 Y80.507 E.32464
G1 X161.476 Y80.507 E.01793
G1 X170.493 Y89.524 E.35
G1 X170.493 Y90.178 E.01793
G1 X160.822 Y80.507 E.37536
G1 X160.169 Y80.507 E.01793
G1 X170.493 Y90.831 E.40072
G1 X170.493 Y91.485 E.01793
G1 X159.515 Y80.507 E.42608
G1 X158.862 Y80.507 E.01793
G1 X170.493 Y92.138 E.45145
G1 X170.493 Y92.791 E.01793
G1 X158.209 Y80.507 E.47681
G1 X157.555 Y80.507 E.01793
G1 X170.493 Y93.445 E.50217
G1 X170.493 Y94.098 E.01793
G1 X156.902 Y80.507 E.52753
G1 X156.248 Y80.507 E.01793
G1 X170.493 Y94.752 E.55289
G1 X170.493 Y95.405 E.01793
G1 X155.595 Y80.507 E.57825
G1 X154.942 Y80.507 E.01793
G1 X170.493 Y96.058 E.60361
G1 X170.493 Y96.712 E.01793
